alvinuday/Neuromorphic-Robot-Control/arm_mpc_log.csv
t_sim,q1,q2,q3,q4,q5,q6,q7,q1_ref,q2_ref,q3_ref,q4_ref,q5_ref,q6_ref,q7_ref,tau1,tau2,tau3,tau4,tau5,tau6,tau7,gripper_cmd,tracking_error,ee_x,ee_y,ee_z
0.0000,0.000000,0.300000,0.000000,-1.570790,0.000000,2.000000,-0.785300,0.000000,0.300000,0.000000,-1.570790,0.000000,2.000000,-0.785300,0.000000,0.300000,0.000000,-1.570790,0.000000,2.000000,-0.785300,0.0400,0.000000,0.6778,0.0000,0.3783
0.0020,0.000001,0.300036,-0.000001,-1.570827,-0.000005,2.000011,-0.785300,0.000000,0.300000,0.000000,-1.570790,-0.000000,2.000000,-0.785300,0.000000,0.300000,0.000000,-1.570790,-0.000000,2.000000,-0.785300,0.0400,0.000053,0.6778,0.0000,0.3783
0.0040,0.000003,0.300108,-0.000003,-1.570898,-0.000015,2.000028,-0.785300,0.000000,0.300000,0.000000,-1.570790,-0.000000,2.000000,-0.785300,0.000000,0.300000,0.000000,-1.570790,-0.000000,2.000000,-0.785300,0.0400,0.000156,0.6778,-0.0000,0.3782
0.0060,0.000006,0.300214,-0.000005,-1.571000,-0.000030,2.000049,-0.785300,0.000000,0.300000,0.000000,-1.570791,-0.000000,2.000000,-0.785301,0.000000,0.300000,0.000000,-1.570791,-0.000000,2.000000,-0.785301,0.0400,0.000305,0.6778,-0.0000,0.3782
0.0080,0.000008,0.300355,-0.000006,-1.571132,-0.000051,2.000070,-0.785301,0.000000,0.300000,0.000000,-1.570791,-0.000001,2.000001,-0.785302,0.000000,0.300000,0.000000,-1.570791,-0.000001,2.000001,-0.785302,0.0400,0.000500,0.6778,-0.0000,0.3780
0.0100,0.000011,0.300530,-0.000008,-1.571291,-0.000078,2.000088,-0.785301,0.000000,0.300000,0.000000,-1.570793,-0.000001,2.000002,-0.785304,0.000000,0.300000,0.000000,-1.570793,-0.000001,2.000002,-0.785304,0.0400,0.000737,0.6778,-0.0000,0.3779
0.0120,0.000015,0.300737,-0.000010,-1.571476,-0.000110,2.000101,-0.785301,0.000000,0.299999,0.000001,-1.570795,-0.000002,2.000004,-0.785307,0.000000,0.299999,0.000001,-1.570795,-0.000002,2.000004,-0.785307,0.0400,0.001015,0.6778,-0.0000,0.3777
0.0140,0.000018,0.300976,-0.000012,-1.571686,-0.000147,2.000107,-0.785301,0.000000,0.299999,0.000001,-1.570798,-0.000004,2.000006,-0.785311,0.000000,0.299999,0.000001,-1.570798,-0.000004,2.000006,-0.785311,0.0400,0.001332,0.6777,-0.0000,0.3775
0.0160,0.000022,0.301246,-0.000014,-1.571918,-0.000189,2.000103,-0.785302,0.000000,0.299999,0.000002,-1.570801,-0.000005,2.000009,-0.785316,0.000000,0.299999,0.000002,-1.570801,-0.000005,2.000009,-0.785316,0.0400,0.001687,0.6777,-0.0000,0.3772
0.0180,0.000025,0.301545,-0.000016,-1.572171,-0.000236,2.000088,-0.785303,0.000000,0.299998,0.000002,-1.570806,-0.000007,2.000013,-0.785323,0.000000,0.299998,0.000002,-1.570806,-0.000007,2.000013,-0.785323,0.0400,0.002078,0.6777,-0.0000,0.3769
0.0200,0.000029,0.301873,-0.000017,-1.572445,-0.000288,2.000060,-0.785304,0.000001,0.299998,0.000003,-1.570812,-0.000010,2.000018,-0.785332,0.000001,0.299998,0.000003,-1.570812,-0.000010,2.000018,-0.785332,0.0400,0.002503,0.6776,-0.0000,0.3766
0.0220,0.000033,0.302228,-0.000019,-1.572738,-0.000345,2.000018,-0.785305,0.000001,0.299997,0.000004,-1.570819,-0.000014,2.000024,-0.785342,0.000001,0.299997,0.000004,-1.570819,-0.000014,2.000024,-0.785342,0.0400,0.002962,0.6775,-0.0000,0.3762
0.0240,0.000037,0.302610,-0.000021,-1.573050,-0.000405,1.999961,-0.785307,0.000001,0.299996,0.000006,-1.570828,-0.000018,2.000031,-0.785355,0.000001,0.299996,0.000006,-1.570828,-0.000018,2.000031,-0.785355,0.0400,0.003454,0.6775,-0.0000,0.3758
0.0260,0.000041,0.303016,-0.000022,-1.573378,-0.000469,1.999888,-0.785309,0.000001,0.299995,0.000007,-1.570838,-0.000022,2.000039,-0.785370,0.000001,0.299995,0.000007,-1.570838,-0.000022,2.000039,-0.785370,0.0400,0.003976,0.6774,-0.0001,0.3754
0.0280,0.000045,0.303447,-0.000024,-1.573724,-0.000536,1.999799,-0.785311,0.000002,0.299993,0.000009,-1.570850,-0.000028,2.000049,-0.785387,0.000002,0.299993,0.000009,-1.570850,-0.000028,2.000049,-0.785387,0.0400,0.004529,0.6773,-0.0001,0.3749
0.0300,0.000049,0.303900,-0.000025,-1.574085,-0.000607,1.999693,-0.785315,0.000002,0.299992,0.000011,-1.570863,-0.000034,2.000060,-0.785406,0.000002,0.299992,0.000011,-1.570863,-0.000034,2.000060,-0.785406,0.0400,0.005112,0.6773,-0.0001,0.3744
0.0320,0.000053,0.304375,-0.000027,-1.574462,-0.000680,1.999571,-0.785319,0.000003,0.299990,0.000014,-1.570879,-0.000041,2.000073,-0.785429,0.000003,0.299990,0.000014,-1.570879,-0.000041,2.000073,-0.785429,0.0400,0.005722,0.6772,-0.0001,0.3739
0.0340,0.000057,0.304871,-0.000029,-1.574852,-0.000755,1.999431,-0.785324,0.000003,0.299988,0.000016,-1.570896,-0.000049,2.000087,-0.785454,0.000003,0.299988,0.000016,-1.570896,-0.000049,2.000087,-0.785454,0.0400,0.006359,0.6771,-0.0001,0.3734
0.0360,0.000061,0.305386,-0.000030,-1.575256,-0.000832,1.999275,-0.785330,0.000004,0.299986,0.000019,-1.570916,-0.000058,2.000103,-0.785483,0.000004,0.299986,0.000019,-1.570916,-0.000058,2.000103,-0.785483,0.0400,0.007022,0.6770,-0.0001,0.3729
0.0380,0.000064,0.305919,-0.000032,-1.575673,-0.000910,1.999103,-0.785338,0.000004,0.299984,0.000023,-1.570937,-0.000069,2.000121,-0.785514,0.000004,0.299984,0.000023,-1.570937,-0.000069,2.000121,-0.785514,0.0400,0.007710,0.6769,-0.0001,0.3723
0.0400,0.000068,0.306470,-0.000034,-1.576102,-0.000989,1.998916,-0.785347,0.000005,0.299981,0.000026,-1.570962,-0.000080,2.000141,-0.785549,0.000005,0.299981,0.000026,-1.570962,-0.000080,2.000141,-0.785549,0.0400,0.008421,0.6768,-0.0001,0.3717
0.0420,0.000072,0.307037,-0.000036,-1.576543,-0.001070,1.998713,-0.785357,0.000006,0.299978,0.000030,-1.570988,-0.000092,2.000163,-0.785588,0.000006,0.299978,0.000030,-1.570988,-0.000092,2.000163,-0.785588,0.0400,0.009155,0.6766,-0.0001,0.3711
0.0440,0.000075,0.307620,-0.000038,-1.576995,-0.001150,1.998497,-0.785369,0.000007,0.299975,0.000035,-1.571017,-0.000106,2.000187,-0.785630,0.000007,0.299975,0.000035,-1.571017,-0.000106,2.000187,-0.785630,0.0400,0.009910,0.6765,-0.0001,0.3705
0.0460,0.000079,0.308216,-0.000040,-1.577458,-0.001231,1.998267,-0.785384,0.000008,0.299971,0.000040,-1.571049,-0.000121,2.000214,-0.785677,0.000008,0.299971,0.000040,-1.571049,-0.000121,2.000214,-0.785677,0.0400,0.010685,0.6764,-0.0002,0.3698
0.0480,0.000082,0.308826,-0.000042,-1.577930,-0.001311,1.998025,-0.785400,0.000009,0.299968,0.000045,-1.571084,-0.000137,2.000242,-0.785727,0.000009,0.299968,0.000045,-1.571084,-0.000137,2.000242,-0.785727,0.0400,0.011478,0.6763,-0.0002,0.3692
0.0500,0.000085,0.309448,-0.000044,-1.578412,-0.001391,1.997773,-0.785419,0.000010,0.299964,0.000051,-1.571122,-0.000154,2.000273,-0.785782,0.000010,0.299964,0.000051,-1.571122,-0.000154,2.000273,-0.785782,0.0400,0.012289,0.6761,-0.0002,0.3685
0.0520,0.000088,0.310081,-0.000046,-1.578902,-0.001469,1.997510,-0.785441,0.000011,0.299959,0.000057,-1.571162,-0.000173,2.000306,-0.785841,0.000011,0.299959,0.000057,-1.571162,-0.000173,2.000306,-0.785841,0.0400,0.013116,0.6760,-0.0002,0.3678
0.0540,0.000091,0.310725,-0.000048,-1.579401,-0.001547,1.997239,-0.785465,0.000012,0.299954,0.000064,-1.571206,-0.000194,2.000342,-0.785904,0.000012,0.299954,0.000064,-1.571206,-0.000194,2.000342,-0.785904,0.0400,0.013958,0.6758,-0.0002,0.3671
0.0560,0.000093,0.311378,-0.000050,-1.579907,-0.001624,1.996961,-0.785492,0.000014,0.299949,0.000071,-1.571253,-0.000215,2.000381,-0.785972,0.000014,0.299949,0.000071,-1.571253,-0.000215,2.000381,-0.785972,0.0400,0.014814,0.6757,-0.0002,0.3664
0.0580,0.000096,0.312040,-0.000053,-1.580420,-0.001700,1.996677,-0.785523,0.000015,0.299944,0.000079,-1.571303,-0.000239,2.000422,-0.786045,0.000015,0.299944,0.000079,-1.571303,-0.000239,2.000422,-0.786045,0.0400,0.015681,0.6755,-0.0002,0.3657
0.0600,0.000098,0.312709,-0.000055,-1.580940,-0.001774,1.996389,-0.785556,0.000017,0.299938,0.000087,-1.571357,-0.000264,2.000467,-0.786123,0.000017,0.299938,0.000087,-1.571357,-0.000264,2.000467,-0.786123,0.0400,0.016559,0.6754,-0.0002,0.3649
0.0620,0.000100,0.313385,-0.000057,-1.581466,-0.001846,1.996098,-0.785594,0.000018,0.299931,0.000096,-1.571414,-0.000290,2.000514,-0.786206,0.000018,0.299931,0.000096,-1.571414,-0.000290,2.000514,-0.786206,0.0400,0.017446,0.6752,-0.0002,0.3642
0.0640,0.000102,0.314067,-0.000060,-1.581998,-0.001917,1.995805,-0.785636,0.000020,0.299925,0.000105,-1.571475,-0.000319,2.000564,-0.786295,0.000020,0.299925,0.000105,-1.571475,-0.000319,2.000564,-0.786295,0.0400,0.018342,0.6750,-0.0003,0.3634
0.0660,0.000104,0.314754,-0.000062,-1.582535,-0.001986,1.995512,-0.785681,0.000022,0.299918,0.000115,-1.571539,-0.000349,2.000617,-0.786388,0.000022,0.299918,0.000115,-1.571539,-0.000349,2.000617,-0.786388,0.0400,0.019244,0.6749,-0.0003,0.3627
0.0680,0.000105,0.315446,-0.000065,-1.583077,-0.002053,1.995219,-0.785731,0.000024,0.299910,0.000126,-1.571608,-0.000380,2.000673,-0.786488,0.000024,0.299910,0.000126,-1.571608,-0.000380,2.000673,-0.786488,0.0400,0.020151,0.6747,-0.0003,0.3619
0.0700,0.000106,0.316141,-0.000067,-1.583622,-0.002118,1.994930,-0.785785,0.000026,0.299902,0.000137,-1.571680,-0.000414,2.000733,-0.786593,0.000026,0.299902,0.000137,-1.571680,-0.000414,2.000733,-0.786593,0.0400,0.021062,0.6745,-0.0003,0.3611
0.0720,0.000107,0.316838,-0.000070,-1.584172,-0.002182,1.994644,-0.785845,0.000028,0.299894,0.000149,-1.571756,-0.000450,2.000796,-0.786704,0.000028,0.299894,0.000149,-1.571756,-0.000450,2.000796,-0.786704,0.0400,0.021975,0.6743,-0.0003,0.3604
0.0740,0.000108,0.317538,-0.000072,-1.584725,-0.002244,1.994363,-0.785909,0.000031,0.299885,0.000161,-1.571837,-0.000487,2.000862,-0.786821,0.000031,0.299885,0.000161,-1.571837,-0.000487,2.000862,-0.786821,0.0400,0.022890,0.6742,-0.0003,0.3596
0.0760,0.000108,0.318239,-0.000075,-1.585280,-0.002305,1.994088,-0.785978,0.000033,0.299876,0.000174,-1.571921,-0.000526,2.000931,-0.786944,0.000033,0.299876,0.000174,-1.571921,-0.000526,2.000931,-0.786944,0.0400,0.023805,0.6740,-0.0003,0.3588
0.0780,0.000108,0.318941,-0.000077,-1.585838,-0.002364,1.993821,-0.786052,0.000036,0.299866,0.000188,-1.572010,-0.000568,2.001005,-0.787073,0.000036,0.299866,0.000188,-1.572010,-0.000568,2.001005,-0.787073,0.0400,0.024719,0.6738,-0.0003,0.3580
0.0800,0.000108,0.319643,-0.000079,-1.586398,-0.002422,1.993562,-0.786132,0.000039,0.299855,0.000202,-1.572104,-0.000611,2.001082,-0.787208,0.000039,0.299855,0.000202,-1.572104,-0.000611,2.001082,-0.787208,0.0400,0.025631,0.6736,-0.0003,0.3573
0.0820,0.000108,0.320344,-0.000082,-1.586959,-0.002479,1.993313,-0.786218,0.000041,0.299845,0.000217,-1.572201,-0.000657,2.001162,-0.787351,0.000041,0.299845,0.000217,-1.572201,-0.000657,2.001162,-0.787351,0.0400,0.026539,0.6735,-0.0004,0.3565
0.0840,0.000108,0.321043,-0.000084,-1.587522,-0.002534,1.993074,-0.786310,0.000044,0.299833,0.000233,-1.572304,-0.000705,2.001246,-0.787499,0.000044,0.299833,0.000233,-1.572304,-0.000705,2.001246,-0.787499,0.0400,0.027442,0.6733,-0.0004,0.3557
0.0860,0.000107,0.321741,-0.000086,-1.588085,-0.002589,1.992847,-0.786408,0.000048,0.299822,0.000249,-1.572411,-0.000754,2.001335,-0.787655,0.000048,0.299822,0.000249,-1.572411,-0.000754,2.001335,-0.787655,0.0400,0.028341,0.6731,-0.0004,0.3549
0.0880,0.000106,0.322436,-0.000088,-1.588648,-0.002643,1.992632,-0.786512,0.000051,0.299809,0.000266,-1.572523,-0.000806,2.001427,-0.787818,0.000051,0.299809,0.000266,-1.572523,-0.000806,2.001427,-0.787818,0.0400,0.029232,0.6729,-0.0004,0.3542
0.0900,0.000105,0.323127,-0.000090,-1.589211,-0.002697,1.992430,-0.786622,0.000054,0.299796,0.000284,-1.572640,-0.000861,2.001523,-0.787987,0.000054,0.299796,0.000284,-1.572640,-0.000861,2.001523,-0.787987,0.0400,0.030116,0.6728,-0.0004,0.3534
0.0920,0.000103,0.323815,-0.000091,-1.589774,-0.002750,1.992241,-0.786739,0.000058,0.299783,0.000303,-1.572761,-0.000917,2.001623,-0.788164,0.000058,0.299783,0.000303,-1.572761,-0.000917,2.001623,-0.788164,0.0400,0.030992,0.6726,-0.0004,0.3526
0.0940,0.000102,0.324498,-0.000093,-1.590335,-0.002803,1.992067,-0.786863,0.000062,0.299769,0.000323,-1.572888,-0.000976,2.001727,-0.788348,0.000062,0.299769,0.000323,-1.572888,-0.000976,2.001727,-0.788348,0.0400,0.031859,0.6724,-0.0004,0.3519
0.0960,0.000100,0.325177,-0.000094,-1.590896,-0.002857,1.991907,-0.786993,0.000065,0.299755,0.000343,-1.573020,-0.001038,2.001836,-0.788539,0.000065,0.299755,0.000343,-1.573020,-0.001038,2.001836,-0.788539,0.0400,0.032716,0.6723,-0.0004,0.3511
0.0980,0.000098,0.325850,-0.000095,-1.591455,-0.002911,1.991763,-0.787131,0.000069,0.299740,0.000364,-1.573157,-0.001101,2.001949,-0.788738,0.000069,0.299740,0.000364,-1.573157,-0.001101,2.001949,-0.788738,0.0400,0.033561,0.6721,-0.0004,0.3504
0.1000,0.000096,0.326517,-0.000096,-1.592012,-0.002965,1.991634,-0.787276,0.000074,0.299724,0.000386,-1.573299,-0.001167,2.002066,-0.788945,0.000074,0.299724,0.000386,-1.573299,-0.001167,2.002066,-0.788945,0.0400,0.034396,0.6719,-0.0004,0.3496
0.1020,0.000094,0.327177,-0.000097,-1.592567,-0.003020,1.991522,-0.787428,0.000078,0.299708,0.000408,-1.573446,-0.001236,2.002187,-0.789159,0.000078,0.299708,0.000408,-1.573446,-0.001236,2.002187,-0.789159,0.0400,0.035219,0.6718,-0.0005,0.3489
0.1040,0.000091,0.327831,-0.000098,-1.593119,-0.003076,1.991425,-0.787588,0.000082,0.299691,0.000432,-1.573599,-0.001307,2.002313,-0.789381,0.000082,0.299691,0.000432,-1.573599,-0.001307,2.002313,-0.789381,0.0400,0.036028,0.6716,-0.0005,0.3482
0.1060,0.000088,0.328477,-0.000098,-1.593669,-0.003133,1.991344,-0.787755,0.000087,0.299673,0.000456,-1.573758,-0.001381,2.002444,-0.789612,0.000087,0.299673,0.000456,-1.573758,-0.001381,2.002444,-0.789612,0.0400,0.036825,0.6715,-0.0005,0.3474
0.1080,0.000085,0.329115,-0.000098,-1.594215,-0.003192,1.991280,-0.787930,0.000092,0.299655,0.000482,-1.573922,-0.001457,2.002579,-0.789850,0.000092,0.299655,0.000482,-1.573922,-0.001457,2.002579,-0.789850,0.0400,0.037608,0.6713,-0.0005,0.3467
0.1100,0.000082,0.329745,-0.000097,-1.594758,-0.003253,1.991232,-0.788113,0.000097,0.299637,0.000508,-1.574092,-0.001536,2.002718,-0.790097,0.000097,0.299637,0.000508,-1.574092,-0.001536,2.002718,-0.790097,0.0400,0.038377,0.6712,-0.0005,0.3460
0.1120,0.000079,0.330366,-0.000097,-1.595298,-0.003315,1.991200,-0.788303,0.000102,0.299617,0.000535,-1.574267,-0.001618,2.002863,-0.790352,0.000102,0.299617,0.000535,-1.574267,-0.001618,2.002863,-0.790352,0.0400,0.039131,0.6710,-0.0005,0.3453
0.1140,0.000075,0.330978,-0.000096,-1.595833,-0.003379,1.991185,-0.788502,0.000107,0.299597,0.000562,-1.574448,-0.001702,2.003012,-0.790615,0.000107,0.299597,0.000562,-1.574448,-0.001702,2.003012,-0.790615,0.0400,0.039870,0.6709,-0.0005,0.3446
0.1160,0.000072,0.331580,-0.000094,-1.596365,-0.003445,1.991186,-0.788709,0.000113,0.299577,0.000591,-1.574636,-0.001790,2.003166,-0.790887,0.000113,0.299577,0.000591,-1.574636,-0.001790,2.003166,-0.790887,0.0400,0.040594,0.6708,-0.0005,0.3440
0.1180,0.000068,0.332173,-0.000093,-1.596893,-0.003514,1.991203,-0.788924,0.000119,0.299556,0.000621,-1.574829,-0.001880,2.003325,-0.791168,0.000119,0.299556,0.000621,-1.574829,-0.001880,2.003325,-0.791168,0.0400,0.041302,0.6706,-0.0006,0.3433
0.1200,0.000064,0.332755,-0.000091,-1.597416,-0.003585,1.991235,-0.789148,0.000124,0.299534,0.000652,-1.575028,-0.001972,2.003489,-0.791457,0.000124,0.299534,0.000652,-1.575028,-0.001972,2.003489,-0.791457,0.0400,0.041995,0.6705,-0.0006,0.3427
0.1220,0.000060,0.333327,-0.000088,-1.597934,-0.003658,1.991283,-0.789380,0.000130,0.299511,0.000683,-1.575233,-0.002068,2.003658,-0.791755,0.000130,0.299511,0.000683,-1.575233,-0.002068,2.003658,-0.791755,0.0400,0.042671,0.6704,-0.0006,0.3420
0.1240,0.000056,0.333888,-0.000085,-1.598448,-0.003735,1.991346,-0.789621,0.000137,0.299488,0.000716,-1.575445,-0.002166,2.003833,-0.792063,0.000137,0.299488,0.000716,-1.575445,-0.002166,2.003833,-0.792063,0.0400,0.043331,0.6702,-0.0006,0.3414
0.1260,0.000052,0.334438,-0.000082,-1.598957,-0.003814,1.991424,-0.789870,0.000143,0.299464,0.000749,-1.575663,-0.002267,2.004012,-0.792379,0.000143,0.299464,0.000749,-1.575663,-0.002267,2.004012,-0.792379,0.0400,0.043974,0.6701,-0.0006,0.3408
0.1280,0.000048,0.334977,-0.000078,-1.599461,-0.003896,1.991516,-0.790128,0.000150,0.299439,0.000784,-1.575887,-0.002372,2.004196,-0.792704,0.000150,0.299439,0.000784,-1.575887,-0.002372,2.004196,-0.792704,0.0400,0.044600,0.6700,-0.0006,0.3402
0.1300,0.000043,0.335503,-0.000074,-1.599960,-0.003981,1.991622,-0.790395,0.000156,0.299414,0.000819,-1.576117,-0.002479,2.004386,-0.793039,0.000156,0.299414,0.000819,-1.576117,-0.002479,2.004386,-0.793039,0.0400,0.045210,0.6699,-0.0006,0.3396
0.1320,0.000039,0.336018,-0.000069,-1.600454,-0.004069,1.991742,-0.790671,0.000163,0.299388,0.000855,-1.576354,-0.002589,2.004581,-0.793383,0.000163,0.299388,0.000855,-1.576354,-0.002589,2.004581,-0.793383,0.0400,0.045802,0.6698,-0.0006,0.3390
0.1340,0.000035,0.336521,-0.000064,-1.600943,-0.004161,1.991876,-0.790955,0.000170,0.299361,0.000893,-1.576597,-0.002703,2.004782,-0.793737,0.000170,0.299361,0.000893,-1.576597,-0.002703,2.004782,-0.793737,0.0400,0.046378,0.6697,-0.0007,0.3384
0.1360,0.000030,0.337011,-0.000058,-1.601426,-0.004256,1.992022,-0.791249,0.000178,0.299333,0.000931,-1.576847,-0.002819,2.004987,-0.794100,0.000178,0.299333,0.000931,-1.576847,-0.002819,2.004987,-0.794100,0.0400,0.046936,0.6696,-0.0007,0.3378
0.1380,0.000025,0.337489,-0.000052,-1.601904,-0.004354,1.992181,-0.791553,0.000185,0.299305,0.000971,-1.577104,-0.002938,2.005199,-0.794473,0.000185,0.299305,0.000971,-1.577104,-0.002938,2.005199,-0.794473,0.0400,0.047477,0.6695,-0.0007,0.3373
0.1400,0.000021,0.337954,-0.000045,-1.602377,-0.004455,1.992352,-0.791865,0.000193,0.299276,0.001011,-1.577367,-0.003061,2.005416,-0.794856,0.000193,0.299276,0.001011,-1.577367,-0.003061,2.005416,-0.794856,0.0400,0.048001,0.6694,-0.0007,0.3367
0.1420,0.000016,0.338406,-0.000037,-1.602844,-0.004560,1.992535,-0.792187,0.000201,0.299247,0.001053,-1.577637,-0.003187,2.005638,-0.795248,0.000201,0.299247,0.001053,-1.577637,-0.003187,2.005638,-0.795248,0.0400,0.048508,0.6693,-0.0007,0.3362
0.1440,0.000011,0.338845,-0.000029,-1.603306,-0.004668,1.992729,-0.792518,0.000209,0.299216,0.001095,-1.577914,-0.003315,2.005866,-0.795651,0.000209,0.299216,0.001095,-1.577914,-0.003315,2.005866,-0.795651,0.0400,0.048997,0.6692,-0.0007,0.3357
0.1460,0.000006,0.339271,-0.000020,-1.603763,-0.004780,1.992933,-0.792859,0.000217,0.299185,0.001139,-1.578198,-0.003448,2.006100,-0.796063,0.000217,0.299185,0.001139,-1.578198,-0.003448,2.006100,-0.796063,0.0400,0.049470,0.6691,-0.0007,0.3352
0.1480,0.000002,0.339684,-0.000011,-1.604214,-0.004895,1.993148,-0.793209,0.000226,0.299153,0.001184,-1.578489,-0.003583,2.006339,-0.796485,0.000226,0.299153,0.001184,-1.578489,-0.003583,2.006339,-0.796485,0.0400,0.049925,0.6691,-0.0008,0.3347
0.1500,-0.000003,0.340083,-0.000001,-1.604660,-0.005013,1.993374,-0.793569,0.000235,0.299120,0.001229,-1.578787,-0.003721,2.006584,-0.796918,0.000235,0.299120,0.001229,-1.578787,-0.003721,2.006584,-0.796918,0.0400,0.050362,0.6690,-0.0008,0.3342
0.1520,-0.000008,0.340469,0.000010,-1.605101,-0.005135,1.993609,-0.793939,0.000244,0.299087,0.001276,-1.579092,-0.003863,2.006835,-0.797361,0.000244,0.299087,0.001276,-1.579092,-0.003863,2.006835,-0.797361,0.0400,0.050783,0.6689,-0.0008,0.3338
0.1540,-0.000013,0.340841,0.000021,-1.605536,-0.005260,1.993853,-0.794319,0.000253,0.299052,0.001324,-1.579404,-0.004009,2.007092,-0.797814,0.000253,0.299052,0.001324,-1.579404,-0.004009,2.007092,-0.797814,0.0400,0.051187,0.6688,-0.0008,0.3333
0.1560,-0.000017,0.341200,0.000033,-1.605967,-0.005388,1.994107,-0.794709,0.000262,0.299017,0.001373,-1.579723,-0.004157,2.007355,-0.798278,0.000262,0.299017,0.001373,-1.579723,-0.004157,2.007355,-0.798278,0.0400,0.051573,0.6688,-0.0008,0.3329
0.1580,-0.000022,0.341545,0.000046,-1.606392,-0.005520,1.994369,-0.795109,0.000272,0.298981,0.001424,-1.580050,-0.004309,2.007624,-0.798753,0.000272,0.298981,0.001424,-1.580050,-0.004309,2.007624,-0.798753,0.0400,0.051943,0.6687,-0.0008,0.3325
0.1600,-0.000027,0.341877,0.000060,-1.606813,-0.005655,1.994639,-0.795518,0.000282,0.298944,0.001475,-1.580383,-0.004464,2.007899,-0.799237,0.000282,0.298944,0.001475,-1.580383,-0.004464,2.007899,-0.799237,0.0400,0.052296,0.6687,-0.0008,0.3321
0.1620,-0.000032,0.342195,0.000074,-1.607229,-0.005794,1.994918,-0.795938,0.000292,0.298907,0.001527,-1.580724,-0.004623,2.008180,-0.799733,0.000292,0.298907,0.001527,-1.580724,-0.004623,2.008180,-0.799733,0.0400,0.052632,0.6686,-0.0009,0.3317
0.1640,-0.000036,0.342499,0.000089,-1.607640,-0.005935,1.995204,-0.796369,0.000302,0.298869,0.001581,-1.581073,-0.004785,2.008467,-0.800239,0.000302,0.298869,0.001581,-1.581073,-0.004785,2.008467,-0.800239,0.0400,0.052952,0.6685,-0.0009,0.3313
0.1660,-0.000041,0.342790,0.000105,-1.608046,-0.006080,1.995498,-0.796809,0.000312,0.298829,0.001636,-1.581429,-0.004951,2.008760,-0.800756,0.000312,0.298829,0.001636,-1.581429,-0.004951,2.008760,-0.800756,0.0400,0.053256,0.6685,-0.0009,0.3309
0.1680,-0.000045,0.343067,0.000122,-1.608448,-0.006228,1.995800,-0.797260,0.000323,0.298789,0.001692,-1.581792,-0.005120,2.009059,-0.801284,0.000323,0.298789,0.001692,-1.581792,-0.005120,2.009059,-0.801284,0.0400,0.053543,0.6684,-0.0009,0.3305
0.1700,-0.000049,0.343330,0.000139,-1.608846,-0.006379,1.996109,-0.797722,0.000334,0.298749,0.001749,-1.582163,-0.005293,2.009364,-0.801823,0.000334,0.298749,0.001749,-1.582163,-0.005293,2.009364,-0.801823,0.0400,0.053814,0.6684,-0.0009,0.3302
0.1720,-0.000054,0.343581,0.000158,-1.609240,-0.006533,1.996425,-0.798194,0.000345,0.298707,0.001807,-1.582542,-0.005469,2.009676,-0.802374,0.000345,0.298707,0.001807,-1.582542,-0.005469,2.009676,-0.802374,0.0400,0.054070,0.6683,-0.0009,0.3299
0.1740,-0.000058,0.343817,0.000177,-1.609630,-0.006691,1.996747,-0.798677,0.000356,0.298664,0.001866,-1.582928,-0.005649,2.009994,-0.802935,0.000356,0.298664,0.001866,-1.582928,-0.005649,2.009994,-0.802935,0.0400,0.054309,0.6683,-0.0010,0.3295
0.1760,-0.000062,0.344041,0.000197,-1.610016,-0.006851,1.997077,-0.799170,0.000368,0.298621,0.001927,-1.583322,-0.005832,2.010318,-0.803507,0.000368,0.298621,0.001927,-1.583322,-0.005832,2.010318,-0.803507,0.0400,0.054533,0.6683,-0.0010,0.3292
0.1780,-0.000066,0.344251,0.000218,-1.610398,-0.007015,1.997413,-0.799674,0.000380,0.298577,0.001988,-1.583724,-0.006019,2.010649,-0.804091,0.000380,0.298577,0.001988,-1.583724,-0.006019,2.010649,-0.804091,0.0400,0.054742,0.6682,-0.0010,0.3289
0.1800,-0.000070,0.344448,0.000240,-1.610777,-0.007181,1.997756,-0.800190,0.000392,0.298532,0.002051,-1.584133,-0.006209,2.010986,-0.804685,0.000392,0.298532,0.002051,-1.584133,-0.006209,2.010986,-0.804685,0.0400,0.054935,0.6682,-0.0010,0.3286
0.1820,-0.000074,0.344632,0.000263,-1.611153,-0.007351,1.998105,-0.800716,0.000404,0.298486,0.002116,-1.584551,-0.006404,2.011330,-0.805292,0.000404,0.298486,0.002116,-1.584551,-0.006404,2.011330,-0.805292,0.0400,0.055114,0.6682,-0.0010,0.3283
0.1840,-0.000077,0.344804,0.000287,-1.611525,-0.007523,1.998461,-0.801253,0.000416,0.298439,0.002181,-1.584976,-0.006602,2.011680,-0.805909,0.000416,0.298439,0.002181,-1.584976,-0.006602,2.011680,-0.805909,0.0400,0.055278,0.6681,-0.0010,0.3281
0.1860,-0.000081,0.344962,0.000312,-1.611895,-0.007698,1.998823,-0.801801,0.000429,0.298391,0.002248,-1.585409,-0.006803,2.012037,-0.806539,0.000429,0.298391,0.002248,-1.585409,-0.006803,2.012037,-0.806539,0.0400,0.055427,0.6681,-0.0010,0.3278
0.1880,-0.000084,0.345108,0.000338,-1.612262,-0.007877,1.999191,-0.802360,0.000442,0.298343,0.002315,-1.585850,-0.007008,2.012400,-0.807179,0.000442,0.298343,0.002315,-1.585850,-0.007008,2.012400,-0.807179,0.0400,0.055563,0.6681,-0.0011,0.3276
0.1900,-0.000087,0.345242,0.000365,-1.612627,-0.008058,1.999566,-0.802931,0.000455,0.298293,0.002384,-1.586299,-0.007217,2.012769,-0.807832,0.000455,0.298293,0.002384,-1.586299,-0.007217,2.012769,-0.807832,0.0400,0.055684,0.6680,-0.0011,0.3273
0.1920,-0.000090,0.345363,0.000393,-1.612989,-0.008243,1.999947,-0.803513,0.000469,0.298243,0.002455,-1.586756,-0.007430,2.013146,-0.808496,0.000469,0.298243,0.002455,-1.586756,-0.007430,2.013146,-0.808496,0.0400,0.055791,0.6680,-0.0011,0.3271
0.1940,-0.000093,0.345472,0.000422,-1.613349,-0.008430,2.000335,-0.804106,0.000482,0.298192,0.002526,-1.587221,-0.007647,2.013529,-0.809172,0.000482,0.298192,0.002526,-1.587221,-0.007647,2.013529,-0.809172,0.0400,0.055885,0.6680,-0.0011,0.3269
0.1960,-0.000096,0.345569,0.000452,-1.613708,-0.008620,2.000729,-0.804711,0.000496,0.298140,0.002599,-1.587695,-0.007867,2.013919,-0.809859,0.000496,0.298140,0.002599,-1.587695,-0.007867,2.013919,-0.809859,0.0400,0.055966,0.6680,-0.0011,0.3267
0.1980,-0.000098,0.345655,0.000483,-1.614065,-0.008813,2.001130,-0.805328,0.000510,0.298087,0.002673,-1.588176,-0.008091,2.014315,-0.810559,0.000510,0.298087,0.002673,-1.588176,-0.008091,2.014315,-0.810559,0.0400,0.056034,0.6680,-0.0011,0.3265
0.2000,-0.000101,0.345729,0.000515,-1.614420,-0.009010,2.001537,-0.805955,0.000525,0.298033,0.002748,-1.588666,-0.008319,2.014718,-0.811270,0.000525,0.298033,0.002748,-1.588666,-0.008319,2.014718,-0.811270,0.0400,0.056089,0.6679,-0.0011,0.3263
0.2020,-0.000103,0.345791,0.000548,-1.614775,-0.009209,2.001950,-0.806595,0.000539,0.297978,0.002825,-1.589164,-0.008550,2.015128,-0.811994,0.000539,0.297978,0.002825,-1.589164,-0.008550,2.015128,-0.811994,0.0400,0.056132,0.6679,-0.0011,0.3261
0.2040,-0.000105,0.345843,0.000582,-1.615128,-0.009411,2.002371,-0.807246,0.000554,0.297923,0.002903,-1.589670,-0.008786,2.015545,-0.812729,0.000554,0.297923,0.002903,-1.589670,-0.008786,2.015545,-0.812729,0.0400,0.056163,0.6679,-0.0011,0.3259
0.2060,-0.000106,0.345883,0.000618,-1.615481,-0.009617,2.002798,-0.807909,0.000569,0.297866,0.002982,-1.590184,-0.009025,2.015968,-0.813476,0.000569,0.297866,0.002982,-1.590184,-0.009025,2.015968,-0.813476,0.0400,0.056182,0.6679,-0.0012,0.3257
0.2080,-0.000108,0.345913,0.000654,-1.615833,-0.009826,2.003231,-0.808584,0.000585,0.297808,0.003062,-1.590707,-0.009269,2.016399,-0.814236,0.000585,0.297808,0.003062,-1.590707,-0.009269,2.016399,-0.814236,0.0400,0.056189,0.6679,-0.0012,0.3256
0.2100,-0.000109,0.345932,0.000692,-1.616185,-0.010037,2.003672,-0.809271,0.000600,0.297750,0.003144,-1.591238,-0.009516,2.016836,-0.815007,0.000600,0.297750,0.003144,-1.591238,-0.009516,2.016836,-0.815007,0.0400,0.056185,0.6679,-0.0012,0.3254
0.2120,-0.000110,0.345941,0.000731,-1.616537,-0.010252,2.004120,-0.809969,0.000616,0.297691,0.003227,-1.591778,-0.009767,2.017280,-0.815791,0.000616,0.297691,0.003227,-1.591778,-0.009767,2.017280,-0.815791,0.0400,0.056171,0.6679,-0.0012,0.3253
0.2140,-0.000110,0.345939,0.000771,-1.616889,-0.010471,2.004574,-0.810680,0.000632,0.297630,0.003311,-1.592326,-0.010022,2.017731,-0.816587,0.000632,0.297630,0.003311,-1.592326,-0.010022,2.017731,-0.816587,0.0400,0.056146,0.6679,-0.0012,0.3252
0.2160,-0.000111,0.345928,0.000812,-1.617241,-0.010692,2.005035,-0.811403,0.000648,0.297569,0.003396,-1.592882,-0.010281,2.018190,-0.817396,0.000648,0.297569,0.003396,-1.592882,-0.010281,2.018190,-0.817396,0.0400,0.056110,0.6679,-0.0012,0.3250
0.2180,-0.000111,0.345907,0.000855,-1.617595,-0.010917,2.005504,-0.812138,0.000665,0.297507,0.003483,-1.593447,-0.010544,2.018655,-0.818216,0.000665,0.297507,0.003483,-1.593447,-0.010544,2.018655,-0.818216,0.0400,0.056065,0.6679,-0.0012,0.3249
0.2200,-0.000111,0.345877,0.000898,-1.617949,-0.011145,2.005980,-0.812885,0.000682,0.297444,0.003571,-1.594020,-0.010811,2.019127,-0.819049,0.000682,0.297444,0.003571,-1.594020,-0.010811,2.019127,-0.819049,0.0400,0.056010,0.6679,-0.0012,0.3248
0.2220,-0.000110,0.345838,0.000943,-1.618304,-0.011377,2.006463,-0.813644,0.000699,0.297380,0.003661,-1.594602,-0.011081,2.019606,-0.819895,0.000699,0.297380,0.003661,-1.594602,-0.011081,2.019606,-0.819895,0.0400,0.055945,0.6679,-0.0012,0.3247
0.2240,-0.000110,0.345789,0.000990,-1.618660,-0.011613,2.006953,-0.814415,0.000716,0.297315,0.003752,-1.595193,-0.011356,2.020092,-0.820753,0.000716,0.297315,0.003752,-1.595193,-0.011356,2.020092,-0.820753,0.0400,0.055872,0.6679,-0.0012,0.3246
0.2260,-0.000109,0.345732,0.001037,-1.619019,-0.011852,2.007451,-0.815199,0.000734,0.297249,0.003844,-1.595792,-0.011635,2.020586,-0.821623,0.000734,0.297249,0.003844,-1.595792,-0.011635,2.020586,-0.821623,0.0400,0.055790,0.6679,-0.0012,0.3245
0.2280,-0.000107,0.345667,0.001086,-1.619379,-0.012094,2.007956,-0.815995,0.000752,0.297182,0.003937,-1.596400,-0.011918,2.021086,-0.822506,0.000752,0.297182,0.003937,-1.596400,-0.011918,2.021086,-0.822506,0.0400,0.055700,0.6679,-0.0012,0.3244
0.2300,-0.000106,0.345593,0.001136,-1.619741,-0.012340,2.008468,-0.816804,0.000770,0.297114,0.004032,-1.597016,-0.012205,2.021593,-0.823402,0.000770,0.297114,0.004032,-1.597016,-0.012205,2.021593,-0.823402,0.0400,0.055602,0.6679,-0.0012,0.3244
0.2320,-0.000104,0.345511,0.001187,-1.620105,-0.012590,2.008988,-0.817625,0.000788,0.297045,0.004128,-1.597641,-0.012496,2.022108,-0.824310,0.000788,0.297045,0.004128,-1.597641,-0.012496,2.022108,-0.824310,0.0400,0.055496,0.6679,-0.0012,0.3243
0.2340,-0.000102,0.345421,0.001239,-1.620472,-0.012844,2.009515,-0.818458,0.000807,0.296976,0.004226,-1.598275,-0.012791,2.022630,-0.825231,0.000807,0.296976,0.004226,-1.598275,-0.012791,2.022630,-0.825231,0.0400,0.055383,0.6679,-0.0013,0.3242
0.2360,-0.000099,0.345324,0.001293,-1.620841,-0.013101,2.010050,-0.819305,0.000825,0.296905,0.004324,-1.598917,-0.013090,2.023159,-0.826164,0.000825,0.296905,0.004324,-1.598917,-0.013090,2.023159,-0.826164,0.0400,0.055263,0.6679,-0.0013,0.3241
0.2380,-0.000096,0.345220,0.001348,-1.621213,-0.013363,2.010593,-0.820163,0.000845,0.296833,0.004425,-1.599569,-0.013393,2.023695,-0.827110,0.000845,0.296833,0.004425,-1.599569,-0.013393,2.023695,-0.827110,0.0400,0.055136,0.6679,-0.0013,0.3241
0.2400,-0.000093,0.345108,0.001405,-1.621589,-0.013628,2.011143,-0.821034,0.000864,0.296761,0.004526,-1.600229,-0.013700,2.024239,-0.828069,0.000864,0.296761,0.004526,-1.600229,-0.013700,2.024239,-0.828069,0.0400,0.055003,0.6679,-0.0013,0.3240
0.2420,-0.000089,0.344990,0.001463,-1.621968,-0.013898,2.011701,-0.821918,0.000884,0.296687,0.004629,-1.600898,-0.014011,2.024789,-0.829041,0.000884,0.296687,0.004629,-1.600898,-0.014011,2.024789,-0.829041,0.0400,0.054864,0.6679,-0.0013,0.3240
0.2440,-0.000086,0.344865,0.001522,-1.622350,-0.014171,2.012266,-0.822815,0.000903,0.296613,0.004733,-1.601575,-0.014326,2.025347,-0.830025,0.000903,0.296613,0.004733,-1.601575,-0.014326,2.025347,-0.830025,0.0400,0.054720,0.6679,-0.0013,0.3239
0.2460,-0.000081,0.344733,0.001582,-1.622736,-0.014449,2.012839,-0.823724,0.000924,0.296537,0.004839,-1.602262,-0.014646,2.025912,-0.831023,0.000924,0.296537,0.004839,-1.602262,-0.014646,2.025912,-0.831023,0.0400,0.054570,0.6680,-0.0013,0.3239
0.2480,-0.000077,0.344596,0.001644,-1.623127,-0.014730,2.013420,-0.824646,0.000944,0.296461,0.004945,-1.602957,-0.014969,2.026485,-0.832033,0.000944,0.296461,0.004945,-1.602957,-0.014969,2.026485,-0.832033,0.0400,0.054416,0.6680,-0.0013,0.3238
0.2500,-0.000072,0.344452,0.001708,-1.623521,-0.015016,2.014008,-0.825581,0.000965,0.296383,0.005054,-1.603661,-0.015297,2.027065,-0.833056,0.000965,0.296383,0.005054,-1.603661,-0.015297,2.027065,-0.833056,0.0400,0.054257,0.6680,-0.0013,0.3238
0.2520,-0.000066,0.344303,0.001772,-1.623920,-0.015306,2.014603,-0.826528,0.000986,0.296305,0.005163,-1.604374,-0.015629,2.027652,-0.834091,0.000986,0.296305,0.005163,-1.604374,-0.015629,2.027652,-0.834091,0.0400,0.054093,0.6680,-0.0013,0.3238
0.2540,-0.000061,0.344148,0.001838,-1.624323,-0.015601,2.015206,-0.827489,0.001007,0.296225,0.005274,-1.605096,-0.015965,2.028246,-0.835140,0.001007,0.296225,0.005274,-1.605096,-0.015965,2.028246,-0.835140,0.0400,0.053926,0.6680,-0.0013,0.3237
0.2560,-0.000055,0.343989,0.001905,-1.624732,-0.015899,2.015817,-0.828462,0.001028,0.296145,0.005387,-1.605826,-0.016305,2.028848,-0.836202,0.001028,0.296145,0.005387,-1.605826,-0.016305,2.028848,-0.836202,0.0400,0.053755,0.6680,-0.0013,0.3237
0.2580,-0.000048,0.343824,0.001974,-1.625145,-0.016202,2.016435,-0.829448,0.001050,0.296063,0.005500,-1.606566,-0.016649,2.029457,-0.837276,0.001050,0.296063,0.005500,-1.606566,-0.016649,2.029457,-0.837276,0.0400,0.053581,0.6680,-0.0013,0.3237
0.2600,-0.000042,0.343654,0.002044,-1.625564,-0.016509,2.017060,-0.830447,0.001072,0.295981,0.005615,-1.607315,-0.016997,2.030073,-0.838364,0.001072,0.295981,0.005615,-1.607315,-0.016997,2.030073,-0.838364,0.0400,0.053404,0.6680,-0.0012,0.3236
0.2620,-0.000034,0.343480,0.002116,-1.625988,-0.016821,2.017693,-0.831459,0.001094,0.295898,0.005732,-1.608072,-0.017350,2.030697,-0.839465,0.001094,0.295898,0.005732,-1.608072,-0.017350,2.030697,-0.839465,0.0400,0.053224,0.6681,-0.0012,0.3236
0.2640,-0.000027,0.343301,0.002189,-1.626417,-0.017137,2.018333,-0.832484,0.001117,0.295813,0.005850,-1.608839,-0.017707,2.031328,-0.840578,0.001117,0.295813,0.005850,-1.608839,-0.017707,2.031328,-0.840578,0.0400,0.053042,0.6681,-0.0012,0.3236
0.2660,-0.000019,0.343118,0.002263,-1.626853,-0.017458,2.018981,-0.833522,0.001139,0.295728,0.005969,-1.609614,-0.018067,2.031966,-0.841705,0.001139,0.295728,0.005969,-1.609614,-0.018067,2.031966,-0.841705,0.0400,0.052859,0.6681,-0.0012,0.3236
0.2680,-0.000011,0.342931,0.002339,-1.627294,-0.017783,2.019635,-0.834573,0.001162,0.295642,0.006090,-1.610399,-0.018432,2.032612,-0.842845,0.001162,0.295642,0.006090,-1.610399,-0.018432,2.032612,-0.842845,0.0400,0.052673,0.6681,-0.0012,0.3235
0.2700,-0.000002,0.342741,0.002416,-1.627742,-0.018112,2.020297,-0.835637,0.001186,0.295554,0.006212,-1.611192,-0.018802,2.033266,-0.843997,0.001186,0.295554,0.006212,-1.611192,-0.018802,2.033266,-0.843997,0.0400,0.052486,0.6681,-0.0012,0.3235
0.2720,0.000007,0.342547,0.002495,-1.628196,-0.018447,2.020966,-0.836714,0.001209,0.295466,0.006335,-1.611995,-0.019175,2.033926,-0.845163,0.001209,0.295466,0.006335,-1.611995,-0.019175,2.033926,-0.845163,0.0400,0.052299,0.6681,-0.0012,0.3235
0.2740,0.000017,0.342349,0.002575,-1.628656,-0.018785,2.021642,-0.837804,0.001233,0.295377,0.006460,-1.612806,-0.019553,2.034594,-0.846342,0.001233,0.295377,0.006460,-1.612806,-0.019553,2.034594,-0.846342,0.0400,0.052110,0.6681,-0.0012,0.3235
0.2760,0.000027,0.342149,0.002656,-1.629123,-0.019128,2.022325,-0.838907,0.001257,0.295287,0.006586,-1.613627,-0.019935,2.035270,-0.847534,0.001257,0.295287,0.006586,-1.613627,-0.019935,2.035270,-0.847534,0.0400,0.051921,0.6682,-0.0012,0.3234
0.2780,0.000037,0.341945,0.002739,-1.629597,-0.019476,2.023015,-0.840023,0.001281,0.295195,0.006713,-1.614456,-0.020321,2.035953,-0.848739,0.001281,0.295195,0.006713,-1.614456,-0.020321,2.035953,-0.848739,0.0400,0.051732,0.6682,-0.0012,0.3234
0.2800,0.000048,0.341738,0.002824,-1.630078,-0.019828,2.023711,-0.841153,0.001306,0.295103,0.006842,-1.615295,-0.020711,2.036643,-0.849957,0.001306,0.295103,0.006842,-1.615295,-0.020711,2.036643,-0.849957,0.0400,0.051543,0.6682,-0.0012,0.3234
0.2820,0.000059,0.341529,0.002910,-1.630567,-0.020184,2.024415,-0.842295,0.001331,0.295010,0.006973,-1.616142,-0.021105,2.037341,-0.851189,0.001331,0.295010,0.006973,-1.616142,-0.021105,2.037341,-0.851189,0.0400,0.051354,0.6682,-0.0012,0.3234
0.2840,0.000070,0.341318,0.002997,-1.631062,-0.020546,2.025125,-0.843451,0.001356,0.294915,0.007104,-1.616999,-0.021504,2.038046,-0.852433,0.001356,0.294915,0.007104,-1.616999,-0.021504,2.038046,-0.852433,0.0400,0.051167,0.6682,-0.0012,0.3233
0.2860,0.000082,0.341104,0.003086,-1.631566,-0.020911,2.025843,-0.844620,0.001381,0.294820,0.007237,-1.617864,-0.021907,2.038759,-0.853691,0.001381,0.294820,0.007237,-1.617864,-0.021907,2.038759,-0.853691,0.0400,0.050980,0.6682,-0.0012,0.3233
0.2880,0.000094,0.340888,0.003176,-1.632076,-0.021282,2.026566,-0.845802,0.001407,0.294724,0.007372,-1.618739,-0.022314,2.039479,-0.854961,0.001407,0.294724,0.007372,-1.618739,-0.022314,2.039479,-0.854961,0.0400,0.050794,0.6682,-0.0011,0.3233
0.2900,0.000107,0.340670,0.003267,-1.632595,-0.021656,2.027297,-0.846997,0.001433,0.294627,0.007508,-1.619623,-0.022725,2.040207,-0.856245,0.001433,0.294627,0.007508,-1.619623,-0.022725,2.040207,-0.856245,0.0400,0.050610,0.6682,-0.0011,0.3232
0.2920,0.000120,0.340451,0.003361,-1.633122,-0.022036,2.028034,-0.848205,0.001459,0.294529,0.007645,-1.620515,-0.023140,2.040942,-0.857542,0.001459,0.294529,0.007645,-1.620515,-0.023140,2.040942,-0.857542,0.0400,0.050428,0.6682,-0.0011,0.3232
0.2940,0.000134,0.340229,0.003455,-1.633657,-0.022419,2.028777,-0.849427,0.001486,0.294429,0.007784,-1.621417,-0.023560,2.041684,-0.858852,0.001486,0.294429,0.007784,-1.621417,-0.023560,2.041684,-0.858852,0.0400,0.050247,0.6682,-0.0011,0.3232
0.2960,0.000148,0.340007,0.003551,-1.634200,-0.022808,2.029527,-0.850661,0.001512,0.294329,0.007924,-1.622328,-0.023984,2.042434,-0.860176,0.001512,0.294329,0.007924,-1.622328,-0.023984,2.042434,-0.860176,0.0400,0.050069,0.6683,-0.0011,0.3231
0.2980,0.000162,0.339783,0.003649,-1.634751,-0.023201,2.030283,-0.851909,0.001539,0.294228,0.008065,-1.623248,-0.024412,2.043192,-0.861512,0.001539,0.294228,0.008065,-1.623248,-0.024412,2.043192,-0.861512,0.0400,0.049893,0.6683,-0.0011,0.3231
0.3000,0.000177,0.339558,0.003748,-1.635311,-0.023598,2.031046,-0.853170,0.001567,0.294126,0.008208,-1.624177,-0.024844,2.043957,-0.862862,0.001567,0.294126,0.008208,-1.624177,-0.024844,2.043957,-0.862862,0.0400,0.049720,0.6683,-0.0011,0.3231
0.3020,0.000192,0.339332,0.003848,-1.635880,-0.024000,2.031815,-0.854445,0.001594,0.294022,0.008352,-1.625115,-0.025281,2.044729,-0.864225,0.001594,0.294022,0.008352,-1.625115,-0.025281,2.044729,-0.864225,0.0400,0.049549,0.6683,-0.0010,0.3230
0.3040,0.000207,0.339105,0.003950,-1.636457,-0.024406,2.032590,-0.855732,0.001622,0.293918,0.008498,-1.626062,-0.025722,2.045509,-0.865601,0.001622,0.293918,0.008498,-1.626062,-0.025722,2.045509,-0.865601,0.0400,0.049382,0.6683,-0.0010,0.3230
0.3060,0.000223,0.338877,0.004053,-1.637044,-0.024817,2.033371,-0.857033,0.001650,0.293813,0.008645,-1.627018,-0.026167,2.046296,-0.866990,0.001650,0.293813,0.008645,-1.627018,-0.026167,2.046296,-0.866990,0.0400,0.049218,0.6683,-0.0010,0.3229
0.3080,0.000239,0.338649,0.004158,-1.637639,-0.025232,2.034159,-0.858347,0.001678,0.293707,0.008793,-1.627983,-0.026616,2.047091,-0.868392,0.001678,0.293707,0.008793,-1.627983,-0.026616,2.047091,-0.868392,0.0400,0.049057,0.6683,-0.0010,0.3229
0.3100,0.000256,0.338420,0.004264,-1.638244,-0.025652,2.034953,-0.859674,0.001707,0.293600,0.008943,-1.628958,-0.027069,2.047893,-0.869807,0.001707,0.293600,0.008943,-1.628958,-0.027069,2.047893,-0.869807,0.0400,0.048900,0.6683,-0.0010,0.3228
0.3120,0.000273,0.338191,0.004372,-1.638857,-0.026076,2.035753,-0.861015,0.001736,0.293491,0.009094,-1.629941,-0.027527,2.048702,-0.871236,0.001736,0.293491,0.009094,-1.629941,-0.027527,2.048702,-0.871236,0.0400,0.048747,0.6683,-0.0009,0.3228
0.3140,0.000291,0.337962,0.004481,-1.639480,-0.026505,2.036560,-0.862368,0.001765,0.293382,0.009247,-1.630933,-0.027988,2.049519,-0.872677,0.001765,0.293382,0.009247,-1.630933,-0.027988,2.049519,-0.872677,0.0400,0.048597,0.6683,-0.0009,0.3227
0.3160,0.000309,0.337732,0.004592,-1.640113,-0.026938,2.037372,-0.863735,0.001794,0.293272,0.009401,-1.631934,-0.028454,2.050344,-0.874132,0.001794,0.293272,0.009401,-1.631934,-0.028454,2.050344,-0.874132,0.0400,0.048452,0.6682,-0.0009,0.3226
0.3180,0.000327,0.337503,0.004704,-1.640755,-0.027375,2.038191,-0.865115,0.001824,0.293161,0.009556,-1.632945,-0.028925,2.051176,-0.875600,0.001824,0.293161,0.009556,-1.632945,-0.028925,2.051176,-0.875600,0.0400,0.048311,0.6682,-0.0009,0.3225
0.3200,0.000346,0.337274,0.004818,-1.641407,-0.027817,2.039015,-0.866508,0.001854,0.293049,0.009713,-1.633964,-0.029399,2.052015,-0.877081,0.001854,0.293049,0.009713,-1.633964,-0.029399,2.052015,-0.877081,0.0400,0.048174,0.6682,-0.0009,0.3225
0.3220,0.000365,0.337045,0.004933,-1.642068,-0.028263,2.039846,-0.867915,0.001884,0.292936,0.009871,-1.634992,-0.029877,2.052862,-0.878575,0.001884,0.292936,0.009871,-1.634992,-0.029877,2.052862,-0.878575,0.0400,0.048042,0.6682,-0.0008,0.3224
0.3240,0.000384,0.336816,0.005049,-1.642740,-0.028714,2.040683,-0.869335,0.001915,0.292821,0.010030,-1.636030,-0.030360,2.053716,-0.880082,0.001915,0.292821,0.010030,-1.636030,-0.030360,2.053716,-0.880082,0.0400,0.047914,0.6682,-0.0008,0.3223
0.3260,0.000404,0.336588,0.005167,-1.643421,-0.029169,2.041526,-0.870767,0.001945,0.292706,0.010191,-1.637076,-0.030847,2.054577,-0.881602,0.001945,0.292706,0.010191,-1.637076,-0.030847,2.054577,-0.881602,0.0400,0.047791,0.6682,-0.0008,0.3222
0.3280,0.000424,0.336360,0.005287,-1.644112,-0.029628,2.042375,-0.872213,0.001976,0.292590,0.010353,-1.638131,-0.031338,2.055446,-0.883135,0.001976,0.292590,0.010353,-1.638131,-0.031338,2.055446,-0.883135,0.0400,0.047673,0.6682,-0.0008,0.3221
0.3300,0.000445,0.336133,0.005407,-1.644814,-0.030091,2.043230,-0.873673,0.002008,0.292473,0.010517,-1.639196,-0.031834,2.056322,-0.884681,0.002008,0.292473,0.010517,-1.639196,-0.031834,2.056322,-0.884681,0.0400,0.047560,0.6682,-0.0007,0.3220
0.3320,0.000466,0.335907,0.005530,-1.645525,-0.030559,2.044092,-0.875145,0.002039,0.292355,0.010682,-1.640269,-0.032333,2.057206,-0.886241,0.002039,0.292355,0.010682,-1.640269,-0.032333,2.057206,-0.886241,0.0400,0.047452,0.6681,-0.0007,0.3219
0.3340,0.000487,0.335681,0.005654,-1.646247,-0.031032,2.044959,-0.876631,0.002071,0.292236,0.010848,-1.641351,-0.032837,2.058097,-0.887813,0.002071,0.292236,0.010848,-1.641351,-0.032837,2.058097,-0.887813,0.0400,0.047348,0.6681,-0.0007,0.3218
0.3360,0.000509,0.335456,0.005779,-1.646979,-0.031508,2.045832,-0.878129,0.002103,0.292116,0.011016,-1.642442,-0.033344,2.058996,-0.889398,0.002103,0.292116,0.011016,-1.642442,-0.033344,2.058996,-0.889398,0.0400,0.047250,0.6681,-0.0007,0.3217
0.3380,0.000531,0.335232,0.005906,-1.647721,-0.031989,2.046712,-0.879641,0.002135,0.291995,0.011185,-1.643542,-0.033856,2.059901,-0.890996,0.002135,0.291995,0.011185,-1.643542,-0.033856,2.059901,-0.890996,0.0400,0.047157,0.6681,-0.0006,0.3216
0.3400,0.000554,0.335010,0.006034,-1.648474,-0.032474,2.047598,-0.881166,0.002168,0.291873,0.011356,-1.644651,-0.034372,2.060814,-0.892607,0.002168,0.291873,0.011356,-1.644651,-0.034372,2.060814,-0.892607,0.0400,0.047069,0.6680,-0.0006,0.3215
0.3420,0.000577,0.334788,0.006163,-1.649237,-0.032964,2.048490,-0.882704,0.002200,0.291750,0.011528,-1.645769,-0.034893,2.061735,-0.894231,0.002200,0.291750,0.011528,-1.645769,-0.034893,2.061735,-0.894231,0.0400,0.046987,0.6680,-0.0006,0.3214
0.3440,0.000600,0.334567,0.006294,-1.650010,-0.033458,2.049388,-0.884255,0.002233,0.291626,0.011701,-1.646896,-0.035417,2.062662,-0.895868,0.002233,0.291626,0.011701,-1.646896,-0.035417,2.062662,-0.895868,0.0400,0.046909,0.6680,-0.0005,0.3212
0.3460,0.000624,0.334348,0.006427,-1.650794,-0.033956,2.050292,-0.885819,0.002267,0.291501,0.011875,-1.648032,-0.035945,2.063598,-0.897518,0.002267,0.291501,0.011875,-1.648032,-0.035945,2.063598,-0.897518,0.0400,0.046837,0.6680,-0.0005,0.3211
0.3480,0.000648,0.334129,0.006561,-1.651589,-0.034458,2.051203,-0.887397,0.002300,0.291375,0.012051,-1.649176,-0.036478,2.064540,-0.899181,0.002300,0.291375,0.012051,-1.649176,-0.036478,2.064540,-0.899181,0.0400,0.046771,0.6679,-0.0005,0.3209
0.3500,0.000672,0.333913,0.006696,-1.652394,-0.034964,2.052119,-0.888987,0.002334,0.291248,0.012229,-1.650329,-0.037015,2.065489,-0.900857,0.002334,0.291248,0.012229,-1.650329,-0.037015,2.065489,-0.900857,0.0400,0.046709,0.6679,-0.0004,0.3208
0.3520,0.000697,0.333697,0.006833,-1.653210,-0.035475,2.053042,-0.890590,0.002368,0.291120,0.012407,-1.651491,-0.037556,2.066446,-0.902545,0.002368,0.291120,0.012407,-1.651491,-0.037556,2.066446,-0.902545,0.0400,0.046653,0.6679,-0.0004,0.3207
0.3540,0.000722,0.333483,0.006971,-1.654037,-0.035990,2.053971,-0.892207,0.002403,0.290991,0.012587,-1.652662,-0.038100,2.067410,-0.904246,0.002403,0.290991,0.012587,-1.652662,-0.038100,2.067410,-0.904246,0.0400,0.046602,0.6678,-0.0004,0.3205
0.3560,0.000747,0.333270,0.007111,-1.654874,-0.036510,2.054906,-0.893836,0.002437,0.290861,0.012769,-1.653842,-0.038649,2.068382,-0.905960,0.002437,0.290861,0.012769,-1.653842,-0.038649,2.068382,-0.905960,0.0400,0.046557,0.6678,-0.0003,0.3203
0.3580,0.000773,0.333059,0.007252,-1.655722,-0.037033,2.055848,-0.895478,0.002472,0.290731,0.012951,-1.655031,-0.039202,2.069360,-0.907687,0.002472,0.290731,0.012951,-1.655031,-0.039202,2.069360,-0.907687,0.0400,0.046517,0.6677,-0.0003,0.3202
0.3600,0.000799,0.332849,0.007395,-1.656581,-0.037561,2.056796,-0.897133,0.002507,0.290599,0.013135,-1.656228,-0.039760,2.070346,-0.909426,0.002507,0.290599,0.013135,-1.656228,-0.039760,2.070346,-0.909426,0.0400,0.046482,0.6677,-0.0003,0.3200
0.3620,0.000826,0.332641,0.007539,-1.657450,-0.038093,2.057750,-0.898801,0.002543,0.290466,0.013321,-1.657434,-0.040321,2.071339,-0.911178,0.002543,0.290466,0.013321,-1.657434,-0.040321,2.071339,-0.911178,0.0400,0.046453,0.6676,-0.0002,0.3198
0.3640,0.000853,0.332434,0.007684,-1.658331,-0.038629,2.058711,-0.900482,0.002578,0.290333,0.013508,-1.658648,-0.040886,2.072339,-0.912943,0.002578,0.290333,0.013508,-1.658648,-0.040886,2.072339,-0.912943,0.0400,0.046429,0.6676,-0.0002,0.3196
0.3660,0.000880,0.332229,0.007831,-1.659222,-0.039170,2.059678,-0.902176,0.002614,0.290198,0.013696,-1.659872,-0.041455,2.073346,-0.914720,0.002614,0.290198,0.013696,-1.659872,-0.041455,2.073346,-0.914720,0.0400,0.046409,0.6675,-0.0001,0.3194
0.3680,0.000908,0.332026,0.007979,-1.660124,-0.039715,2.060651,-0.903883,0.002650,0.290062,0.013885,-1.661104,-0.042029,2.074361,-0.916510,0.002650,0.290062,0.013885,-1.661104,-0.042029,2.074361,-0.916510,0.0400,0.046396,0.6675,-0.0001,0.3192
0.3700,0.000935,0.331824,0.008129,-1.661037,-0.040264,2.061631,-0.905602,0.002687,0.289926,0.014076,-1.662344,-0.042606,2.075382,-0.918312,0.002687,0.289926,0.014076,-1.662344,-0.042606,2.075382,-0.918312,0.0400,0.046387,0.6674,-0.0001,0.3190
0.3720,0.000964,0.331624,0.008280,-1.661960,-0.040817,2.062617,-0.907335,0.002724,0.289788,0.014268,-1.663594,-0.043187,2.076411,-0.920127,0.002724,0.289788,0.014268,-1.663594,-0.043187,2.076411,-0.920127,0.0400,0.046383,0.6674,-0.0000,0.3188
0.3740,0.000992,0.331425,0.008432,-1.662895,-0.041374,2.063609,-0.909080,0.002760,0.289650,0.014461,-1.664852,-0.043773,2.077446,-0.921955,0.002760,0.289650,0.014461,-1.664852,-0.043773,2.077446,-0.921955,0.0400,0.046384,0.6673,0.0000,0.3186
0.3760,0.001021,0.331229,0.008586,-1.663840,-0.041936,2.064608,-0.910838,0.002798,0.289511,0.014656,-1.666118,-0.044362,2.078489,-0.923795,0.002798,0.289511,0.014656,-1.666118,-0.044362,2.078489,-0.923795,0.0400,0.046390,0.6673,0.0001,0.3184
0.3780,0.001051,0.331034,0.008741,-1.664796,-0.042501,2.065613,-0.912608,0.002835,0.289370,0.014852,-1.667393,-0.044956,2.079539,-0.925647,0.002835,0.289370,0.014852,-1.667393,-0.044956,2.079539,-0.925647,0.0400,0.046401,0.6672,0.0001,0.3182
0.3800,0.001080,0.330840,0.008898,-1.665763,-0.043071,2.066625,-0.914391,0.002873,0.289229,0.015049,-1.668677,-0.045553,2.080596,-0.927512,0.002873,0.289229,0.015049,-1.668677,-0.045553,2.080596,-0.927512,0.0400,0.046417,0.6671,0.0002,0.3180
0.3820,0.001110,0.330649,0.009056,-1.666740,-0.043645,2.067643,-0.916187,0.002911,0.289087,0.015248,-1.669969,-0.046154,2.081660,-0.929389,0.002911,0.289087,0.015248,-1.669969,-0.046154,2.081660,-0.929389,0.0400,0.046437,0.6671,0.0002,0.3177
0.3840,0.001140,0.330459,0.009215,-1.667729,-0.044223,2.068667,-0.917996,0.002949,0.288944,0.015448,-1.671269,-0.046759,2.082731,-0.931279,0.002949,0.288944,0.015448,-1.671269,-0.046759,2.082731,-0.931279,0.0400,0.046462,0.6670,0.0002,0.3175
0.3860,0.001171,0.330270,0.009376,-1.668728,-0.044806,2.069698,-0.919817,0.002987,0.288800,0.015649,-1.672578,-0.047369,2.083808,-0.933180,0.002987,0.288800,0.015649,-1.672578,-0.047369,2.083808,-0.933180,0.0400,0.046492,0.6669,0.0003,0.3172
0.3880,0.001202,0.330084,0.009538,-1.669738,-0.045392,2.070736,-0.921650,0.003026,0.288655,0.015852,-1.673896,-0.047982,2.084893,-0.935094,0.003026,0.288655,0.015852,-1.673896,-0.047982,2.084893,-0.935094,0.0400,0.046526,0.6669,0.0003,0.3170
0.3900,0.001233,0.329899,0.009702,-1.670759,-0.045982,2.071780,-0.923496,0.003065,0.288509,0.016056,-1.675222,-0.048599,2.085985,-0.937021,0.003065,0.288509,0.016056,-1.675222,-0.048599,2.085985,-0.937021,0.0400,0.046565,0.6668,0.0004,0.3167
0.3920,0.001264,0.329716,0.009867,-1.671790,-0.046577,2.072830,-0.925355,0.003104,0.288362,0.016261,-1.676556,-0.049220,2.087083,-0.938959,0.003104,0.288362,0.016261,-1.676556,-0.049220,2.087083,-0.938959,0.0400,0.046608,0.6667,0.0004,0.3165
0.3940,0.001296,0.329534,0.010033,-1.672832,-0.047176,2.073887,-0.927226,0.003143,0.288214,0.016467,-1.677898,-0.049844,2.088189,-0.940909,0.003143,0.288214,0.016467,-1.677898,-0.049844,2.088189,-0.940909,0.0400,0.046655,0.6666,0.0005,0.3162
0.3960,0.001328,0.329354,0.010200,-1.673885,-0.047779,2.074951,-0.929109,0.003183,0.288066,0.016675,-1.679249,-0.050473,2.089301,-0.942872,0.003183,0.288066,0.016675,-1.679249,-0.050473,2.089301,-0.942872,0.0400,0.046706,0.6665,0.0005,0.3159
0.3980,0.001361,0.329176,0.010369,-1.674948,-0.048386,2.076021,-0.931005,0.003223,0.287916,0.016884,-1.680608,-0.051105,2.090420,-0.944847,0.003223,0.287916,0.016884,-1.680608,-0.051105,2.090420,-0.944847,0.0400,0.046761,0.6665,0.0006,0.3156
0.4000,0.001394,0.328999,0.010540,-1.676022,-0.048997,2.077097,-0.932913,0.003263,0.287766,0.017094,-1.681976,-0.051742,2.091546,-0.946833,0.003263,0.287766,0.017094,-1.681976,-0.051742,2.091546,-0.946833,0.0400,0.046821,0.6664,0.0006,0.3154
0.4020,0.001427,0.328824,0.010711,-1.677107,-0.049612,2.078180,-0.934833,0.003303,0.287614,0.017306,-1.683351,-0.052382,2.092678,-0.948832,0.003303,0.287614,0.017306,-1.683351,-0.052382,2.092678,-0.948832,0.0400,0.046884,0.6663,0.0007,0.3151
0.4040,0.001460,0.328651,0.010884,-1.678202,-0.050231,2.079269,-0.936766,0.003344,0.287462,0.017518,-1.684735,-0.053026,2.093818,-0.950842,0.003344,0.287462,0.017518,-1.684735,-0.053026,2.093818,-0.950842,0.0400,0.046951,0.6662,0.0008,0.3148
0.4060,0.001494,0.328479,0.011059,-1.679307,-0.050854,2.080365,-0.938711,0.003385,0.287309,0.017732,-1.686127,-0.053674,2.094964,-0.952865,0.003385,0.287309,0.017732,-1.686127,-0.053674,2.094964,-0.952865,0.0400,0.047021,0.6661,0.0008,0.3145
0.4080,0.001528,0.328308,0.011234,-1.680423,-0.051481,2.081467,-0.940668,0.003426,0.287155,0.017948,-1.687527,-0.054325,2.096117,-0.954899,0.003426,0.287155,0.017948,-1.687527,-0.054325,2.096117,-0.954899,0.0400,0.047095,0.6660,0.0009,0.3142
0.4100,0.001562,0.328139,0.011411,-1.681550,-0.052112,2.082576,-0.942637,0.003467,0.287000,0.018164,-1.688936,-0.054981,2.097276,-0.956945,0.003467,0.287000,0.018164,-1.688936,-0.054981,2.097276,-0.956945,0.0400,0.047173,0.6659,0.0009,0.3138
0.4120,0.001596,0.327972,0.011590,-1.682687,-0.052747,2.083691,-0.944618,0.003509,0.286844,0.018382,-1.690352,-0.055640,2.098442,-0.959002,0.003509,0.286844,0.018382,-1.690352,-0.055640,2.098442,-0.959002,0.0400,0.047254,0.6658,0.0010,0.3135
0.4140,0.001631,0.327806,0.011769,-1.683834,-0.053386,2.084812,-0.946611,0.003551,0.286687,0.018601,-1.691776,-0.056303,2.099615,-0.961072,0.003551,0.286687,0.018601,-1.691776,-0.056303,2.099615,-0.961072,0.0400,0.047338,0.6657,0.0010,0.3132
0.4160,0.001666,0.327641,0.011950,-1.684991,-0.054029,2.085940,-0.948617,0.003593,0.286530,0.018821,-1.693209,-0.056969,2.100795,-0.963153,0.003593,0.286530,0.018821,-1.693209,-0.056969,2.100795,-0.963153,0.0400,0.047426,0.6656,0.0011,0.3129
0.4180,0.001702,0.327478,0.012132,-1.686159,-0.054676,2.087075,-0.950634,0.003635,0.286371,0.019042,-1.694649,-0.057640,2.101980,-0.965245,0.003635,0.286371,0.019042,-1.694649,-0.057640,2.101980,-0.965245,0.0400,0.047516,0.6655,0.0012,0.3126
0.4200,0.001738,0.327316,0.012316,-1.687337,-0.055327,2.088216,-0.952663,0.003677,0.286212,0.019265,-1.696097,-0.058313,2.103173,-0.967349,0.003677,0.286212,0.019265,-1.696097,-0.058313,2.103173,-0.967349,0.0400,0.047610,0.6654,0.0012,0.3122
0.4220,0.001774,0.327156,0.012501,-1.688525,-0.055981,2.089363,-0.954704,0.003720,0.286052,0.019489,-1.697554,-0.058991,2.104372,-0.969465,0.003720,0.286052,0.019489,-1.697554,-0.058991,2.104372,-0.969465,0.0400,0.047706,0.6653,0.0013,0.3119
0.4240,0.001810,0.326997,0.012687,-1.689723,-0.056640,2.090517,-0.956757,0.003763,0.285891,0.019714,-1.699018,-0.059672,2.105577,-0.971592,0.003763,0.285891,0.019714,-1.699018,-0.059672,2.105577,-0.971592,0.0400,0.047806,0.6652,0.0013,0.3115
0.4260,0.001846,0.326839,0.012875,-1.690931,-0.057302,2.091677,-0.958821,0.003806,0.285729,0.019940,-1.700489,-0.060357,2.106789,-0.973730,0.003806,0.285729,0.019940,-1.700489,-0.060357,2.106789,-0.973730,0.0400,0.047908,0.6651,0.0014,0.3112
0.4280,0.001883,0.326682,0.013063,-1.692150,-0.057969,2.092843,-0.960898,0.003850,0.285566,0.020168,-1.701969,-0.061046,2.108008,-0.975880,0.003850,0.285566,0.020168,-1.701969,-0.061046,2.108008,-0.975880,0.0400,0.048013,0.6650,0.0015,0.3108
0.4300,0.001920,0.326526,0.013253,-1.693378,-0.058639,2.094016,-0.962986,0.003893,0.285402,0.020397,-1.703457,-0.061738,2.109232,-0.978041,0.003893,0.285402,0.020397,-1.703457,-0.061738,2.109232,-0.978041,0.0400,0.048120,0.6649,0.0015,0.3105
0.4320,0.001958,0.326372,0.013445,-1.694616,-0.059312,2.095195,-0.965085,0.003937,0.285238,0.020626,-1.704952,-0.062434,2.110463,-0.980213,0.003937,0.285238,0.020626,-1.704952,-0.062434,2.110463,-0.980213,0.0400,0.048229,0.6647,0.0016,0.3101
0.4340,0.001995,0.326218,0.013637,-1.695864,-0.059990,2.096380,-0.967196,0.003981,0.285072,0.020858,-1.706455,-0.063133,2.111701,-0.982397,0.003981,0.285072,0.020858,-1.706455,-0.063133,2.111701,-0.982397,0.0400,0.048342,0.6646,0.0017,0.3097
0.4360,0.002033,0.326066,0.013831,-1.697121,-0.060671,2.097572,-0.969319,0.004026,0.284906,0.021090,-1.707965,-0.063836,2.112944,-0.984591,0.004026,0.284906,0.021090,-1.707965,-0.063836,2.112944,-0.984591,0.0400,0.048456,0.6645,0.0017,0.3093
0.4380,0.002071,0.325915,0.014026,-1.698389,-0.061356,2.098769,-0.971453,0.004070,0.284739,0.021323,-1.709483,-0.064543,2.114194,-0.986797,0.004070,0.284739,0.021323,-1.709483,-0.064543,2.114194,-0.986797,0.0400,0.048572,0.6644,0.0018,0.3090
0.4400,0.002110,0.325764,0.014223,-1.699666,-0.062045,2.099974,-0.973598,0.004115,0.284571,0.021558,-1.711009,-0.065253,2.115450,-0.989013,0.004115,0.284571,0.021558,-1.711009,-0.065253,2.115450,-0.989013,0.0400,0.048691,0.6643,0.0019,0.3086
0.4420,0.002148,0.325615,0.014420,-1.700953,-0.062738,2.101184,-0.975755,0.004160,0.284403,0.021793,-1.712542,-0.065966,2.116713,-0.991241,0.004160,0.284403,0.021793,-1.712542,-0.065966,2.116713,-0.991241,0.0400,0.048811,0.6641,0.0019,0.3082
0.4440,0.002187,0.325466,0.014619,-1.702249,-0.063434,2.102400,-0.977923,0.004205,0.284233,0.022030,-1.714083,-0.066683,2.117981,-0.993479,0.004205,0.284233,0.022030,-1.714083,-0.066683,2.117981,-0.993479,0.0400,0.048934,0.6640,0.0020,0.3078
0.4460,0.002227,0.325318,0.014819,-1.703555,-0.064133,2.103623,-0.980103,0.004251,0.284063,0.022268,-1.715631,-0.067404,2.119256,-0.995728,0.004251,0.284063,0.022268,-1.715631,-0.067404,2.119256,-0.995728,0.0400,0.049058,0.6639,0.0021,0.3074
0.4480,0.002266,0.325172,0.015021,-1.704870,-0.064837,2.104852,-0.982294,0.004296,0.283891,0.022507,-1.717187,-0.068128,2.120537,-0.997988,0.004296,0.283891,0.022507,-1.717187,-0.068128,2.120537,-0.997988,0.0400,0.049184,0.6637,0.0022,0.3070
0.4500,0.002306,0.325025,0.015223,-1.706194,-0.065544,2.106087,-0.984495,0.004342,0.283720,0.022748,-1.718749,-0.068855,2.121824,-1.000259,0.004342,0.283720,0.022748,-1.718749,-0.068855,2.121824,-1.000259,0.0400,0.049312,0.6636,0.0022,0.3066
0.4520,0.002346,0.324880,0.015427,-1.707528,-0.066254,2.107329,-0.986708,0.004388,0.283547,0.022989,-1.720320,-0.069586,2.123117,-1.002540,0.004388,0.283547,0.022989,-1.720320,-0.069586,2.123117,-1.002540,0.0400,0.049441,0.6635,0.0023,0.3062
0.4540,0.002386,0.324735,0.015632,-1.708871,-0.066968,2.108576,-0.988932,0.004435,0.283373,0.023232,-1.721897,-0.070320,2.124416,-1.004832,0.004435,0.283373,0.023232,-1.721897,-0.070320,2.124416,-1.004832,0.0400,0.049572,0.6633,0.0024,0.3057
0.4560,0.002426,0.324591,0.015839,-1.710224,-0.067686,2.109830,-0.991167,0.004481,0.283199,0.023475,-1.723482,-0.071057,2.125720,-1.007134,0.004481,0.283199,0.023475,-1.723482,-0.071057,2.125720,-1.007134,0.0400,0.049704,0.6632,0.0025,0.3053
0.4580,0.002467,0.324447,0.016046,-1.711585,-0.068407,2.111089,-0.993413,0.004528,0.283024,0.023720,-1.725074,-0.071798,2.127031,-1.009447,0.004528,0.283024,0.023720,-1.725074,-0.071798,2.127031,-1.009447,0.0400,0.049837,0.6630,0.0025,0.3049
0.4600,0.002508,0.324304,0.016255,-1.712956,-0.069132,2.112355,-0.995669,0.004575,0.282848,0.023966,-1.726673,-0.072542,2.128348,-1.011771,0.004575,0.282848,0.023966,-1.726673,-0.072542,2.128348,-1.011771,0.0400,0.049972,0.6629,0.0026,0.3045
0.4620,0.002549,0.324161,0.016465,-1.714335,-0.069860,2.113626,-0.997937,0.004622,0.282671,0.024213,-1.728279,-0.073290,2.129670,-1.014104,0.004622,0.282671,0.024213,-1.728279,-0.073290,2.129670,-1.014104,0.0400,0.050108,0.6627,0.0027,0.3040
0.4640,0.002591,0.324019,0.016676,-1.715723,-0.070591,2.114904,-1.000215,0.004669,0.282493,0.024461,-1.729893,-0.074041,2.130999,-1.016448,0.004669,0.282493,0.024461,-1.729893,-0.074041,2.130999,-1.016448,0.0400,0.050245,0.6626,0.0028,0.3036
0.4660,0.002633,0.323877,0.016888,-1.717121,-0.071326,2.116188,-1.002504,0.004717,0.282315,0.024710,-1.731513,-0.074795,2.132333,-1.018802,0.004717,0.282315,0.024710,-1.731513,-0.074795,2.132333,-1.018802,0.0400,0.050383,0.6624,0.0028,0.3032
0.4680,0.002675,0.323735,0.017102,-1.718527,-0.072065,2.117477,-1.004803,0.004765,0.282136,0.024960,-1.733141,-0.075552,2.133673,-1.021167,0.004765,0.282136,0.024960,-1.733141,-0.075552,2.133673,-1.021167,0.0400,0.050522,0.6623,0.0029,0.3027
0.4700,0.002717,0.323594,0.017317,-1.719941,-0.072807,2.118773,-1.007113,0.004812,0.281956,0.025212,-1.734775,-0.076313,2.135018,-1.023541,0.004812,0.281956,0.025212,-1.734775,-0.076313,2.135018,-1.023541,0.0400,0.050661,0.6621,0.0030,0.3023
0.4720,0.002759,0.323453,0.017533,-1.721365,-0.073552,2.120074,-1.009434,0.004861,0.281776,0.025464,-1.736416,-0.077076,2.136370,-1.025925,0.004861,0.281776,0.025464,-1.736416,-0.077076,2.136370,-1.025925,0.0400,0.050802,0.6620,0.0031,0.3018
0.4740,0.002802,0.323313,0.017750,-1.722797,-0.074300,2.121381,-1.011764,0.004909,0.281594,0.025717,-1.738064,-0.077843,2.137727,-1.028320,0.004909,0.281594,0.025717,-1.738064,-0.077843,2.137727,-1.028320,0.0400,0.050943,0.6618,0.0032,0.3014
0.4760,0.002845,0.323172,0.017968,-1.724237,-0.075052,2.122695,-1.014106,0.004958,0.281412,0.025972,-1.739719,-0.078613,2.139089,-1.030724,0.004958,0.281412,0.025972,-1.739719,-0.078613,2.139089,-1.030724,0.0400,0.051085,0.6616,0.0033,0.3009
0.4780,0.002888,0.323032,0.018188,-1.725686,-0.075807,2.124014,-1.016457,0.005006,0.281229,0.026227,-1.741381,-0.079387,2.140457,-1.033138,0.005006,0.281229,0.026227,-1.741381,-0.079387,2.140457,-1.033138,0.0400,0.051228,0.6615,0.0033,0.3005
0.4800,0.002932,0.322891,0.018408,-1.727144,-0.076565,2.125338,-1.018819,0.005055,0.281046,0.026484,-1.743049,-0.080163,2.141831,-1.035562,0.005055,0.281046,0.026484,-1.743049,-0.080163,2.141831,-1.035562,0.0400,0.051371,0.6613,0.0034,0.3000
0.4820,0.002975,0.322751,0.018630,-1.728609,-0.077327,2.126669,-1.021191,0.005104,0.280861,0.026741,-1.744724,-0.080942,2.143210,-1.037995,0.005104,0.280861,0.026741,-1.744724,-0.080942,2.143210,-1.037995,0.0400,0.051515,0.6611,0.0035,0.2995
0.4840,0.003019,0.322611,0.018853,-1.730083,-0.078091,2.128005,-1.023573,0.005154,0.280676,0.027000,-1.746405,-0.081725,2.144595,-1.040438,0.005154,0.280676,0.027000,-1.746405,-0.081725,2.144595,-1.040438,0.0400,0.051659,0.6610,0.0036,0.2991
0.4860,0.003063,0.322470,0.019077,-1.731566,-0.078859,2.129347,-1.025965,0.005203,0.280491,0.027259,-1.748094,-0.082511,2.145984,-1.042891,0.005203,0.280491,0.027259,-1.748094,-0.082511,2.145984,-1.042891,0.0400,0.051803,0.6608,0.0037,0.2986
0.4880,0.003108,0.322330,0.019303,-1.733056,-0.079630,2.130695,-1.028367,0.005253,0.280304,0.027520,-1.749788,-0.083299,2.147380,-1.045353,0.005253,0.280304,0.027520,-1.749788,-0.083299,2.147380,-1.045353,0.0400,0.051948,0.6606,0.0038,0.2981
0.4900,0.003152,0.322189,0.019529,-1.734554,-0.080405,2.132049,-1.030779,0.005303,0.280117,0.027781,-1.751489,-0.084091,2.148780,-1.047824,0.005303,0.280117,0.027781,-1.751489,-0.084091,2.148780,-1.047824,0.0400,0.052093,0.6604,0.0039,0.2976
0.4920,0.003197,0.322049,0.019757,-1.736061,-0.081182,2.133408,-1.033201,0.005353,0.279929,0.028044,-1.753197,-0.084886,2.150186,-1.050305,0.005353,0.279929,0.028044,-1.753197,-0.084886,2.150186,-1.050305,0.0400,0.052238,0.6603,0.0040,0.2971
0.4940,0.003242,0.321908,0.019985,-1.737575,-0.081963,2.134772,-1.035633,0.005403,0.279741,0.028307,-1.754911,-0.085683,2.151598,-1.052795,0.005403,0.279741,0.028307,-1.754911,-0.085683,2.151598,-1.052795,0.0400,0.052383,0.6601,0.0041,0.2967
0.4960,0.003288,0.321767,0.020215,-1.739097,-0.082746,2.136143,-1.038074,0.005454,0.279551,0.028572,-1.756631,-0.086484,2.153014,-1.055294,0.005454,0.279551,0.028572,-1.756631,-0.086484,2.153014,-1.055294,0.0400,0.052529,0.6599,0.0042,0.2962
0.4980,0.003333,0.321625,0.020446,-1.740627,-0.083533,2.137518,-1.040525,0.005505,0.279361,0.028837,-1.758358,-0.087287,2.154436,-1.057803,0.005505,0.279361,0.028837,-1.758358,-0.087287,2.154436,-1.057803,0.0400,0.052674,0.6597,0.0043,0.2957
0.5000,0.003379,0.321484,0.020678,-1.742164,-0.084323,2.138900,-1.042985,0.005555,0.279171,0.029104,-1.760090,-0.088094,2.155862,-1.060320,0.005555,0.279171,0.029104,-1.760090,-0.088094,2.155862,-1.060320,0.0400,0.052819,0.6595,0.0043,0.2952
0.5020,0.003425,0.321342,0.020912,-1.743710,-0.085115,2.140287,-1.045455,0.005606,0.278979,0.029371,-1.761829,-0.088903,2.157294,-1.062846,0.005606,0.278979,0.029371,-1.761829,-0.088903,2.157294,-1.062846,0.0400,0.052965,0.6593,0.0044,0.2947
0.5040,0.003471,0.321199,0.021146,-1.745263,-0.085911,2.141679,-1.047935,0.005658,0.278787,0.029639,-1.763574,-0.089715,2.158731,-1.065382,0.005658,0.278787,0.029639,-1.763574,-0.089715,2.158731,-1.065382,0.0400,0.053110,0.6591,0.0045,0.2942
0.5060,0.003518,0.321056,0.021381,-1.746823,-0.086710,2.143076,-1.050423,0.005709,0.278595,0.029909,-1.765326,-0.090530,2.160173,-1.067926,0.005709,0.278595,0.029909,-1.765326,-0.090530,2.160173,-1.067926,0.0400,0.053255,0.6590,0.0046,0.2937
0.5080,0.003564,0.320913,0.021618,-1.748391,-0.087511,2.144479,-1.052921,0.005761,0.278401,0.030179,-1.767083,-0.091347,2.161619,-1.070478,0.005761,0.278401,0.030179,-1.767083,-0.091347,2.161619,-1.070478,0.0400,0.053399,0.6588,0.0047,0.2932
0.5100,0.003611,0.320769,0.021856,-1.749966,-0.088316,2.145888,-1.055429,0.005812,0.278207,0.030450,-1.768846,-0.092168,2.163071,-1.073040,0.005812,0.278207,0.030450,-1.768846,-0.092168,2.163071,-1.073040,0.0400,0.053544,0.6586,0.0048,0.2927
0.5120,0.003658,0.320625,0.022094,-1.751549,-0.089124,2.147302,-1.057945,0.005864,0.278013,0.030722,-1.770615,-0.092991,2.164528,-1.075610,0.005864,0.278013,0.030722,-1.770615,-0.092991,2.164528,-1.075610,0.0400,0.053688,0.6584,0.0049,0.2922
0.5140,0.003706,0.320480,0.022334,-1.753138,-0.089934,2.148721,-1.060470,0.005916,0.277817,0.030995,-1.772390,-0.093817,2.165989,-1.078189,0.005916,0.277817,0.030995,-1.772390,-0.093817,2.165989,-1.078189,0.0400,0.053832,0.6582,0.0050,0.2916
0.5160,0.003753,0.320335,0.022575,-1.754735,-0.090747,2.150145,-1.063005,0.005969,0.277621,0.031268,-1.774170,-0.094646,2.167455,-1.080776,0.005969,0.277621,0.031268,-1.774170,-0.094646,2.167455,-1.080776,0.0400,0.053975,0.6580,0.0052,0.2911
0.5180,0.003801,0.320189,0.022817,-1.756340,-0.091563,2.151574,-1.065548,0.006021,0.277425,0.031543,-1.775957,-0.095477,2.168926,-1.083371,0.006021,0.277425,0.031543,-1.775957,-0.095477,2.168926,-1.083371,0.0400,0.054118,0.6578,0.0053,0.2906
0.5200,0.003849,0.320042,0.023060,-1.757951,-0.092382,2.153009,-1.068100,0.006074,0.277228,0.031819,-1.777749,-0.096311,2.170401,-1.085975,0.006074,0.277228,0.031819,-1.777749,-0.096311,2.170401,-1.085975,0.0400,0.054260,0.6575,0.0054,0.2901
0.5220,0.003898,0.319895,0.023304,-1.759569,-0.093204,2.154449,-1.070661,0.006126,0.277030,0.032095,-1.779547,-0.097148,2.171882,-1.088586,0.006126,0.277030,0.032095,-1.779547,-0.097148,2.171882,-1.088586,0.0400,0.054402,0.6573,0.0055,0.2896
0.5240,0.003946,0.319747,0.023549,-1.761194,-0.094028,2.155894,-1.073230,0.006179,0.276831,0.032372,-1.781350,-0.097987,2.173367,-1.091207,0.006179,0.276831,0.032372,-1.781350,-0.097987,2.173367,-1.091207,0.0400,0.054543,0.6571,0.0056,0.2891
0.5260,0.003995,0.319598,0.023796,-1.762826,-0.094855,2.157343,-1.075808,0.006232,0.276632,0.032650,-1.783159,-0.098829,2.174856,-1.093835,0.006232,0.276632,0.032650,-1.783159,-0.098829,2.174856,-1.093835,0.0400,0.054684,0.6569,0.0057,0.2885
0.5280,0.004044,0.319449,0.024043,-1.764465,-0.095685,2.158798,-1.078395,0.006286,0.276433,0.032929,-1.784973,-0.099673,2.176350,-1.096471,0.006286,0.276433,0.032929,-1.784973,-0.099673,2.176350,-1.096471,0.0400,0.054824,0.6567,0.0058,0.2880
0.5300,0.004093,0.319299,0.024291,-1.766110,-0.096518,2.160258,-1.080990,0.006339,0.276232,0.033209,-1.786793,-0.100520,2.177848,-1.099114,0.006339,0.276232,0.033209,-1.786793,-0.100520,2.177848,-1.099114,0.0400,0.054964,0.6565,0.0059,0.2875
0.5320,0.004142,0.319148,0.024541,-1.767762,-0.097353,2.161723,-1.083594,0.006393,0.276032,0.033490,-1.788619,-0.101369,2.179351,-1.101766,0.006393,0.276032,0.033490,-1.788619,-0.101369,2.179351,-1.101766,0.0400,0.055103,0.6563,0.0060,0.2869
0.5340,0.004192,0.318996,0.024791,-1.769421,-0.098191,2.163193,-1.086205,0.006446,0.275830,0.033771,-1.790449,-0.102221,2.180858,-1.104426,0.006446,0.275830,0.033771,-1.790449,-0.102221,2.180858,-1.104426,0.0400,0.055241,0.6561,0.0061,0.2864
0.5360,0.004242,0.318844,0.025043,-1.771086,-0.099031,2.164667,-1.088825,0.006500,0.275628,0.034053,-1.792285,-0.103076,2.182370,-1.107093,0.006500,0.275628,0.034053,-1.792285,-0.103076,2.182370,-1.107093,0.0400,0.055378,0.6558,0.0062,0.2859
0.5380,0.004292,0.318690,0.025295,-1.772758,-0.099874,2.166147,-1.091453,0.006554,0.275426,0.034336,-1.794126,-0.103932,2.183886,-1.109767,0.006554,0.275426,0.034336,-1.794126,-0.103932,2.183886,-1.109767,0.0400,0.055514,0.6556,0.0064,0.2853
0.5400,0.004342,0.318536,0.025549,-1.774436,-0.100720,2.167631,-1.094090,0.006608,0.275222,0.034620,-1.795972,-0.104792,2.185406,-1.112450,0.006608,0.275222,0.034620,-1.795972,-0.104792,2.185406,-1.112450,0.0400,0.055650,0.6554,0.0065,0.2848
0.5420,0.004393,0.318381,0.025803,-1.776120,-0.101568,2.169120,-1.096734,0.006663,0.275019,0.034905,-1.797823,-0.105653,2.186930,-1.115139,0.006663,0.275019,0.034905,-1.797823,-0.105653,2.186930,-1.115139,0.0400,0.055785,0.6552,0.0066,0.2843
0.5440,0.004443,0.318225,0.026059,-1.777811,-0.102419,2.170613,-1.099386,0.006717,0.274814,0.035190,-1.799680,-0.106517,2.188458,-1.117836,0.006717,0.274814,0.035190,-1.799680,-0.106517,2.188458,-1.117836,0.0400,0.055919,0.6549,0.0067,0.2837
0.5460,0.004494,0.318068,0.026315,-1.779508,-0.103272,2.172111,-1.102046,0.006772,0.274610,0.035476,-1.801541,-0.107383,2.189991,-1.120540,0.006772,0.274610,0.035476,-1.801541,-0.107383,2.189991,-1.120540,0.0400,0.056052,0.6547,0.0068,0.2832
0.5480,0.004546,0.317910,0.026573,-1.781211,-0.104128,2.173614,-1.104713,0.006827,0.274404,0.035763,-1.803407,-0.108252,2.191527,-1.123251,0.006827,0.274404,0.035763,-1.803407,-0.108252,2.191527,-1.123251,0.0400,0.056184,0.6545,0.0069,0.2826
0.5500,0.004597,0.317751,0.026831,-1.782920,-0.104986,2.175121,-1.107388,0.006882,0.274198,0.036051,-1.805278,-0.109122,2.193068,-1.125970,0.006882,0.274198,0.036051,-1.805278,-0.109122,2.193068,-1.125970,0.0400,0.056315,0.6542,0.0071,0.2821
0.5520,0.004649,0.317591,0.027091,-1.784635,-0.105846,2.176633,-1.110071,0.006937,0.273992,0.036339,-1.807154,-0.109995,2.194612,-1.128695,0.006937,0.273992,0.036339,-1.807154,-0.109995,2.194612,-1.128695,0.0400,0.056445,0.6540,0.0072,0.2815
0.5540,0.004700,0.317430,0.027351,-1.786356,-0.106709,2.178149,-1.112762,0.006992,0.273785,0.036628,-1.809035,-0.110870,2.196161,-1.131427,0.006992,0.273785,0.036628,-1.809035,-0.110870,2.196161,-1.131427,0.0400,0.056574,0.6538,0.0073,0.2810
0.5560,0.004753,0.317268,0.027613,-1.788083,-0.107575,2.179670,-1.115459,0.007047,0.273578,0.036918,-1.810920,-0.111748,2.197713,-1.134166,0.007047,0.273578,0.036918,-1.810920,-0.111748,2.197713,-1.134166,0.0400,0.056702,0.6535,0.0074,0.2804
0.5580,0.004805,0.317105,0.027875,-1.789816,-0.108442,2.181195,-1.118164,0.007103,0.273370,0.037209,-1.812810,-0.112627,2.199269,-1.136912,0.007103,0.273370,0.037209,-1.812810,-0.112627,2.199269,-1.136912,0.0400,0.056829,0.6533,0.0076,0.2799
0.5600,0.004857,0.316941,0.028139,-1.791555,-0.109312,2.182724,-1.120877,0.007158,0.273161,0.037500,-1.814704,-0.113509,2.200829,-1.139664,0.007158,0.273161,0.037500,-1.814704,-0.113509,2.200829,-1.139664,0.0400,0.056956,0.6530,0.0077,0.2793
0.5620,0.004910,0.316776,0.028403,-1.793299,-0.110184,2.184257,-1.123596,0.007214,0.272952,0.037792,-1.816604,-0.114393,2.202393,-1.142423,0.007214,0.272952,0.037792,-1.816604,-0.114393,2.202393,-1.142423,0.0400,0.057080,0.6528,0.0078,0.2788
0.5640,0.004963,0.316610,0.028668,-1.795049,-0.111059,2.185795,-1.126322,0.007270,0.272743,0.038085,-1.818507,-0.115279,2.203960,-1.145189,0.007270,0.272743,0.038085,-1.818507,-0.115279,2.203960,-1.145189,0.0400,0.057204,0.6525,0.0079,0.2782
0.5660,0.005016,0.316443,0.028934,-1.796805,-0.111935,2.187337,-1.129056,0.007326,0.272533,0.038378,-1.820415,-0.116166,2.205531,-1.147961,0.007326,0.272533,0.038378,-1.820415,-0.116166,2.205531,-1.147961,0.0400,0.057327,0.6523,0.0081,0.2777
0.5680,0.005069,0.316275,0.029202,-1.798566,-0.112814,2.188883,-1.131796,0.007382,0.272322,0.038672,-1.822327,-0.117056,2.207105,-1.150739,0.007382,0.272322,0.038672,-1.822327,-0.117056,2.207105,-1.150739,0.0400,0.057449,0.6520,0.0082,0.2771
0.5700,0.005123,0.316106,0.029470,-1.800333,-0.113695,2.190433,-1.134544,0.007438,0.272112,0.038967,-1.824244,-0.117948,2.208683,-1.153523,0.007438,0.272112,0.038967,-1.824244,-0.117948,2.208683,-1.153523,0.0400,0.057569,0.6518,0.0083,0.2766
0.5720,0.005177,0.315936,0.029739,-1.802105,-0.114578,2.191987,-1.137297,0.007495,0.271900,0.039262,-1.826164,-0.118842,2.210265,-1.156314,0.007495,0.271900,0.039262,-1.826164,-0.118842,2.210265,-1.156314,0.0400,0.057688,0.6515,0.0085,0.2760
0.5740,0.005231,0.315764,0.030009,-1.803883,-0.115464,2.193545,-1.140058,0.007551,0.271688,0.039558,-1.828089,-0.119738,2.211850,-1.159110,0.007551,0.271688,0.039558,-1.828089,-0.119738,2.211850,-1.159110,0.0400,0.057806,0.6513,0.0086,0.2754
0.5760,0.005285,0.315592,0.030280,-1.805665,-0.116351,2.195107,-1.142825,0.007608,0.271476,0.039855,-1.830018,-0.120635,2.213438,-1.161913,0.007608,0.271476,0.039855,-1.830018,-0.120635,2.213438,-1.161913,0.0400,0.057923,0.6510,0.0087,0.2749
0.5780,0.005339,0.315419,0.030551,-1.807453,-0.117241,2.196672,-1.145599,0.007664,0.271264,0.040152,-1.831951,-0.121535,2.215030,-1.164721,0.007664,0.271264,0.040152,-1.831951,-0.121535,2.215030,-1.164721,0.0400,0.058039,0.6507,0.0089,0.2743
0.5800,0.005394,0.315244,0.030824,-1.809246,-0.118132,2.198242,-1.148379,0.007721,0.271050,0.040450,-1.833888,-0.122436,2.216624,-1.167535,0.007721,0.271050,0.040450,-1.833888,-0.122436,2.216624,-1.167535,0.0400,0.058153,0.6505,0.0090,0.2737
0.5820,0.005449,0.315068,0.031098,-1.811045,-0.119026,2.199815,-1.151165,0.007778,0.270837,0.040748,-1.835829,-0.123340,2.218222,-1.170355,0.007778,0.270837,0.040748,-1.835829,-0.123340,2.218222,-1.170355,0.0400,0.058266,0.6502,0.0091,0.2732
0.5840,0.005504,0.314891,0.031372,-1.812848,-0.119921,2.201392,-1.153958,0.007835,0.270623,0.041047,-1.837774,-0.124245,2.219824,-1.173180,0.007835,0.270623,0.041047,-1.837774,-0.124245,2.219824,-1.173180,0.0400,0.058378,0.6500,0.0093,0.2726
0.5860,0.005559,0.314714,0.031647,-1.814657,-0.120819,2.202972,-1.156756,0.007892,0.270408,0.041347,-1.839723,-0.125151,2.221428,-1.176011,0.007892,0.270408,0.041347,-1.839723,-0.125151,2.221428,-1.176011,0.0400,0.058489,0.6497,0.0094,0.2720
0.5880,0.005615,0.314535,0.031924,-1.816470,-0.121718,2.204556,-1.159561,0.007950,0.270194,0.041647,-1.841675,-0.126060,2.223035,-1.178848,0.007950,0.270194,0.041647,-1.841675,-0.126060,2.223035,-1.178848,0.0400,0.058598,0.6494,0.0095,0.2715
0.5900,0.005670,0.314354,0.032201,-1.818288,-0.122619,2.206144,-1.162372,0.008007,0.269978,0.041947,-1.843631,-0.126970,2.224646,-1.181689,0.008007,0.269978,0.041947,-1.843631,-0.126970,2.224646,-1.181689,0.0400,0.058706,0.6491,0.0097,0.2709
0.5920,0.005726,0.314173,0.032479,-1.820111,-0.123522,2.207735,-1.165188,0.008065,0.269763,0.042249,-1.845590,-0.127882,2.226259,-1.184536,0.008065,0.269763,0.042249,-1.845590,-0.127882,2.226259,-1.184536,0.0400,0.058812,0.6489,0.0098,0.2703
0.5940,0.005782,0.313991,0.032757,-1.821939,-0.124427,2.209330,-1.168010,0.008122,0.269547,0.042550,-1.847553,-0.128796,2.227876,-1.187388,0.008122,0.269547,0.042550,-1.847553,-0.128796,2.227876,-1.187388,0.0400,0.058918,0.6486,0.0100,0.2698
0.5960,0.005839,0.313808,0.033037,-1.823772,-0.125334,2.210928,-1.170838,0.008180,0.269330,0.042853,-1.849520,-0.129711,2.229495,-1.190245,0.008180,0.269330,0.042853,-1.849520,-0.129711,2.229495,-1.190245,0.0400,0.059022,0.6483,0.0101,0.2692
0.5980,0.005895,0.313623,0.033317,-1.825609,-0.126243,2.212529,-1.173672,0.008238,0.269114,0.043156,-1.851490,-0.130628,2.231117,-1.193107,0.008238,0.269114,0.043156,-1.851490,-0.130628,2.231117,-1.193107,0.0400,0.059124,0.6480,0.0103,0.2686
0.6000,0.005952,0.313437,0.033599,-1.827451,-0.127153,2.214133,-1.176511,0.008296,0.268896,0.043459,-1.853463,-0.131546,2.232742,-1.195974,0.008296,0.268896,0.043459,-1.853463,-0.131546,2.232742,-1.195974,0.0400,0.059226,0.6478,0.0104,0.2680
0.6020,0.006009,0.313251,0.033881,-1.829297,-0.128065,2.215741,-1.179355,0.008354,0.268679,0.043763,-1.855440,-0.132466,2.234369,-1.198846,0.008354,0.268679,0.043763,-1.855440,-0.132466,2.234369,-1.198846,0.0400,0.059326,0.6475,0.0105,0.2675
0.6040,0.006066,0.313063,0.034164,-1.831148,-0.128979,2.217352,-1.182205,0.008412,0.268461,0.044067,-1.857420,-0.133387,2.235999,-1.201722,0.008412,0.268461,0.044067,-1.857420,-0.133387,2.235999,-1.201722,0.0400,0.059424,0.6472,0.0107,0.2669
0.6060,0.006123,0.312874,0.034447,-1.833003,-0.129894,2.218966,-1.185060,0.008470,0.268243,0.044372,-1.859403,-0.134310,2.237632,-1.204603,0.008470,0.268243,0.044372,-1.859403,-0.134310,2.237632,-1.204603,0.0400,0.059521,0.6469,0.0108,0.2663
0.6080,0.006181,0.312684,0.034732,-1.834863,-0.130811,2.220583,-1.187920,0.008528,0.268024,0.044678,-1.861389,-0.135234,2.239267,-1.207489,0.008528,0.268024,0.044678,-1.861389,-0.135234,2.239267,-1.207489,0.0400,0.059617,0.6466,0.0110,0.2657
0.6100,0.006239,0.312493,0.035017,-1.836727,-0.131730,2.222202,-1.190785,0.008587,0.267805,0.044983,-1.863378,-0.136160,2.240905,-1.210379,0.008587,0.267805,0.044983,-1.863378,-0.136160,2.240905,-1.210379,0.0400,0.059711,0.6463,0.0111,0.2652
0.6120,0.006297,0.312301,0.035303,-1.838595,-0.132650,2.223825,-1.193656,0.008645,0.267586,0.045290,-1.865370,-0.137087,2.242545,-1.213273,0.008645,0.267586,0.045290,-1.865370,-0.137087,2.242545,-1.213273,0.0400,0.059804,0.6460,0.0113,0.2646
0.6140,0.006355,0.312108,0.035590,-1.840468,-0.133572,2.225451,-1.196531,0.008704,0.267367,0.045596,-1.867366,-0.138015,2.244188,-1.216172,0.008704,0.267367,0.045596,-1.867366,-0.138015,2.244188,-1.216172,0.0400,0.059896,0.6457,0.0115,0.2640
0.6160,0.006413,0.311914,0.035878,-1.842345,-0.134496,2.227080,-1.199410,0.008762,0.267147,0.045904,-1.869363,-0.138945,2.245833,-1.219074,0.008762,0.267147,0.045904,-1.869363,-0.138945,2.245833,-1.219074,0.0400,0.059986,0.6454,0.0116,0.2634
0.6180,0.006472,0.311719,0.036166,-1.844225,-0.135420,2.228711,-1.202295,0.008821,0.266927,0.046211,-1.871364,-0.139876,2.247480,-1.221981,0.008821,0.266927,0.046211,-1.871364,-0.139876,2.247480,-1.221981,0.0400,0.060075,0.6451,0.0118,0.2629
0.6200,0.006530,0.311523,0.036455,-1.846110,-0.136347,2.230345,-1.205184,0.008880,0.266706,0.046519,-1.873368,-0.140809,2.249130,-1.224891,0.008880,0.266706,0.046519,-1.873368,-0.140809,2.249130,-1.224891,0.0400,0.060162,0.6448,0.0119,0.2623
0.6220,0.006589,0.311325,0.036745,-1.847999,-0.137274,2.231981,-1.208077,0.008939,0.266486,0.046828,-1.875374,-0.141742,2.250782,-1.227806,0.008939,0.266486,0.046828,-1.875374,-0.141742,2.250782,-1.227806,0.0400,0.060248,0.6445,0.0121,0.2617
0.6240,0.006648,0.311127,0.037036,-1.849892,-0.138204,2.233621,-1.210975,0.008998,0.266265,0.047136,-1.877382,-0.142677,2.252435,-1.230724,0.008998,0.266265,0.047136,-1.877382,-0.142677,2.252435,-1.230724,0.0400,0.060332,0.6442,0.0122,0.2611
0.6260,0.006708,0.310928,0.037327,-1.851789,-0.139134,2.235262,-1.213878,0.009057,0.266043,0.047446,-1.879393,-0.143613,2.254091,-1.233646,0.009057,0.266043,0.047446,-1.879393,-0.143613,2.254091,-1.233646,0.0400,0.060415,0.6439,0.0124,0.2605
0.6280,0.006767,0.310728,0.037619,-1.853689,-0.140066,2.236906,-1.216784,0.009116,0.265822,0.047755,-1.881407,-0.144550,2.255749,-1.236571,0.009116,0.265822,0.047755,-1.881407,-0.144550,2.255749,-1.236571,0.0400,0.060496,0.6436,0.0126,0.2600
0.6300,0.006827,0.310526,0.037912,-1.855593,-0.140999,2.238553,-1.219695,0.009175,0.265600,0.048065,-1.883423,-0.145488,2.257409,-1.239500,0.009175,0.265600,0.048065,-1.883423,-0.145488,2.257409,-1.239500,0.0400,0.060576,0.6433,0.0127,0.2594
0.6320,0.006887,0.310324,0.038206,-1.857501,-0.141934,2.240202,-1.222609,0.009234,0.265378,0.048375,-1.885441,-0.146427,2.259071,-1.242433,0.009234,0.265378,0.048375,-1.885441,-0.146427,2.259071,-1.242433,0.0400,0.060655,0.6430,0.0129,0.2588
0.6340,0.006947,0.310121,0.038500,-1.859413,-0.142870,2.241853,-1.225528,0.009293,0.265155,0.048686,-1.887462,-0.147368,2.260735,-1.245368,0.009293,0.265155,0.048686,-1.887462,-0.147368,2.260735,-1.245368,0.0400,0.060732,0.6427,0.0130,0.2582
0.6360,0.007007,0.309917,0.038795,-1.861328,-0.143807,2.243507,-1.228450,0.009353,0.264933,0.048997,-1.889485,-0.148309,2.262400,-1.248307,0.009353,0.264933,0.048997,-1.889485,-0.148309,2.262400,-1.248307,0.0400,0.060807,0.6424,0.0132,0.2576
0.6380,0.007068,0.309712,0.039090,-1.863247,-0.144745,2.245163,-1.231376,0.009412,0.264710,0.049308,-1.891510,-0.149251,2.264068,-1.251249,0.009412,0.264710,0.049308,-1.891510,-0.149251,2.264068,-1.251249,0.0400,0.060881,0.6421,0.0134,0.2570
0.6400,0.007128,0.309506,0.039386,-1.865169,-0.145684,2.246820,-1.234306,0.009472,0.264487,0.049620,-1.893537,-0.150195,2.265736,-1.254194,0.009472,0.264487,0.049620,-1.893537,-0.150195,2.265736,-1.254194,0.0400,0.060954,0.6417,0.0135,0.2565
0.6420,0.007189,0.309299,0.039683,-1.867095,-0.146625,2.248480,-1.237239,0.009531,0.264264,0.049932,-1.895566,-0.151139,2.267407,-1.257142,0.009531,0.264264,0.049932,-1.895566,-0.151139,2.267407,-1.257142,0.0400,0.061025,0.6414,0.0137,0.2559
0.6440,0.007250,0.309091,0.039981,-1.869024,-0.147567,2.250142,-1.240176,0.009591,0.264040,0.050244,-1.897597,-0.152084,2.269079,-1.260092,0.009591,0.264040,0.050244,-1.897597,-0.152084,2.269079,-1.260092,0.0400,0.061094,0.6411,0.0139,0.2553
0.6460,0.007311,0.308883,0.040279,-1.870957,-0.148510,2.251806,-1.243116,0.009650,0.263817,0.050557,-1.899630,-0.153030,2.270753,-1.263046,0.009650,0.263817,0.050557,-1.899630,-0.153030,2.270753,-1.263046,0.0400,0.061162,0.6408,0.0140,0.2547
0.6480,0.007372,0.308673,0.040578,-1.872892,-0.149453,2.253472,-1.246060,0.009710,0.263593,0.050870,-1.901664,-0.153977,2.272428,-1.266002,0.009710,0.263593,0.050870,-1.901664,-0.153977,2.272428,-1.266002,0.0400,0.061229,0.6404,0.0142,0.2541
0.6500,0.007434,0.308463,0.040877,-1.874831,-0.150398,2.255140,-1.249007,0.009770,0.263369,0.051183,-1.903701,-0.154925,2.274105,-1.268960,0.009770,0.263369,0.051183,-1.903701,-0.154925,2.274105,-1.268960,0.0400,0.061294,0.6401,0.0144,0.2535
0.6520,0.007496,0.308252,0.041177,-1.876773,-0.151344,2.256809,-1.251956,0.009830,0.263144,0.051496,-1.905739,-0.155873,2.275783,-1.271921,0.009830,0.263144,0.051496,-1.905739,-0.155873,2.275783,-1.271921,0.0400,0.061357,0.6398,0.0146,0.2529
0.6540,0.007557,0.308040,0.041478,-1.878719,-0.152291,2.258480,-1.254909,0.009890,0.262920,0.051810,-1.907778,-0.156822,2.277462,-1.274884,0.009890,0.262920,0.051810,-1.907778,-0.156822,2.277462,-1.274884,0.0400,0.061419,0.6395,0.0147,0.2524
0.6560,0.007619,0.307827,0.041779,-1.880667,-0.153239,2.260153,-1.257865,0.009950,0.262695,0.052123,-1.909819,-0.157772,2.279143,-1.277850,0.009950,0.262695,0.052123,-1.909819,-0.157772,2.279143,-1.277850,0.0400,0.061479,0.6391,0.0149,0.2518
0.6580,0.007682,0.307613,0.042081,-1.882618,-0.154187,2.261827,-1.260823,0.010009,0.262471,0.052438,-1.911862,-0.158723,2.280825,-1.280817,0.010009,0.262471,0.052438,-1.911862,-0.158723,2.280825,-1.280817,0.0400,0.061538,0.6388,0.0151,0.2512
0.6600,0.007744,0.307399,0.042383,-1.884572,-0.155137,2.263503,-1.263784,0.010069,0.262246,0.052752,-1.913906,-0.159674,2.282508,-1.283787,0.010069,0.262246,0.052752,-1.913906,-0.159674,2.282508,-1.283787,0.0400,0.061596,0.6385,0.0152,0.2506
0.6620,0.007806,0.307183,0.042686,-1.886529,-0.156087,2.265181,-1.266748,0.010129,0.262021,0.053066,-1.915952,-0.160626,2.284192,-1.286759,0.010129,0.262021,0.053066,-1.915952,-0.160626,2.284192,-1.286759,0.0400,0.061652,0.6381,0.0154,0.2500
0.6640,0.007869,0.306967,0.042990,-1.888489,-0.157039,2.266860,-1.269714,0.010190,0.261795,0.053381,-1.917998,-0.161578,2.285877,-1.289732,0.010190,0.261795,0.053381,-1.917998,-0.161578,2.285877,-1.289732,0.0400,0.061706,0.6378,0.0156,0.2494
0.6660,0.007932,0.306750,0.043294,-1.890452,-0.157991,2.268540,-1.272683,0.010250,0.261570,0.053696,-1.920046,-0.162531,2.287563,-1.292707,0.010250,0.261570,0.053696,-1.920046,-0.162531,2.287563,-1.292707,0.0400,0.061759,0.6374,0.0158,0.2488
0.6680,0.007995,0.306533,0.043599,-1.892417,-0.158943,2.270222,-1.275653,0.010310,0.261345,0.054011,-1.922095,-0.163485,2.289250,-1.295684,0.010310,0.261345,0.054011,-1.922095,-0.163485,2.289250,-1.295684,0.0400,0.061810,0.6371,0.0160,0.2482
0.6700,0.008058,0.306315,0.043904,-1.894385,-0.159897,2.271904,-1.278627,0.010370,0.261119,0.054326,-1.924145,-0.164439,2.290938,-1.298663,0.010370,0.261119,0.054326,-1.924145,-0.164439,2.290938,-1.298663,0.0400,0.061860,0.6367,0.0161,0.2476
0.6720,0.008121,0.306096,0.044210,-1.896356,-0.160851,2.273589,-1.281602,0.010430,0.260893,0.054641,-1.926196,-0.165393,2.292627,-1.301642,0.010430,0.260893,0.054641,-1.926196,-0.165393,2.292627,-1.301642,0.0400,0.061908,0.6364,0.0163,0.2471
0.6740,0.008185,0.305876,0.044516,-1.898329,-0.161806,2.275274,-1.284579,0.010490,0.260668,0.054957,-1.928248,-0.166348,2.294317,-1.304624,0.010490,0.260668,0.054957,-1.928248,-0.166348,2.294317,-1.304624,0.0400,0.061954,0.6361,0.0165,0.2465
0.6760,0.008248,0.305656,0.044822,-1.900305,-0.162761,2.276960,-1.287558,0.010551,0.260442,0.055272,-1.930301,-0.167304,2.296007,-1.307606,0.010551,0.260442,0.055272,-1.930301,-0.167304,2.296007,-1.307606,0.0400,0.061999,0.6357,0.0167,0.2459
0.6780,0.008312,0.305435,0.045130,-1.902283,-0.163718,2.278648,-1.290539,0.010611,0.260216,0.055588,-1.932355,-0.168259,2.297698,-1.310590,0.010611,0.260216,0.055588,-1.932355,-0.168259,2.297698,-1.310590,0.0400,0.062043,0.6353,0.0169,0.2453
0.6800,0.008376,0.305213,0.045437,-1.904264,-0.164674,2.280336,-1.293522,0.010671,0.259990,0.055904,-1.934409,-0.169215,2.299389,-1.313575,0.010671,0.259990,0.055904,-1.934409,-0.169215,2.299389,-1.313575,0.0400,0.062085,0.6350,0.0171,0.2447
0.6820,0.008440,0.304991,0.045745,-1.906246,-0.165631,2.282025,-1.296506,0.010731,0.259764,0.056220,-1.936465,-0.170172,2.301081,-1.316560,0.010731,0.259764,0.056220,-1.936465,-0.170172,2.301081,-1.316560,0.0400,0.062125,0.6346,0.0172,0.2441
0.6840,0.008504,0.304768,0.046054,-1.908232,-0.166589,2.283715,-1.299492,0.010792,0.259537,0.056536,-1.938520,-0.171128,2.302774,-1.319547,0.010792,0.259537,0.056536,-1.938520,-0.171128,2.302774,-1.319547,0.0400,0.062164,0.6343,0.0174,0.2435
0.6860,0.008568,0.304545,0.046363,-1.910219,-0.167547,2.285406,-1.302480,0.010852,0.259311,0.056852,-1.940577,-0.172085,2.304467,-1.322534,0.010852,0.259311,0.056852,-1.940577,-0.172085,2.304467,-1.322534,0.0400,0.062201,0.6339,0.0176,0.2429
0.6880,0.008633,0.304321,0.046673,-1.912208,-0.168506,2.287098,-1.305468,0.010913,0.259085,0.057168,-1.942633,-0.173042,2.306161,-1.325522,0.010913,0.259085,0.057168,-1.942633,-0.173042,2.306161,-1.325522,0.0400,0.062237,0.6336,0.0178,0.2423
0.6900,0.008697,0.304096,0.046983,-1.914200,-0.169465,2.288790,-1.308458,0.010973,0.258858,0.057485,-1.944690,-0.174000,2.307854,-1.328511,0.010973,0.258858,0.057485,-1.944690,-0.174000,2.307854,-1.328511,0.0400,0.062271,0.6332,0.0180,0.2418
0.6920,0.008762,0.303871,0.047293,-1.916193,-0.170425,2.290483,-1.311450,0.011033,0.258632,0.057801,-1.946748,-0.174957,2.309548,-1.331500,0.011033,0.258632,0.057801,-1.946748,-0.174957,2.309548,-1.331500,0.0400,0.062304,0.6328,0.0182,0.2412
0.6940,0.008827,0.303645,0.047604,-1.918189,-0.171384,2.292177,-1.314442,0.011094,0.258406,0.058117,-1.948806,-0.175915,2.311243,-1.334490,0.011094,0.258406,0.058117,-1.948806,-0.175915,2.311243,-1.334490,0.0400,0.062335,0.6325,0.0184,0.2406
0.6960,0.008892,0.303419,0.047915,-1.920186,-0.172345,2.293871,-1.317435,0.011154,0.258179,0.058434,-1.950864,-0.176872,2.312937,-1.337480,0.011154,0.258179,0.058434,-1.950864,-0.176872,2.312937,-1.337480,0.0400,0.062365,0.6321,0.0186,0.2400
0.6980,0.008957,0.303193,0.048226,-1.922186,-0.173305,2.295566,-1.320429,0.011214,0.257953,0.058750,-1.952922,-0.177830,2.314632,-1.340470,0.011214,0.257953,0.058750,-1.952922,-0.177830,2.314632,-1.340470,0.0400,0.062392,0.6317,0.0188,0.2394
0.7000,0.009022,0.302965,0.048538,-1.924187,-0.174266,2.297261,-1.323423,0.011275,0.257726,0.059067,-1.954980,-0.178788,2.316326,-1.343460,0.011275,0.257726,0.059067,-1.954980,-0.178788,2.316326,-1.343460,0.0400,0.062419,0.6313,0.0189,0.2388
0.7020,0.009087,0.302738,0.048851,-1.926190,-0.175227,2.298956,-1.326419,0.011335,0.257500,0.059383,-1.957038,-0.179746,2.318021,-1.346450,0.011335,0.257500,0.059383,-1.957038,-0.179746,2.318021,-1.346450,0.0400,0.062444,0.6310,0.0191,0.2382
0.7040,0.009153,0.302509,0.049163,-1.928194,-0.176188,2.300651,-1.329415,0.011396,0.257273,0.059699,-1.959096,-0.180704,2.319715,-1.349440,0.011396,0.257273,0.059699,-1.959096,-0.180704,2.319715,-1.349440,0.0400,0.062467,0.6306,0.0193,0.2376
0.7060,0.009218,0.302281,0.049476,-1.930200,-0.177149,2.302347,-1.332411,0.011456,0.257047,0.060016,-1.961154,-0.181661,2.321410,-1.352430,0.011456,0.257047,0.060016,-1.961154,-0.181661,2.321410,-1.352430,0.0400,0.062488,0.6302,0.0195,0.2370
0.7080,0.009284,0.302052,0.049790,-1.932208,-0.178111,2.304043,-1.335408,0.011516,0.256820,0.060332,-1.963212,-0.182619,2.323104,-1.355419,0.011516,0.256820,0.060332,-1.963212,-0.182619,2.323104,-1.355419,0.0400,0.062509,0.6298,0.0197,0.2364
0.7100,0.009350,0.301822,0.050103,-1.934217,-0.179072,2.305739,-1.338405,0.011577,0.256594,0.060648,-1.965269,-0.183576,2.324798,-1.358408,0.011577,0.256594,0.060648,-1.965269,-0.183576,2.324798,-1.358408,0.0400,0.062527,0.6295,0.0199,0.2359
0.7120,0.009416,0.301592,0.050417,-1.936228,-0.180034,2.307436,-1.341402,0.011637,0.256368,0.060965,-1.967326,-0.184534,2.326492,-1.361397,0.011637,0.256368,0.060965,-1.967326,-0.184534,2.326492,-1.361397,0.0400,0.062544,0.6291,0.0201,0.2353
0.7140,0.009482,0.301362,0.050732,-1.938240,-0.180996,2.309132,-1.344399,0.011698,0.256141,0.061281,-1.969383,-0.185491,2.328185,-1.364385,0.011698,0.256141,0.061281,-1.969383,-0.185491,2.328185,-1.364385,0.0400,0.062559,0.6287,0.0203,0.2347
0.7160,0.009548,0.301132,0.051046,-1.940254,-0.181957,2.310828,-1.347397,0.011758,0.255915,0.061597,-1.971439,-0.186448,2.329878,-1.367373,0.011758,0.255915,0.061597,-1.971439,-0.186448,2.329878,-1.367373,0.0400,0.062573,0.6283,0.0205,0.2341
0.7180,0.009614,0.300900,0.051361,-1.942268,-0.182919,2.312524,-1.350394,0.011818,0.255689,0.061913,-1.973495,-0.187404,2.331571,-1.370359,0.011818,0.255689,0.061913,-1.973495,-0.187404,2.331571,-1.370359,0.0400,0.062585,0.6279,0.0207,0.2335
0.7200,0.009680,0.300669,0.051676,-1.944284,-0.183881,2.314220,-1.353391,0.011879,0.255463,0.062229,-1.975550,-0.188361,2.333263,-1.373345,0.011879,0.255463,0.062229,-1.975550,-0.188361,2.333263,-1.373345,0.0400,0.062596,0.6275,0.0209,0.2329
0.7220,0.009746,0.300437,0.051992,-1.946301,-0.184842,2.315915,-1.356387,0.011939,0.255237,0.062545,-1.977605,-0.189317,2.334955,-1.376330,0.011939,0.255237,0.062545,-1.977605,-0.189317,2.334955,-1.376330,0.0400,0.062605,0.6271,0.0211,0.2323
0.7240,0.009813,0.300205,0.052307,-1.948319,-0.185804,2.317611,-1.359383,0.011999,0.255011,0.062861,-1.979658,-0.190273,2.336645,-1.379313,0.011999,0.255011,0.062861,-1.979658,-0.190273,2.336645,-1.379313,0.0400,0.062613,0.6267,0.0213,0.2317
0.7260,0.009879,0.299973,0.052623,-1.950338,-0.186765,2.319306,-1.362379,0.012059,0.254785,0.063176,-1.981711,-0.191228,2.338336,-1.382296,0.012059,0.254785,0.063176,-1.981711,-0.191228,2.338336,-1.382296,0.0400,0.062619,0.6263,0.0215,0.2311
0.7280,0.009946,0.299740,0.052939,-1.952359,-0.187726,2.321000,-1.365374,0.012120,0.254559,0.063492,-1.983763,-0.192183,2.340025,-1.385277,0.012120,0.254559,0.063492,-1.983763,-0.192183,2.340025,-1.385277,0.0400,0.062623,0.6260,0.0217,0.2306
0.7300,0.010013,0.299507,0.053256,-1.954380,-0.188687,2.322694,-1.368368,0.012180,0.254333,0.063807,-1.985814,-0.193137,2.341714,-1.388257,0.012180,0.254333,0.063807,-1.985814,-0.193137,2.341714,-1.388257,0.0400,0.062626,0.6256,0.0219,0.2300
0.7320,0.010080,0.299274,0.053572,-1.956401,-0.189648,2.324388,-1.371362,0.012240,0.254108,0.064122,-1.987865,-0.194091,2.343402,-1.391235,0.012240,0.254108,0.064122,-1.987865,-0.194091,2.343402,-1.391235,0.0400,0.062627,0.6252,0.0221,0.2294
0.7340,0.010146,0.299041,0.053889,-1.958424,-0.190608,2.326081,-1.374354,0.012300,0.253882,0.064437,-1.989914,-0.195045,2.345089,-1.394212,0.012300,0.253882,0.064437,-1.989914,-0.195045,2.345089,-1.394212,0.0400,0.062627,0.6248,0.0223,0.2288
0.7360,0.010213,0.298807,0.054206,-1.960447,-0.191568,2.327774,-1.377346,0.012360,0.253657,0.064752,-1.991961,-0.195998,2.346775,-1.397187,0.012360,0.253657,0.064752,-1.991961,-0.195998,2.346775,-1.397187,0.0400,0.062625,0.6244,0.0225,0.2282
0.7380,0.010280,0.298573,0.054523,-1.962471,-0.192528,2.329465,-1.380336,0.012420,0.253432,0.065067,-1.994008,-0.196950,2.348460,-1.400161,0.012420,0.253432,0.065067,-1.994008,-0.196950,2.348460,-1.400161,0.0400,0.062621,0.6239,0.0227,0.2276
0.7400,0.010347,0.298339,0.054841,-1.964496,-0.193488,2.331157,-1.383326,0.012480,0.253207,0.065381,-1.996054,-0.197902,2.350145,-1.403133,0.012480,0.253207,0.065381,-1.996054,-0.197902,2.350145,-1.403133,0.0400,0.062616,0.6235,0.0230,0.2270
0.7420,0.010415,0.298104,0.055158,-1.966521,-0.194447,2.332847,-1.386314,0.012540,0.252982,0.065696,-1.998098,-0.198853,2.351828,-1.406102,0.012540,0.252982,0.065696,-1.998098,-0.198853,2.351828,-1.406102,0.0400,0.062609,0.6231,0.0232,0.2264
0.7440,0.010482,0.297870,0.055476,-1.968547,-0.195405,2.334536,-1.389300,0.012600,0.252757,0.066010,-2.000140,-0.199804,2.353509,-1.409070,0.012600,0.252757,0.066010,-2.000140,-0.199804,2.353509,-1.409070,0.0400,0.062601,0.6227,0.0234,0.2259
0.7460,0.010549,0.297635,0.055793,-1.970573,-0.196363,2.336225,-1.392285,0.012660,0.252533,0.066323,-2.002181,-0.200754,2.355190,-1.412035,0.012660,0.252533,0.066323,-2.002181,-0.200754,2.355190,-1.412035,0.0400,0.062592,0.6223,0.0236,0.2253
0.7480,0.010616,0.297400,0.056111,-1.972599,-0.197321,2.337912,-1.395269,0.012720,0.252308,0.066637,-2.004221,-0.201703,2.356869,-1.414999,0.012720,0.252308,0.066637,-2.004221,-0.201703,2.356869,-1.414999,0.0400,0.062580,0.6219,0.0238,0.2247
0.7500,0.010684,0.297165,0.056429,-1.974626,-0.198278,2.339599,-1.398251,0.012780,0.252084,0.066950,-2.006259,-0.202652,2.358547,-1.417959,0.012780,0.252084,0.066950,-2.006259,-0.202652,2.358547,-1.417959,0.0400,0.062567,0.6215,0.0240,0.2241
0.7520,0.010751,0.296930,0.056747,-1.976653,-0.199235,2.341285,-1.401231,0.012840,0.251860,0.067263,-2.008295,-0.203599,2.360224,-1.420918,0.012840,0.251860,0.067263,-2.008295,-0.203599,2.360224,-1.420918,0.0400,0.062553,0.6211,0.0242,0.2235
0.7540,0.010819,0.296694,0.057065,-1.978680,-0.200191,2.342969,-1.404209,0.012899,0.251636,0.067576,-2.010330,-0.204546,2.361899,-1.423874,0.012899,0.251636,0.067576,-2.010330,-0.204546,2.361899,-1.423874,0.0400,0.062537,0.6207,0.0244,0.2229
0.7560,0.010886,0.296459,0.057383,-1.980707,-0.201146,2.344652,-1.407185,0.012959,0.251412,0.067889,-2.012363,-0.205492,2.363573,-1.426827,0.012959,0.251412,0.067889,-2.012363,-0.205492,2.363573,-1.426827,0.0400,0.062519,0.6202,0.0246,0.2223
0.7580,0.010954,0.296223,0.057702,-1.982734,-0.202101,2.346334,-1.410159,0.013018,0.251189,0.068201,-2.014394,-0.206437,2.365245,-1.429778,0.013018,0.251189,0.068201,-2.014394,-0.206437,2.365245,-1.429778,0.0400,0.062500,0.6198,0.0248,0.2218
0.7600,0.011021,0.295987,0.058020,-1.984761,-0.203055,2.348015,-1.413131,0.013078,0.250965,0.068513,-2.016423,-0.207381,2.366916,-1.432726,0.013078,0.250965,0.068513,-2.016423,-0.207381,2.366916,-1.432726,0.0400,0.062479,0.6194,0.0251,0.2212
0.7620,0.011089,0.295751,0.058338,-1.986789,-0.204009,2.349694,-1.416100,0.013138,0.250742,0.068825,-2.018450,-0.208325,2.368585,-1.435671,0.013138,0.250742,0.068825,-2.018450,-0.208325,2.368585,-1.435671,0.0400,0.062457,0.6190,0.0253,0.2206
0.7640,0.011157,0.295515,0.058657,-1.988815,-0.204961,2.351372,-1.419068,0.013197,0.250520,0.069136,-2.020475,-0.209267,2.370252,-1.438612,0.013197,0.250520,0.069136,-2.020475,-0.209267,2.370252,-1.438612,0.0400,0.062433,0.6185,0.0255,0.2200
0.7660,0.011224,0.295279,0.058975,-1.990842,-0.205913,2.353049,-1.422032,0.013256,0.250297,0.069447,-2.022498,-0.210208,2.371918,-1.441551,0.013256,0.250297,0.069447,-2.022498,-0.210208,2.371918,-1.441551,0.0400,0.062408,0.6181,0.0257,0.2194
0.7680,0.011292,0.295043,0.059294,-1.992869,-0.206864,2.354724,-1.424995,0.013316,0.250075,0.069758,-2.024518,-0.211149,2.373581,-1.444487,0.013316,0.250075,0.069758,-2.024518,-0.211149,2.373581,-1.444487,0.0400,0.062381,0.6177,0.0259,0.2189
0.7700,0.011360,0.294807,0.059612,-1.994895,-0.207814,2.356398,-1.427954,0.013375,0.249853,0.070068,-2.026537,-0.212088,2.375243,-1.447419,0.013375,0.249853,0.070068,-2.026537,-0.212088,2.375243,-1.447419,0.0400,0.062352,0.6173,0.0261,0.2183
0.7720,0.011427,0.294571,0.059930,-1.996920,-0.208764,2.358070,-1.430911,0.013434,0.249631,0.070378,-2.028553,-0.213026,2.376903,-1.450348,0.013434,0.249631,0.070378,-2.028553,-0.213026,2.376903,-1.450348,0.0400,0.062322,0.6168,0.0263,0.2177
0.7740,0.011495,0.294335,0.060249,-1.998946,-0.209712,2.359740,-1.433865,0.013493,0.249409,0.070687,-2.030566,-0.213963,2.378561,-1.453273,0.013493,0.249409,0.070687,-2.030566,-0.213963,2.378561,-1.453273,0.0400,0.062291,0.6164,0.0265,0.2171
0.7760,0.011563,0.294098,0.060567,-2.000970,-0.210660,2.361408,-1.436816,0.013552,0.249188,0.070997,-2.032578,-0.214899,2.380217,-1.456195,0.013552,0.249188,0.070997,-2.032578,-0.214899,2.380217,-1.456195,0.0400,0.062258,0.6160,0.0268,0.2165
0.7780,0.011631,0.293862,0.060885,-2.002994,-0.211607,2.363075,-1.439764,0.013611,0.248967,0.071305,-2.034586,-0.215834,2.381871,-1.459114,0.013611,0.248967,0.071305,-2.034586,-0.215834,2.381871,-1.459114,0.0400,0.062223,0.6155,0.0270,0.2160
0.7800,0.011699,0.293626,0.061203,-2.005018,-0.212552,2.364740,-1.442709,0.013670,0.248746,0.071614,-2.036592,-0.216767,2.383522,-1.462028,0.013670,0.248746,0.071614,-2.036592,-0.216767,2.383522,-1.462028,0.0400,0.062187,0.6151,0.0272,0.2154
0.7820,0.011766,0.293390,0.061522,-2.007040,-0.213497,2.366403,-1.445650,0.013729,0.248526,0.071922,-2.038596,-0.217700,2.385172,-1.464939,0.013729,0.248526,0.071922,-2.038596,-0.217700,2.385172,-1.464939,0.0400,0.062149,0.6147,0.0274,0.2148
0.7840,0.011834,0.293153,0.061840,-2.009062,-0.214441,2.368064,-1.448589,0.013787,0.248306,0.072230,-2.040596,-0.218631,2.386819,-1.467845,0.013787,0.248306,0.072230,-2.040596,-0.218631,2.386819,-1.467845,0.0400,0.062110,0.6142,0.0276,0.2142
0.7860,0.011902,0.292917,0.062158,-2.011083,-0.215383,2.369724,-1.451524,0.013846,0.248086,0.072537,-2.042594,-0.219561,2.388464,-1.470748,0.013846,0.248086,0.072537,-2.042594,-0.219561,2.388464,-1.470748,0.0400,0.062069,0.6138,0.0278,0.2136
0.7880,0.011970,0.292681,0.062475,-2.013103,-0.216324,2.371381,-1.454455,0.013905,0.247866,0.072843,-2.044589,-0.220489,2.390107,-1.473646,0.013905,0.247866,0.072843,-2.044589,-0.220489,2.390107,-1.473646,0.0400,0.062027,0.6133,0.0281,0.2131
0.7900,0.012038,0.292445,0.062793,-2.015122,-0.217265,2.373036,-1.457383,0.013963,0.247647,0.073150,-2.046581,-0.221416,2.391747,-1.476541,0.013963,0.247647,0.073150,-2.046581,-0.221416,2.391747,-1.476541,0.0400,0.061983,0.6129,0.0283,0.2125
0.7920,0.012105,0.292208,0.063111,-2.017140,-0.218204,2.374689,-1.460307,0.014021,0.247428,0.073455,-2.048571,-0.222342,2.393385,-1.479431,0.014021,0.247428,0.073455,-2.048571,-0.222342,2.393385,-1.479431,0.0400,0.061937,0.6124,0.0285,0.2119
0.7940,0.012173,0.291972,0.063428,-2.019157,-0.219142,2.376339,-1.463227,0.014080,0.247210,0.073761,-2.050557,-0.223266,2.395020,-1.482316,0.014080,0.247210,0.073761,-2.050557,-0.223266,2.395020,-1.482316,0.0400,0.061890,0.6120,0.0287,0.2114
0.7960,0.012241,0.291736,0.063746,-2.021173,-0.220078,2.377988,-1.466143,0.014138,0.246991,0.074066,-2.052540,-0.224189,2.396653,-1.485197,0.014138,0.246991,0.074066,-2.052540,-0.224189,2.396653,-1.485197,0.0400,0.061842,0.6116,0.0289,0.2108
0.7980,0.012309,0.291500,0.064063,-2.023187,-0.221014,2.379634,-1.469056,0.014196,0.246774,0.074370,-2.054520,-0.225110,2.398283,-1.488073,0.014196,0.246774,0.074370,-2.054520,-0.225110,2.398283,-1.488073,0.0400,0.061792,0.6111,0.0292,0.2102
0.8000,0.012376,0.291264,0.064380,-2.025201,-0.221948,2.381278,-1.471964,0.014254,0.246556,0.074674,-2.056496,-0.226030,2.399911,-1.490945,0.014254,0.246556,0.074674,-2.056496,-0.226030,2.399911,-1.490945,0.0400,0.061741,0.6107,0.0294,0.2096
0.8020,0.012444,0.291029,0.064696,-2.027212,-0.222881,2.382920,-1.474868,0.014312,0.246339,0.074977,-2.058470,-0.226948,2.401535,-1.493812,0.014312,0.246339,0.074977,-2.058470,-0.226948,2.401535,-1.493812,0.0400,0.061688,0.6102,0.0296,0.2091
0.8040,0.012512,0.290793,0.065013,-2.029223,-0.223812,2.384559,-1.477768,0.014370,0.246122,0.075280,-2.060440,-0.227865,2.403157,-1.496674,0.014370,0.246122,0.075280,-2.060440,-0.227865,2.403157,-1.496674,0.0400,0.061633,0.6098,0.0298,0.2085
0.8060,0.012579,0.290557,0.065329,-2.031232,-0.224742,2.386195,-1.480663,0.014428,0.245906,0.075583,-2.062406,-0.228780,2.404777,-1.499531,0.014428,0.245906,0.075583,-2.062406,-0.228780,2.404777,-1.499531,0.0400,0.061577,0.6093,0.0300,0.2079
0.8080,0.012647,0.290322,0.065646,-2.033239,-0.225671,2.387829,-1.483554,0.014485,0.245690,0.075884,-2.064369,-0.229694,2.406393,-1.502383,0.014485,0.245690,0.075884,-2.064369,-0.229694,2.406393,-1.502383,0.0400,0.061520,0.6089,0.0303,0.2074
0.8100,0.012714,0.290086,0.065962,-2.035245,-0.226598,2.389460,-1.486441,0.014543,0.245474,0.076186,-2.066329,-0.230606,2.408006,-1.505230,0.014543,0.245474,0.076186,-2.066329,-0.230606,2.408006,-1.505230,0.0400,0.061461,0.6084,0.0305,0.2068
0.8120,0.012782,0.289851,0.066277,-2.037248,-0.227524,2.391089,-1.489322,0.014600,0.245259,0.076486,-2.068285,-0.231516,2.409617,-1.508072,0.014600,0.245259,0.076486,-2.068285,-0.231516,2.409617,-1.508072,0.0400,0.061400,0.6079,0.0307,0.2062
0.8140,0.012849,0.289616,0.066593,-2.039251,-0.228448,2.392715,-1.492199,0.014657,0.245044,0.076787,-2.070237,-0.232425,2.411224,-1.510908,0.014657,0.245044,0.076787,-2.070237,-0.232425,2.411224,-1.510908,0.0400,0.061339,0.6075,0.0309,0.2057
0.8160,0.012917,0.289381,0.066908,-2.041251,-0.229371,2.394338,-1.495072,0.014715,0.244830,0.077086,-2.072186,-0.233331,2.412829,-1.513739,0.014715,0.244830,0.077086,-2.072186,-0.233331,2.412829,-1.513739,0.0400,0.061275,0.6070,0.0311,0.2051
