alvinuday/Neuromorphic-Robot-Control/arm_mpc_log.csv
t_sim,q1,q2,q3,q4,q5,q6,q7,q1_ref,q2_ref,q3_ref,q4_ref,q5_ref,q6_ref,q7_ref,tau1,tau2,tau3,tau4,tau5,tau6,tau7,gripper_cmd,tracking_error,ee_x,ee_y,ee_z
0.0000,0.000000,0.300000,0.000000,-1.570790,0.000000,2.000000,-0.785300,0.000000,0.300000,0.000000,-1.570790,0.000000,2.000000,-0.785300,0.000000,0.300000,0.000000,-1.570790,0.000000,2.000000,-0.785300,0.0400,0.000000,0.6778,0.0000,0.3783
0.0020,0.000001,0.300036,-0.000001,-1.570827,-0.000005,2.000011,-0.785300,0.000000,0.300000,0.000000,-1.570790,-0.000000,2.000000,-0.785300,0.000000,0.300000,0.000000,-1.570790,-0.000000,2.000000,-0.785300,0.0400,0.000053,0.6778,0.0000,0.3783
0.0040,0.000003,0.300108,-0.000003,-1.570898,-0.000015,2.000028,-0.785300,0.000000,0.300000,0.000000,-1.570790,-0.000000,2.000000,-0.785300,0.000000,0.300000,0.000000,-1.570790,-0.000000,2.000000,-0.785300,0.0400,0.000156,0.6778,-0.0000,0.3782
0.0060,0.000006,0.300214,-0.000005,-1.571000,-0.000030,2.000049,-0.785300,0.000000,0.300000,0.000000,-1.570791,-0.000000,2.000000,-0.785301,0.000000,0.300000,0.000000,-1.570791,-0.000000,2.000000,-0.785301,0.0400,0.000305,0.6778,-0.0000,0.3782
0.0080,0.000008,0.300355,-0.000006,-1.571132,-0.000051,2.000070,-0.785301,0.000000,0.300000,0.000000,-1.570791,-0.000001,2.000001,-0.785302,0.000000,0.300000,0.000000,-1.570791,-0.000001,2.000001,-0.785302,0.0400,0.000500,0.6778,-0.0000,0.3780
0.0100,0.000011,0.300530,-0.000008,-1.571291,-0.000078,2.000088,-0.785301,0.000000,0.300000,0.000000,-1.570793,-0.000001,2.000002,-0.785304,0.000000,0.300000,0.000000,-1.570793,-0.000001,2.000002,-0.785304,0.0400,0.000737,0.6778,-0.0000,0.3779
0.0120,0.000015,0.300737,-0.000010,-1.571476,-0.000110,2.000101,-0.785301,0.000000,0.299999,0.000001,-1.570795,-0.000002,2.000004,-0.785307,0.000000,0.299999,0.000001,-1.570795,-0.000002,2.000004,-0.785307,0.0400,0.001015,0.6778,-0.0000,0.3777
0.0140,0.000018,0.300976,-0.000012,-1.571686,-0.000147,2.000107,-0.785301,0.000000,0.299999,0.000001,-1.570798,-0.000003,2.000006,-0.785311,0.000000,0.299999,0.000001,-1.570798,-0.000003,2.000006,-0.785311,0.0400,0.001332,0.6777,-0.0000,0.3775
0.0160,0.000022,0.301246,-0.000014,-1.571918,-0.000189,2.000103,-0.785302,0.000000,0.299998,0.000002,-1.570801,-0.000005,2.000009,-0.785317,0.000000,0.299998,0.000002,-1.570801,-0.000005,2.000009,-0.785317,0.0400,0.001687,0.6777,-0.0000,0.3772
0.0180,0.000025,0.301545,-0.000016,-1.572171,-0.000236,2.000088,-0.785303,0.000000,0.299998,0.000003,-1.570806,-0.000007,2.000013,-0.785324,0.000000,0.299998,0.000003,-1.570806,-0.000007,2.000013,-0.785324,0.0400,0.002078,0.6777,-0.0000,0.3769
0.0200,0.000029,0.301873,-0.000017,-1.572445,-0.000288,2.000060,-0.785304,0.000001,0.299997,0.000003,-1.570812,-0.000010,2.000017,-0.785332,0.000001,0.299997,0.000003,-1.570812,-0.000010,2.000017,-0.785332,0.0400,0.002504,0.6776,-0.0000,0.3766
0.0220,0.000033,0.302228,-0.000019,-1.572738,-0.000345,2.000018,-0.785305,0.000001,0.299996,0.000005,-1.570819,-0.000013,2.000023,-0.785343,0.000001,0.299996,0.000005,-1.570819,-0.000013,2.000023,-0.785343,0.0400,0.002963,0.6775,-0.0000,0.3762
0.0240,0.000037,0.302610,-0.000021,-1.573050,-0.000405,1.999961,-0.785307,0.000001,0.299995,0.000006,-1.570828,-0.000017,2.000030,-0.785356,0.000001,0.299995,0.000006,-1.570828,-0.000017,2.000030,-0.785356,0.0400,0.003455,0.6775,-0.0000,0.3758
0.0260,0.000041,0.303016,-0.000022,-1.573379,-0.000469,1.999888,-0.785309,0.000001,0.299993,0.000008,-1.570838,-0.000021,2.000038,-0.785371,0.000001,0.299993,0.000008,-1.570838,-0.000021,2.000038,-0.785371,0.0400,0.003978,0.6774,-0.0001,0.3754
0.0280,0.000045,0.303447,-0.000024,-1.573724,-0.000536,1.999799,-0.785311,0.000002,0.299991,0.000010,-1.570850,-0.000026,2.000047,-0.785388,0.000002,0.299991,0.000010,-1.570850,-0.000026,2.000047,-0.785388,0.0400,0.004531,0.6773,-0.0001,0.3749
0.0300,0.000049,0.303900,-0.000025,-1.574085,-0.000607,1.999693,-0.785315,0.000002,0.299989,0.000012,-1.570863,-0.000032,2.000058,-0.785408,0.000002,0.299989,0.000012,-1.570863,-0.000032,2.000058,-0.785408,0.0400,0.005114,0.6773,-0.0001,0.3744
0.0320,0.000053,0.304375,-0.000027,-1.574462,-0.000680,1.999570,-0.785319,0.000002,0.299987,0.000014,-1.570879,-0.000039,2.000070,-0.785431,0.000002,0.299987,0.000014,-1.570879,-0.000039,2.000070,-0.785431,0.0400,0.005724,0.6772,-0.0001,0.3739
0.0340,0.000057,0.304870,-0.000029,-1.574852,-0.000755,1.999431,-0.785324,0.000003,0.299985,0.000017,-1.570896,-0.000047,2.000084,-0.785457,0.000003,0.299985,0.000017,-1.570896,-0.000047,2.000084,-0.785457,0.0400,0.006362,0.6771,-0.0001,0.3734
0.0360,0.000060,0.305386,-0.000030,-1.575256,-0.000831,1.999275,-0.785331,0.000004,0.299982,0.000020,-1.570916,-0.000055,2.000099,-0.785485,0.000004,0.299982,0.000020,-1.570916,-0.000055,2.000099,-0.785485,0.0400,0.007025,0.6770,-0.0001,0.3729
0.0380,0.000064,0.305919,-0.000032,-1.575673,-0.000910,1.999103,-0.785338,0.000004,0.299979,0.000024,-1.570937,-0.000065,2.000116,-0.785518,0.000004,0.299979,0.000024,-1.570937,-0.000065,2.000116,-0.785518,0.0400,0.007713,0.6769,-0.0001,0.3723
0.0400,0.000068,0.306470,-0.000034,-1.576103,-0.000989,1.998915,-0.785347,0.000005,0.299975,0.000027,-1.570961,-0.000075,2.000136,-0.785553,0.000005,0.299975,0.000027,-1.570961,-0.000075,2.000136,-0.785553,0.0400,0.008425,0.6768,-0.0001,0.3717
0.0420,0.000072,0.307037,-0.000036,-1.576544,-0.001069,1.998712,-0.785358,0.000006,0.299971,0.000032,-1.570988,-0.000087,2.000157,-0.785593,0.000006,0.299971,0.000032,-1.570988,-0.000087,2.000157,-0.785593,0.0400,0.009160,0.6766,-0.0001,0.3711
0.0440,0.000075,0.307619,-0.000038,-1.576996,-0.001149,1.998496,-0.785370,0.000006,0.299967,0.000036,-1.571017,-0.000100,2.000180,-0.785636,0.000006,0.299967,0.000036,-1.571017,-0.000100,2.000180,-0.785636,0.0400,0.009915,0.6765,-0.0001,0.3705
0.0460,0.000079,0.308216,-0.000040,-1.577458,-0.001229,1.998266,-0.785385,0.000007,0.299963,0.000041,-1.571049,-0.000114,2.000205,-0.785683,0.000007,0.299963,0.000041,-1.571049,-0.000114,2.000205,-0.785683,0.0400,0.010691,0.6764,-0.0002,0.3698
0.0480,0.000082,0.308826,-0.000042,-1.577930,-0.001309,1.998024,-0.785402,0.000008,0.299958,0.000047,-1.571084,-0.000129,2.000232,-0.785734,0.000008,0.299958,0.000047,-1.571084,-0.000129,2.000232,-0.785734,0.0400,0.011485,0.6763,-0.0002,0.3692
0.0500,0.000085,0.309447,-0.000044,-1.578412,-0.001389,1.997770,-0.785421,0.000009,0.299952,0.000053,-1.571121,-0.000146,2.000262,-0.785789,0.000009,0.299952,0.000053,-1.571121,-0.000146,2.000262,-0.785789,0.0400,0.012297,0.6761,-0.0002,0.3685
0.0520,0.000088,0.310081,-0.000046,-1.578902,-0.001468,1.997508,-0.785443,0.000010,0.299946,0.000059,-1.571162,-0.000164,2.000294,-0.785849,0.000010,0.299946,0.000059,-1.571162,-0.000164,2.000294,-0.785849,0.0400,0.013125,0.6760,-0.0002,0.3678
0.0540,0.000091,0.310724,-0.000048,-1.579401,-0.001545,1.997236,-0.785467,0.000012,0.299940,0.000066,-1.571205,-0.000183,2.000328,-0.785914,0.000012,0.299940,0.000066,-1.571205,-0.000183,2.000328,-0.785914,0.0400,0.013968,0.6758,-0.0002,0.3671
0.0560,0.000093,0.311377,-0.000050,-1.579907,-0.001621,1.996958,-0.785495,0.000013,0.299933,0.000074,-1.571252,-0.000204,2.000366,-0.785983,0.000013,0.299933,0.000074,-1.571252,-0.000204,2.000366,-0.785983,0.0400,0.014824,0.6757,-0.0002,0.3664
0.0580,0.000096,0.312039,-0.000052,-1.580421,-0.001696,1.996673,-0.785526,0.000014,0.299926,0.000082,-1.571302,-0.000226,2.000405,-0.786057,0.000014,0.299926,0.000082,-1.571302,-0.000226,2.000405,-0.786057,0.0400,0.015693,0.6755,-0.0002,0.3657
0.0600,0.000098,0.312708,-0.000055,-1.580941,-0.001770,1.996384,-0.785560,0.000016,0.299918,0.000090,-1.571356,-0.000249,2.000448,-0.786136,0.000016,0.299918,0.000090,-1.571356,-0.000249,2.000448,-0.786136,0.0400,0.016572,0.6754,-0.0002,0.3649
0.0620,0.000100,0.313383,-0.000057,-1.581467,-0.001842,1.996092,-0.785599,0.000018,0.299910,0.000099,-1.571413,-0.000274,2.000493,-0.786221,0.000018,0.299910,0.000099,-1.571413,-0.000274,2.000493,-0.786221,0.0400,0.017460,0.6752,-0.0002,0.3642
0.0640,0.000102,0.314065,-0.000059,-1.581999,-0.001912,1.995798,-0.785641,0.000019,0.299901,0.000109,-1.571474,-0.000301,2.000541,-0.786310,0.000019,0.299901,0.000109,-1.571474,-0.000301,2.000541,-0.786310,0.0400,0.018357,0.6750,-0.0003,0.3634
0.0660,0.000103,0.314752,-0.000062,-1.582536,-0.001980,1.995504,-0.785687,0.000021,0.299892,0.000119,-1.571538,-0.000330,2.000592,-0.786406,0.000021,0.299892,0.000119,-1.571538,-0.000330,2.000592,-0.786406,0.0400,0.019260,0.6749,-0.0003,0.3627
0.0680,0.000104,0.315443,-0.000064,-1.583078,-0.002046,1.995211,-0.785738,0.000023,0.299882,0.000130,-1.571607,-0.000360,2.000646,-0.786506,0.000023,0.299882,0.000130,-1.571607,-0.000360,2.000646,-0.786506,0.0400,0.020168,0.6747,-0.0003,0.3619
0.0700,0.000106,0.316138,-0.000067,-1.583624,-0.002111,1.994920,-0.785793,0.000025,0.299871,0.000142,-1.571679,-0.000391,2.000703,-0.786613,0.000025,0.299871,0.000142,-1.571679,-0.000391,2.000703,-0.786613,0.0400,0.021081,0.6745,-0.0003,0.3611
0.0720,0.000106,0.316835,-0.000069,-1.584173,-0.002174,1.994633,-0.785853,0.000027,0.299860,0.000154,-1.571755,-0.000425,2.000763,-0.786726,0.000027,0.299860,0.000154,-1.571755,-0.000425,2.000763,-0.786726,0.0400,0.021996,0.6743,-0.0003,0.3604
0.0740,0.000107,0.317535,-0.000071,-1.584726,-0.002235,1.994350,-0.785918,0.000029,0.299849,0.000167,-1.571835,-0.000460,2.000827,-0.786844,0.000029,0.299849,0.000167,-1.571835,-0.000460,2.000827,-0.786844,0.0400,0.022912,0.6742,-0.0003,0.3596
0.0760,0.000107,0.318235,-0.000074,-1.585282,-0.002295,1.994074,-0.785988,0.000032,0.299837,0.000180,-1.571920,-0.000498,2.000894,-0.786969,0.000032,0.299837,0.000180,-1.571920,-0.000498,2.000894,-0.786969,0.0400,0.023829,0.6740,-0.0003,0.3588
0.0780,0.000108,0.318937,-0.000076,-1.585840,-0.002353,1.993805,-0.786064,0.000034,0.299824,0.000195,-1.572009,-0.000537,2.000964,-0.787101,0.000034,0.299824,0.000195,-1.572009,-0.000537,2.000964,-0.787101,0.0400,0.024745,0.6738,-0.0003,0.3580
0.0800,0.000107,0.319638,-0.000078,-1.586400,-0.002409,1.993544,-0.786145,0.000037,0.299810,0.000209,-1.572102,-0.000578,2.001038,-0.787238,0.000037,0.299810,0.000209,-1.572102,-0.000578,2.001038,-0.787238,0.0400,0.025658,0.6736,-0.0003,0.3573
0.0820,0.000107,0.320338,-0.000080,-1.586961,-0.002465,1.993293,-0.786232,0.000040,0.299796,0.000225,-1.572200,-0.000621,2.001115,-0.787383,0.000040,0.299796,0.000225,-1.572200,-0.000621,2.001115,-0.787383,0.0400,0.026568,0.6735,-0.0004,0.3565
0.0840,0.000107,0.321037,-0.000082,-1.587524,-0.002519,1.993053,-0.786326,0.000042,0.299781,0.000241,-1.572302,-0.000666,2.001196,-0.787534,0.000042,0.299781,0.000241,-1.572302,-0.000666,2.001196,-0.787534,0.0400,0.027474,0.6733,-0.0004,0.3557
0.0860,0.000106,0.321734,-0.000084,-1.588087,-0.002572,1.992823,-0.786425,0.000045,0.299766,0.000258,-1.572409,-0.000713,2.001280,-0.787692,0.000045,0.299766,0.000258,-1.572409,-0.000713,2.001280,-0.787692,0.0400,0.028374,0.6731,-0.0004,0.3549
0.0880,0.000105,0.322428,-0.000086,-1.588651,-0.002624,1.992606,-0.786530,0.000049,0.299750,0.000276,-1.572521,-0.000762,2.001369,-0.787857,0.000049,0.299750,0.000276,-1.572521,-0.000762,2.001369,-0.787857,0.0400,0.029268,0.6729,-0.0004,0.3542
0.0900,0.000103,0.323119,-0.000088,-1.589214,-0.002676,1.992401,-0.786643,0.000052,0.299733,0.000295,-1.572637,-0.000813,2.001461,-0.788029,0.000052,0.299733,0.000295,-1.572637,-0.000813,2.001461,-0.788029,0.0400,0.030155,0.6728,-0.0004,0.3534
0.0920,0.000102,0.323806,-0.000089,-1.589777,-0.002728,1.992210,-0.786761,0.000055,0.299715,0.000314,-1.572759,-0.000867,2.001557,-0.788209,0.000055,0.299715,0.000314,-1.572759,-0.000867,2.001557,-0.788209,0.0400,0.031033,0.6726,-0.0004,0.3526
0.0940,0.000100,0.324488,-0.000091,-1.590339,-0.002779,1.992033,-0.786887,0.000059,0.299697,0.000334,-1.572885,-0.000923,2.001657,-0.788396,0.000059,0.299697,0.000334,-1.572885,-0.000923,2.001657,-0.788396,0.0400,0.031903,0.6724,-0.0004,0.3519
0.0960,0.000098,0.325166,-0.000092,-1.590900,-0.002830,1.991870,-0.787020,0.000063,0.299678,0.000355,-1.573017,-0.000981,2.001761,-0.788590,0.000063,0.299678,0.000355,-1.573017,-0.000981,2.001761,-0.788590,0.0400,0.032762,0.6723,-0.0004,0.3511
0.0980,0.000096,0.325838,-0.000093,-1.591459,-0.002882,1.991723,-0.787160,0.000066,0.299658,0.000377,-1.573154,-0.001041,2.001869,-0.788792,0.000066,0.299658,0.000377,-1.573154,-0.001041,2.001869,-0.788792,0.0400,0.033611,0.6721,-0.0004,0.3504
0.1000,0.000094,0.326504,-0.000094,-1.592016,-0.002934,1.991590,-0.787307,0.000070,0.299637,0.000400,-1.573296,-0.001103,2.001982,-0.789002,0.000070,0.299637,0.000400,-1.573296,-0.001103,2.001982,-0.789002,0.0400,0.034448,0.6719,-0.0004,0.3496
0.1020,0.000091,0.327163,-0.000094,-1.592572,-0.002986,1.991474,-0.787462,0.000075,0.299616,0.000423,-1.573443,-0.001168,2.002098,-0.789220,0.000075,0.299616,0.000423,-1.573443,-0.001168,2.002098,-0.789220,0.0400,0.035274,0.6718,-0.0005,0.3489
0.1040,0.000089,0.327815,-0.000095,-1.593124,-0.003040,1.991373,-0.787624,0.000079,0.299594,0.000448,-1.573596,-0.001236,2.002219,-0.789445,0.000079,0.299594,0.000448,-1.573596,-0.001236,2.002219,-0.789445,0.0400,0.036087,0.6716,-0.0005,0.3482
0.1060,0.000086,0.328460,-0.000095,-1.593674,-0.003094,1.991289,-0.787794,0.000083,0.299571,0.000473,-1.573754,-0.001305,2.002344,-0.789679,0.000083,0.299571,0.000473,-1.573754,-0.001305,2.002344,-0.789679,0.0400,0.036887,0.6715,-0.0005,0.3474
0.1080,0.000083,0.329097,-0.000094,-1.594221,-0.003150,1.991221,-0.787971,0.000088,0.299547,0.000499,-1.573918,-0.001377,2.002474,-0.789921,0.000088,0.299547,0.000499,-1.573918,-0.001377,2.002474,-0.789921,0.0400,0.037673,0.6713,-0.0005,0.3467
0.1100,0.000079,0.329725,-0.000094,-1.594764,-0.003207,1.991168,-0.788157,0.000093,0.299523,0.000526,-1.574088,-0.001452,2.002608,-0.790172,0.000093,0.299523,0.000526,-1.574088,-0.001452,2.002608,-0.790172,0.0400,0.038446,0.6712,-0.0005,0.3460
0.1120,0.000076,0.330345,-0.000093,-1.595304,-0.003266,1.991132,-0.788351,0.000098,0.299497,0.000554,-1.574263,-0.001529,2.002747,-0.790431,0.000098,0.299497,0.000554,-1.574263,-0.001529,2.002747,-0.790431,0.0400,0.039204,0.6710,-0.0005,0.3453
0.1140,0.000072,0.330955,-0.000091,-1.595841,-0.003327,1.991112,-0.788553,0.000103,0.299471,0.000583,-1.574444,-0.001609,2.002890,-0.790698,0.000103,0.299471,0.000583,-1.574444,-0.001609,2.002890,-0.790698,0.0400,0.039947,0.6709,-0.0005,0.3447
0.1160,0.000068,0.331556,-0.000090,-1.596373,-0.003390,1.991108,-0.788763,0.000108,0.299444,0.000613,-1.574631,-0.001691,2.003038,-0.790975,0.000108,0.299444,0.000613,-1.574631,-0.001691,2.003038,-0.790975,0.0400,0.040675,0.6707,-0.0005,0.3440
0.1180,0.000065,0.332147,-0.000088,-1.596901,-0.003454,1.991120,-0.788981,0.000113,0.299416,0.000644,-1.574824,-0.001776,2.003190,-0.791260,0.000113,0.299416,0.000644,-1.574824,-0.001776,2.003190,-0.791260,0.0400,0.041387,0.6706,-0.0005,0.3433
0.1200,0.000060,0.332727,-0.000085,-1.597424,-0.003522,1.991147,-0.789208,0.000119,0.299388,0.000676,-1.575023,-0.001864,2.003348,-0.791554,0.000119,0.299388,0.000676,-1.575023,-0.001864,2.003348,-0.791554,0.0400,0.042084,0.6705,-0.0006,0.3427
0.1220,0.000056,0.333297,-0.000082,-1.597943,-0.003591,1.991189,-0.789444,0.000125,0.299358,0.000708,-1.575228,-0.001954,2.003510,-0.791856,0.000125,0.299358,0.000708,-1.575228,-0.001954,2.003510,-0.791856,0.0400,0.042764,0.6703,-0.0006,0.3420
0.1240,0.000052,0.333856,-0.000079,-1.598458,-0.003664,1.991246,-0.789689,0.000131,0.299327,0.000742,-1.575440,-0.002047,2.003677,-0.792169,0.000131,0.299327,0.000742,-1.575440,-0.002047,2.003677,-0.792169,0.0400,0.043429,0.6702,-0.0006,0.3414
0.1260,0.000048,0.334404,-0.000075,-1.598967,-0.003739,1.991318,-0.789942,0.000137,0.299296,0.000777,-1.575657,-0.002143,2.003849,-0.792490,0.000137,0.299296,0.000777,-1.575657,-0.002143,2.003849,-0.792490,0.0400,0.044076,0.6701,-0.0006,0.3408
0.1280,0.000043,0.334940,-0.000071,-1.599472,-0.003816,1.991404,-0.790204,0.000143,0.299263,0.000812,-1.575881,-0.002242,2.004026,-0.792820,0.000143,0.299263,0.000812,-1.575881,-0.002242,2.004026,-0.792820,0.0400,0.044708,0.6700,-0.0006,0.3402
0.1300,0.000038,0.335464,-0.000066,-1.599972,-0.003897,1.991504,-0.790475,0.000149,0.299230,0.000849,-1.576111,-0.002343,2.004208,-0.793160,0.000149,0.299230,0.000849,-1.576111,-0.002343,2.004208,-0.793160,0.0400,0.045322,0.6699,-0.0006,0.3396
0.1320,0.000034,0.335976,-0.000061,-1.600466,-0.003981,1.991618,-0.790755,0.000156,0.299196,0.000887,-1.576348,-0.002447,2.004395,-0.793510,0.000156,0.299196,0.000887,-1.576348,-0.002447,2.004395,-0.793510,0.0400,0.045920,0.6698,-0.0006,0.3390
0.1340,0.000029,0.336476,-0.000055,-1.600955,-0.004067,1.991744,-0.791044,0.000163,0.299161,0.000926,-1.576591,-0.002554,2.004587,-0.793869,0.000163,0.299161,0.000926,-1.576591,-0.002554,2.004587,-0.793869,0.0400,0.046500,0.6697,-0.0006,0.3384
0.1360,0.000024,0.336964,-0.000049,-1.601439,-0.004157,1.991883,-0.791343,0.000170,0.299125,0.000966,-1.576840,-0.002664,2.004785,-0.794238,0.000170,0.299125,0.000966,-1.576840,-0.002664,2.004785,-0.794238,0.0400,0.047064,0.6696,-0.0007,0.3378
0.1380,0.000019,0.337439,-0.000042,-1.601918,-0.004250,1.992035,-0.791651,0.000177,0.299088,0.001007,-1.577097,-0.002777,2.004987,-0.794617,0.000177,0.299088,0.001007,-1.577097,-0.002777,2.004987,-0.794617,0.0400,0.047611,0.6695,-0.0007,0.3373
0.1400,0.000014,0.337901,-0.000035,-1.602391,-0.004346,1.992198,-0.791968,0.000185,0.299049,0.001049,-1.577360,-0.002893,2.005195,-0.795005,0.000185,0.299049,0.001049,-1.577360,-0.002893,2.005195,-0.795005,0.0400,0.048140,0.6694,-0.0007,0.3368
0.1420,0.000009,0.338350,-0.000027,-1.602859,-0.004445,1.992373,-0.792295,0.000192,0.299010,0.001092,-1.577630,-0.003012,2.005409,-0.795404,0.000192,0.299010,0.001092,-1.577630,-0.003012,2.005409,-0.795404,0.0400,0.048652,0.6693,-0.0007,0.3362
0.1440,0.000004,0.338786,-0.000018,-1.603322,-0.004547,1.992559,-0.792632,0.000200,0.298970,0.001136,-1.577906,-0.003133,2.005628,-0.795813,0.000200,0.298970,0.001136,-1.577906,-0.003133,2.005628,-0.795813,0.0400,0.049147,0.6692,-0.0007,0.3357
0.1460,-0.000001,0.339208,-0.000009,-1.603779,-0.004653,1.992756,-0.792978,0.000208,0.298929,0.001181,-1.578190,-0.003258,2.005852,-0.796232,0.000208,0.298929,0.001181,-1.578190,-0.003258,2.005852,-0.796232,0.0400,0.049626,0.6691,-0.0007,0.3352
0.1480,-0.000006,0.339617,0.000002,-1.604231,-0.004762,1.992962,-0.793334,0.000216,0.298887,0.001227,-1.578480,-0.003386,2.006082,-0.796661,0.000216,0.298887,0.001227,-1.578480,-0.003386,2.006082,-0.796661,0.0400,0.050086,0.6690,-0.0007,0.3347
0.1500,-0.000011,0.340013,0.000012,-1.604678,-0.004874,1.993179,-0.793699,0.000224,0.298844,0.001275,-1.578778,-0.003517,2.006317,-0.797100,0.000224,0.298844,0.001275,-1.578778,-0.003517,2.006317,-0.797100,0.0400,0.050530,0.6689,-0.0007,0.3343
0.1520,-0.000016,0.340395,0.000024,-1.605119,-0.004990,1.993405,-0.794075,0.000233,0.298800,0.001323,-1.579082,-0.003651,2.006558,-0.797550,0.000233,0.298800,0.001323,-1.579082,-0.003651,2.006558,-0.797550,0.0400,0.050957,0.6689,-0.0008,0.3338
0.1540,-0.000021,0.340763,0.000036,-1.605556,-0.005108,1.993640,-0.794461,0.000242,0.298755,0.001373,-1.579394,-0.003789,2.006804,-0.798011,0.000242,0.298755,0.001373,-1.579394,-0.003789,2.006804,-0.798011,0.0400,0.051367,0.6688,-0.0008,0.3334
0.1560,-0.000027,0.341118,0.000049,-1.605987,-0.005230,1.993884,-0.794857,0.000251,0.298709,0.001424,-1.579713,-0.003929,2.007056,-0.798482,0.000251,0.298709,0.001424,-1.579713,-0.003929,2.007056,-0.798482,0.0400,0.051760,0.6687,-0.0008,0.3329
0.1580,-0.000032,0.341459,0.000062,-1.606413,-0.005355,1.994137,-0.795263,0.000260,0.298662,0.001476,-1.580039,-0.004073,2.007314,-0.798963,0.000260,0.298662,0.001476,-1.580039,-0.004073,2.007314,-0.798963,0.0400,0.052137,0.6687,-0.0008,0.3325
0.1600,-0.000037,0.341786,0.000077,-1.606835,-0.005483,1.994398,-0.795679,0.000269,0.298614,0.001529,-1.580373,-0.004219,2.007578,-0.799456,0.000269,0.298614,0.001529,-1.580373,-0.004219,2.007578,-0.799456,0.0400,0.052496,0.6686,-0.0008,0.3321
0.1620,-0.000042,0.342099,0.000092,-1.607251,-0.005614,1.994666,-0.796105,0.000279,0.298564,0.001584,-1.580713,-0.004369,2.007847,-0.799959,0.000279,0.298564,0.001584,-1.580713,-0.004369,2.007847,-0.799959,0.0400,0.052839,0.6685,-0.0008,0.3317
0.1640,-0.000047,0.342398,0.000108,-1.607663,-0.005748,1.994942,-0.796543,0.000289,0.298514,0.001639,-1.581061,-0.004523,2.008122,-0.800473,0.000289,0.298514,0.001639,-1.581061,-0.004523,2.008122,-0.800473,0.0400,0.053166,0.6685,-0.0008,0.3313
0.1660,-0.000052,0.342684,0.000125,-1.608071,-0.005885,1.995226,-0.796990,0.000299,0.298462,0.001696,-1.581417,-0.004679,2.008404,-0.800999,0.000299,0.298462,0.001696,-1.581417,-0.004679,2.008404,-0.800999,0.0400,0.053477,0.6684,-0.0009,0.3309
0.1680,-0.000057,0.342956,0.000142,-1.608474,-0.006025,1.995516,-0.797448,0.000309,0.298410,0.001754,-1.581780,-0.004839,2.008691,-0.801535,0.000309,0.298410,0.001754,-1.581780,-0.004839,2.008691,-0.801535,0.0400,0.053771,0.6684,-0.0009,0.3306
0.1700,-0.000061,0.343214,0.000161,-1.608872,-0.006169,1.995814,-0.797917,0.000319,0.298356,0.001813,-1.582151,-0.005002,2.008984,-0.802082,0.000319,0.298356,0.001813,-1.582151,-0.005002,2.008984,-0.802082,0.0400,0.054049,0.6683,-0.0009,0.3302
0.1720,-0.000066,0.343459,0.000180,-1.609267,-0.006315,1.996119,-0.798396,0.000330,0.298302,0.001873,-1.582529,-0.005169,2.009283,-0.802641,0.000330,0.298302,0.001873,-1.582529,-0.005169,2.009283,-0.802641,0.0400,0.054312,0.6683,-0.0009,0.3299
0.1740,-0.000071,0.343690,0.000200,-1.609658,-0.006464,1.996430,-0.798887,0.000341,0.298246,0.001935,-1.582914,-0.005339,2.009588,-0.803211,0.000341,0.298246,0.001935,-1.582914,-0.005339,2.009588,-0.803211,0.0400,0.054559,0.6682,-0.0009,0.3296
0.1760,-0.000075,0.343908,0.000222,-1.610044,-0.006615,1.996748,-0.799388,0.000352,0.298189,0.001998,-1.583308,-0.005512,2.009899,-0.803792,0.000352,0.298189,0.001998,-1.583308,-0.005512,2.009899,-0.803792,0.0400,0.054790,0.6682,-0.0009,0.3293
0.1780,-0.000080,0.344112,0.000244,-1.610428,-0.006770,1.997072,-0.799900,0.000363,0.298131,0.002062,-1.583709,-0.005688,2.010216,-0.804385,0.000363,0.298131,0.002062,-1.583709,-0.005688,2.010216,-0.804385,0.0400,0.055006,0.6681,-0.0009,0.3290
0.1800,-0.000084,0.344303,0.000267,-1.610807,-0.006928,1.997402,-0.800423,0.000374,0.298072,0.002127,-1.584118,-0.005869,2.010540,-0.804989,0.000374,0.298072,0.002127,-1.584118,-0.005869,2.010540,-0.804989,0.0400,0.055208,0.6681,-0.0010,0.3287
0.1820,-0.000088,0.344481,0.000291,-1.611184,-0.007088,1.997739,-0.800958,0.000386,0.298011,0.002194,-1.584535,-0.006052,2.010869,-0.805605,0.000386,0.298011,0.002194,-1.584535,-0.006052,2.010869,-0.805605,0.0400,0.055394,0.6681,-0.0010,0.3284
0.1840,-0.000093,0.344645,0.000316,-1.611558,-0.007251,1.998082,-0.801503,0.000398,0.297950,0.002261,-1.584960,-0.006239,2.011205,-0.806232,0.000398,0.297950,0.002261,-1.584960,-0.006239,2.011205,-0.806232,0.0400,0.055566,0.6680,-0.0010,0.3281
0.1860,-0.000097,0.344797,0.000342,-1.611928,-0.007417,1.998431,-0.802060,0.000410,0.297887,0.002330,-1.585392,-0.006430,2.011547,-0.806871,0.000410,0.297887,0.002330,-1.585392,-0.006430,2.011547,-0.806871,0.0400,0.055723,0.6680,-0.0010,0.3279
0.1880,-0.000100,0.344936,0.000369,-1.612296,-0.007586,1.998786,-0.802628,0.000423,0.297824,0.002401,-1.585833,-0.006624,2.011896,-0.807522,0.000423,0.297824,0.002401,-1.585833,-0.006624,2.011896,-0.807522,0.0400,0.055866,0.6680,-0.0010,0.3276
0.1900,-0.000104,0.345062,0.000397,-1.612662,-0.007757,1.999147,-0.803208,0.000435,0.297759,0.002472,-1.586281,-0.006821,2.012251,-0.808185,0.000435,0.297759,0.002472,-1.586281,-0.006821,2.012251,-0.808185,0.0400,0.055995,0.6679,-0.0010,0.3274
0.1920,-0.000108,0.345176,0.000426,-1.613025,-0.007931,1.999515,-0.803799,0.000448,0.297693,0.002545,-1.586738,-0.007022,2.012612,-0.808859,0.000448,0.297693,0.002545,-1.586738,-0.007022,2.012612,-0.808859,0.0400,0.056111,0.6679,-0.0010,0.3271
0.1940,-0.000111,0.345278,0.000457,-1.613386,-0.008108,1.999888,-0.804401,0.000461,0.297625,0.002619,-1.587203,-0.007227,2.012979,-0.809546,0.000461,0.297625,0.002619,-1.587203,-0.007227,2.012979,-0.809546,0.0400,0.056213,0.6679,-0.0010,0.3269
0.1960,-0.000114,0.345367,0.000488,-1.613746,-0.008288,2.000268,-0.805016,0.000474,0.297557,0.002695,-1.587675,-0.007435,2.013353,-0.810244,0.000474,0.297557,0.002695,-1.587675,-0.007435,2.013353,-0.810244,0.0400,0.056302,0.6679,-0.0010,0.3267
0.1980,-0.000117,0.345444,0.000520,-1.614103,-0.008471,2.000654,-0.805642,0.000488,0.297487,0.002772,-1.588156,-0.007647,2.013733,-0.810955,0.000488,0.297487,0.002772,-1.588156,-0.007647,2.013733,-0.810955,0.0400,0.056378,0.6678,-0.0011,0.3265
0.2000,-0.000120,0.345510,0.000554,-1.614460,-0.008656,2.001046,-0.806279,0.000502,0.297417,0.002850,-1.588645,-0.007862,2.014120,-0.811677,0.000502,0.297417,0.002850,-1.588645,-0.007862,2.014120,-0.811677,0.0400,0.056442,0.6678,-0.0011,0.3263
0.2020,-0.000123,0.345564,0.000589,-1.614815,-0.008844,2.001445,-0.806929,0.000516,0.297345,0.002929,-1.589143,-0.008081,2.014513,-0.812412,0.000516,0.297345,0.002929,-1.589143,-0.008081,2.014513,-0.812412,0.0400,0.056493,0.6678,-0.0011,0.3262
0.2040,-0.000125,0.345607,0.000624,-1.615169,-0.009035,2.001850,-0.807590,0.000530,0.297272,0.003010,-1.589648,-0.008304,2.014913,-0.813159,0.000530,0.297272,0.003010,-1.589648,-0.008304,2.014913,-0.813159,0.0400,0.056533,0.6678,-0.0011,0.3260
0.2060,-0.000127,0.345638,0.000661,-1.615523,-0.009229,2.002261,-0.808264,0.000544,0.297197,0.003092,-1.590162,-0.008530,2.015319,-0.813918,0.000544,0.297197,0.003092,-1.590162,-0.008530,2.015319,-0.813918,0.0400,0.056560,0.6678,-0.0011,0.3258
0.2080,-0.000129,0.345659,0.000700,-1.615876,-0.009426,2.002679,-0.808949,0.000559,0.297122,0.003175,-1.590684,-0.008760,2.015732,-0.814689,0.000559,0.297122,0.003175,-1.590684,-0.008760,2.015732,-0.814689,0.0400,0.056576,0.6678,-0.0011,0.3257
0.2100,-0.000131,0.345668,0.000739,-1.616229,-0.009626,2.003103,-0.809647,0.000574,0.297045,0.003260,-1.591215,-0.008993,2.016152,-0.815473,0.000574,0.297045,0.003260,-1.591215,-0.008993,2.016152,-0.815473,0.0400,0.056581,0.6678,-0.0011,0.3255
0.2120,-0.000133,0.345668,0.000780,-1.616582,-0.009829,2.003534,-0.810356,0.000589,0.296967,0.003346,-1.591754,-0.009231,2.016578,-0.816269,0.000589,0.296967,0.003346,-1.591754,-0.009231,2.016578,-0.816269,0.0400,0.056575,0.6677,-0.0011,0.3254
0.2140,-0.000134,0.345656,0.000821,-1.616935,-0.010035,2.003972,-0.811078,0.000604,0.296888,0.003433,-1.592301,-0.009472,2.017011,-0.817078,0.000604,0.296888,0.003433,-1.592301,-0.009472,2.017011,-0.817078,0.0400,0.056559,0.6677,-0.0011,0.3253
0.2160,-0.000135,0.345635,0.000864,-1.617288,-0.010244,2.004416,-0.811812,0.000620,0.296807,0.003522,-1.592857,-0.009716,2.017450,-0.817899,0.000620,0.296807,0.003522,-1.592857,-0.009716,2.017450,-0.817899,0.0400,0.056532,0.6677,-0.0011,0.3252
0.2180,-0.000136,0.345604,0.000909,-1.617642,-0.010456,2.004867,-0.812559,0.000636,0.296726,0.003612,-1.593421,-0.009965,2.017897,-0.818732,0.000636,0.296726,0.003612,-1.593421,-0.009965,2.017897,-0.818732,0.0400,0.056496,0.6677,-0.0011,0.3250
0.2200,-0.000136,0.345563,0.000954,-1.617997,-0.010671,2.005326,-0.813317,0.000652,0.296643,0.003703,-1.593994,-0.010217,2.018350,-0.819578,0.000652,0.296643,0.003703,-1.593994,-0.010217,2.018350,-0.819578,0.0400,0.056450,0.6677,-0.0011,0.3249
0.2220,-0.000136,0.345513,0.001001,-1.618353,-0.010890,2.005791,-0.814088,0.000668,0.296559,0.003796,-1.594575,-0.010473,2.018809,-0.820437,0.000668,0.296559,0.003796,-1.594575,-0.010473,2.018809,-0.820437,0.0400,0.056394,0.6677,-0.0011,0.3248
0.2240,-0.000136,0.345453,0.001049,-1.618711,-0.011112,2.006263,-0.814872,0.000685,0.296473,0.003890,-1.595165,-0.010733,2.019276,-0.821308,0.000685,0.296473,0.003890,-1.595165,-0.010733,2.019276,-0.821308,0.0400,0.056330,0.6677,-0.0011,0.3247
0.2260,-0.000136,0.345385,0.001098,-1.619070,-0.011337,2.006742,-0.815668,0.000702,0.296387,0.003986,-1.595764,-0.010996,2.019749,-0.822193,0.000702,0.296387,0.003986,-1.595764,-0.010996,2.019749,-0.822193,0.0400,0.056257,0.6677,-0.0011,0.3247
0.2280,-0.000135,0.345308,0.001149,-1.619431,-0.011566,2.007228,-0.816477,0.000719,0.296299,0.004083,-1.596371,-0.011264,2.020229,-0.823089,0.000719,0.296299,0.004083,-1.596371,-0.011264,2.020229,-0.823089,0.0400,0.056176,0.6677,-0.0011,0.3246
0.2300,-0.000135,0.345222,0.001201,-1.619793,-0.011798,2.007722,-0.817298,0.000736,0.296210,0.004181,-1.596986,-0.011535,2.020716,-0.823999,0.000736,0.296210,0.004181,-1.596986,-0.011535,2.020716,-0.823999,0.0400,0.056087,0.6677,-0.0011,0.3245
0.2320,-0.000133,0.345128,0.001254,-1.620158,-0.012033,2.008223,-0.818132,0.000753,0.296119,0.004280,-1.597611,-0.011810,2.021210,-0.824921,0.000753,0.296119,0.004280,-1.597611,-0.011810,2.021210,-0.824921,0.0400,0.055991,0.6677,-0.0011,0.3244
0.2340,-0.000132,0.345026,0.001309,-1.620526,-0.012273,2.008731,-0.818978,0.000771,0.296028,0.004381,-1.598244,-0.012088,2.021710,-0.825857,0.000771,0.296028,0.004381,-1.598244,-0.012088,2.021710,-0.825857,0.0400,0.055887,0.6677,-0.0011,0.3244
0.2360,-0.000130,0.344916,0.001365,-1.620896,-0.012515,2.009246,-0.819838,0.000789,0.295935,0.004484,-1.598886,-0.012371,2.022218,-0.826805,0.000789,0.295935,0.004484,-1.598886,-0.012371,2.022218,-0.826805,0.0400,0.055776,0.6677,-0.0011,0.3243
0.2380,-0.000128,0.344799,0.001422,-1.621269,-0.012762,2.009768,-0.820710,0.000808,0.295841,0.004588,-1.599536,-0.012657,2.022732,-0.827766,0.000808,0.295841,0.004588,-1.599536,-0.012657,2.022732,-0.827766,0.0400,0.055659,0.6677,-0.0011,0.3242
0.2400,-0.000125,0.344674,0.001481,-1.621646,-0.013012,2.010298,-0.821595,0.000826,0.295746,0.004693,-1.600195,-0.012948,2.023254,-0.828739,0.000826,0.295746,0.004693,-1.600195,-0.012948,2.023254,-0.828739,0.0400,0.055536,0.6677,-0.0011,0.3242
0.2420,-0.000123,0.344542,0.001541,-1.622025,-0.013266,2.010835,-0.822492,0.000845,0.295649,0.004800,-1.600863,-0.013242,2.023782,-0.829726,0.000845,0.295649,0.004800,-1.600863,-0.013242,2.023782,-0.829726,0.0400,0.055406,0.6677,-0.0011,0.3242
0.2440,-0.000119,0.344403,0.001603,-1.622408,-0.013524,2.011379,-0.823403,0.000864,0.295551,0.004908,-1.601540,-0.013540,2.024317,-0.830726,0.000864,0.295551,0.004908,-1.601540,-0.013540,2.024317,-0.830726,0.0400,0.055271,0.6678,-0.0011,0.3241
0.2460,-0.000116,0.344258,0.001666,-1.622795,-0.013785,2.011931,-0.824326,0.000883,0.295452,0.005017,-1.602226,-0.013842,2.024859,-0.831739,0.000883,0.295452,0.005017,-1.602226,-0.013842,2.024859,-0.831739,0.0400,0.055131,0.6678,-0.0011,0.3241
0.2480,-0.000112,0.344106,0.001730,-1.623186,-0.014051,2.012490,-0.825263,0.000903,0.295351,0.005128,-1.602920,-0.014147,2.025408,-0.832765,0.000903,0.295351,0.005128,-1.602920,-0.014147,2.025408,-0.832765,0.0400,0.054986,0.6678,-0.0011,0.3240
0.2500,-0.000108,0.343948,0.001796,-1.623581,-0.014320,2.013056,-0.826212,0.000922,0.295250,0.005240,-1.603624,-0.014457,2.025965,-0.833804,0.000922,0.295250,0.005240,-1.603624,-0.014457,2.025965,-0.833804,0.0400,0.054836,0.6678,-0.0011,0.3240
0.2520,-0.000103,0.343784,0.001863,-1.623981,-0.014594,2.013630,-0.827175,0.000942,0.295146,0.005354,-1.604336,-0.014771,2.026528,-0.834856,0.000942,0.295146,0.005354,-1.604336,-0.014771,2.026528,-0.834856,0.0400,0.054683,0.6678,-0.0011,0.3240
0.2540,-0.000099,0.343614,0.001931,-1.624385,-0.014871,2.014210,-0.828150,0.000963,0.295042,0.005469,-1.605057,-0.015088,2.027098,-0.835921,0.000963,0.295042,0.005469,-1.605057,-0.015088,2.027098,-0.835921,0.0400,0.054525,0.6678,-0.0011,0.3239
0.2560,-0.000093,0.343439,0.002001,-1.624794,-0.015153,2.014798,-0.829139,0.000983,0.294937,0.005585,-1.605787,-0.015410,2.027675,-0.836999,0.000983,0.294937,0.005585,-1.605787,-0.015410,2.027675,-0.836999,0.0400,0.054364,0.6678,-0.0011,0.3239
0.2580,-0.000088,0.343258,0.002073,-1.625208,-0.015439,2.015393,-0.830140,0.001004,0.294830,0.005703,-1.606526,-0.015735,2.028259,-0.838091,0.001004,0.294830,0.005703,-1.606526,-0.015735,2.028259,-0.838091,0.0400,0.054199,0.6678,-0.0011,0.3239
0.2600,-0.000082,0.343072,0.002146,-1.625627,-0.015729,2.015995,-0.831155,0.001025,0.294721,0.005823,-1.607273,-0.016064,2.028851,-0.839196,0.001025,0.294721,0.005823,-1.607273,-0.016064,2.028851,-0.839196,0.0400,0.054032,0.6678,-0.0011,0.3239
0.2620,-0.000075,0.342882,0.002220,-1.626052,-0.016023,2.016604,-0.832183,0.001046,0.294612,0.005943,-1.608030,-0.016397,2.029449,-0.840313,0.001046,0.294612,0.005943,-1.608030,-0.016397,2.029449,-0.840313,0.0400,0.053862,0.6678,-0.0011,0.3239
0.2640,-0.000069,0.342686,0.002296,-1.626482,-0.016321,2.017221,-0.833224,0.001068,0.294501,0.006065,-1.608796,-0.016734,2.030055,-0.841444,0.001068,0.294501,0.006065,-1.608796,-0.016734,2.030055,-0.841444,0.0400,0.053690,0.6678,-0.0011,0.3238
0.2660,-0.000062,0.342487,0.002373,-1.626918,-0.016623,2.017844,-0.834278,0.001089,0.294389,0.006189,-1.609570,-0.017075,2.030667,-0.842589,0.001089,0.294389,0.006189,-1.609570,-0.017075,2.030667,-0.842589,0.0400,0.053515,0.6678,-0.0011,0.3238
0.2680,-0.000054,0.342282,0.002452,-1.627360,-0.016930,2.018474,-0.835345,0.001111,0.294276,0.006314,-1.610354,-0.017421,2.031287,-0.843746,0.001111,0.294276,0.006314,-1.610354,-0.017421,2.031287,-0.843746,0.0400,0.053340,0.6679,-0.0011,0.3238
0.2700,-0.000046,0.342074,0.002532,-1.627808,-0.017241,2.019111,-0.836426,0.001134,0.294161,0.006441,-1.611147,-0.017769,2.031914,-0.844917,0.001134,0.294161,0.006441,-1.611147,-0.017769,2.031914,-0.844917,0.0400,0.053162,0.6679,-0.0011,0.3238
0.2720,-0.000038,0.341862,0.002613,-1.628263,-0.017556,2.019755,-0.837520,0.001156,0.294045,0.006569,-1.611948,-0.018122,2.032547,-0.846101,0.001156,0.294045,0.006569,-1.611948,-0.018122,2.032547,-0.846101,0.0400,0.052984,0.6679,-0.0010,0.3238
0.2740,-0.000029,0.341647,0.002697,-1.628723,-0.017875,2.020406,-0.838627,0.001179,0.293928,0.006698,-1.612759,-0.018479,2.033188,-0.847299,0.001179,0.293928,0.006698,-1.612759,-0.018479,2.033188,-0.847299,0.0400,0.052805,0.6679,-0.0010,0.3238
0.2760,-0.000020,0.341428,0.002781,-1.629191,-0.018199,2.021063,-0.839748,0.001202,0.293809,0.006829,-1.613578,-0.018840,2.033836,-0.848509,0.001202,0.293809,0.006829,-1.613578,-0.018840,2.033836,-0.848509,0.0400,0.052626,0.6679,-0.0010,0.3237
0.2780,-0.000011,0.341205,0.002867,-1.629666,-0.018527,2.021727,-0.840881,0.001225,0.293689,0.006961,-1.614407,-0.019205,2.034492,-0.849733,0.001225,0.293689,0.006961,-1.614407,-0.019205,2.034492,-0.849733,0.0400,0.052446,0.6679,-0.0010,0.3237
0.2800,-0.000001,0.340980,0.002955,-1.630147,-0.018859,2.022397,-0.842028,0.001249,0.293568,0.007095,-1.615244,-0.019574,2.035154,-0.850970,0.001249,0.293568,0.007095,-1.615244,-0.019574,2.035154,-0.850970,0.0400,0.052267,0.6679,-0.0010,0.3237
0.2820,0.000009,0.340751,0.003044,-1.630636,-0.019196,2.023074,-0.843189,0.001273,0.293446,0.007230,-1.616091,-0.019947,2.035823,-0.852221,0.001273,0.293446,0.007230,-1.616091,-0.019947,2.035823,-0.852221,0.0400,0.052088,0.6679,-0.0010,0.3237
0.2840,0.000020,0.340520,0.003135,-1.631132,-0.019537,2.023758,-0.844363,0.001297,0.293322,0.007366,-1.616946,-0.020323,2.036500,-0.853485,0.001297,0.293322,0.007366,-1.616946,-0.020323,2.036500,-0.853485,0.0400,0.051910,0.6679,-0.0010,0.3237
0.2860,0.000031,0.340286,0.003227,-1.631635,-0.019882,2.024448,-0.845550,0.001321,0.293197,0.007504,-1.617811,-0.020704,2.037184,-0.854762,0.001321,0.293197,0.007504,-1.617811,-0.020704,2.037184,-0.854762,0.0400,0.051732,0.6679,-0.0010,0.3237
0.2880,0.000042,0.340050,0.003320,-1.632147,-0.020232,2.025144,-0.846750,0.001346,0.293070,0.007644,-1.618685,-0.021089,2.037875,-0.856053,0.001346,0.293070,0.007644,-1.618685,-0.021089,2.037875,-0.856053,0.0400,0.051556,0.6679,-0.0009,0.3236
0.2900,0.000054,0.339811,0.003415,-1.632666,-0.020585,2.025847,-0.847964,0.001370,0.292943,0.007785,-1.619567,-0.021477,2.038573,-0.857357,0.001370,0.292943,0.007785,-1.619567,-0.021477,2.038573,-0.857357,0.0400,0.051381,0.6679,-0.0009,0.3236
0.2920,0.000066,0.339571,0.003512,-1.633193,-0.020943,2.026555,-0.849191,0.001395,0.292814,0.007927,-1.620459,-0.021870,2.039278,-0.858674,0.001395,0.292814,0.007927,-1.620459,-0.021870,2.039278,-0.858674,0.0400,0.051208,0.6679,-0.0009,0.3236
0.2940,0.000078,0.339328,0.003610,-1.633728,-0.021306,2.027270,-0.850432,0.001421,0.292683,0.008071,-1.621360,-0.022267,2.039990,-0.860005,0.001421,0.292683,0.008071,-1.621360,-0.022267,2.039990,-0.860005,0.0400,0.051037,0.6679,-0.0009,0.3236
0.2960,0.000091,0.339084,0.003710,-1.634271,-0.021673,2.027992,-0.851686,0.001446,0.292552,0.008216,-1.622270,-0.022667,2.040710,-0.861349,0.001446,0.292552,0.008216,-1.622270,-0.022667,2.040710,-0.861349,0.0400,0.050868,0.6679,-0.0009,0.3236
0.2980,0.000105,0.338838,0.003811,-1.634823,-0.022043,2.028719,-0.852954,0.001472,0.292419,0.008362,-1.623189,-0.023072,2.041436,-0.862707,0.001472,0.292419,0.008362,-1.623189,-0.023072,2.041436,-0.862707,0.0400,0.050701,0.6679,-0.0008,0.3235
0.3000,0.000119,0.338591,0.003913,-1.635383,-0.022419,2.029452,-0.854234,0.001498,0.292285,0.008511,-1.624117,-0.023480,2.042170,-0.864077,0.001498,0.292285,0.008511,-1.624117,-0.023480,2.042170,-0.864077,0.0400,0.050537,0.6679,-0.0008,0.3235
0.3020,0.000133,0.338342,0.004018,-1.635952,-0.022798,2.030192,-0.855529,0.001524,0.292149,0.008660,-1.625054,-0.023893,2.042911,-0.865461,0.001524,0.292149,0.008660,-1.625054,-0.023893,2.042911,-0.865461,0.0400,0.050376,0.6679,-0.0008,0.3235
0.3040,0.000147,0.338093,0.004123,-1.636529,-0.023182,2.030937,-0.856837,0.001551,0.292012,0.008811,-1.626000,-0.024309,2.043659,-0.866859,0.001551,0.292012,0.008811,-1.626000,-0.024309,2.043659,-0.866859,0.0400,0.050218,0.6679,-0.0008,0.3234
0.3060,0.000162,0.337842,0.004231,-1.637116,-0.023570,2.031689,-0.858158,0.001578,0.291874,0.008963,-1.626955,-0.024730,2.044414,-0.868270,0.001578,0.291874,0.008963,-1.626955,-0.024730,2.044414,-0.868270,0.0400,0.050062,0.6679,-0.0008,0.3234
0.3080,0.000177,0.337590,0.004339,-1.637711,-0.023962,2.032446,-0.859492,0.001605,0.291734,0.009117,-1.627919,-0.025154,2.045177,-0.869694,0.001605,0.291734,0.009117,-1.627919,-0.025154,2.045177,-0.869694,0.0400,0.049911,0.6679,-0.0007,0.3234
0.3100,0.000193,0.337337,0.004449,-1.638316,-0.024358,2.033209,-0.860840,0.001632,0.291594,0.009273,-1.628892,-0.025583,2.045946,-0.871132,0.001632,0.291594,0.009273,-1.628892,-0.025583,2.045946,-0.871132,0.0400,0.049762,0.6679,-0.0007,0.3233
0.3120,0.000209,0.337084,0.004561,-1.638930,-0.024759,2.033978,-0.862202,0.001660,0.291452,0.009429,-1.629874,-0.026015,2.046723,-0.872582,0.001660,0.291452,0.009429,-1.629874,-0.026015,2.046723,-0.872582,0.0400,0.049618,0.6679,-0.0007,0.3233
0.3140,0.000226,0.336830,0.004675,-1.639553,-0.025164,2.034753,-0.863577,0.001688,0.291308,0.009588,-1.630865,-0.026452,2.047507,-0.874047,0.001688,0.291308,0.009588,-1.630865,-0.026452,2.047507,-0.874047,0.0400,0.049477,0.6679,-0.0007,0.3232
0.3160,0.000243,0.336576,0.004789,-1.640185,-0.025573,2.035534,-0.864965,0.001716,0.291163,0.009747,-1.631865,-0.026892,2.048298,-0.875524,0.001716,0.291163,0.009747,-1.631865,-0.026892,2.048298,-0.875524,0.0400,0.049340,0.6679,-0.0006,0.3232
0.3180,0.000260,0.336322,0.004906,-1.640827,-0.025986,2.036320,-0.866366,0.001744,0.291017,0.009908,-1.632875,-0.027337,2.049096,-0.877015,0.001744,0.291017,0.009908,-1.632875,-0.027337,2.049096,-0.877015,0.0400,0.049207,0.6679,-0.0006,0.3231
0.3200,0.000277,0.336067,0.005023,-1.641479,-0.026403,2.037113,-0.867782,0.001773,0.290870,0.010071,-1.633893,-0.027785,2.049901,-0.878519,0.001773,0.290870,0.010071,-1.633893,-0.027785,2.049901,-0.878519,0.0400,0.049079,0.6678,-0.0006,0.3230
0.3220,0.000295,0.335812,0.005143,-1.642141,-0.026825,2.037911,-0.869210,0.001802,0.290721,0.010235,-1.634920,-0.028237,2.050713,-0.880036,0.001802,0.290721,0.010235,-1.634920,-0.028237,2.050713,-0.880036,0.0400,0.048955,0.6678,-0.0006,0.3230
0.3240,0.000314,0.335557,0.005264,-1.642812,-0.027250,2.038715,-0.870652,0.001831,0.290572,0.010400,-1.635956,-0.028693,2.051533,-0.881567,0.001831,0.290572,0.010400,-1.635956,-0.028693,2.051533,-0.881567,0.0400,0.048836,0.6678,-0.0005,0.3229
0.3260,0.000333,0.335302,0.005386,-1.643493,-0.027680,2.039525,-0.872107,0.001860,0.290420,0.010567,-1.637001,-0.029154,2.052359,-0.883111,0.001860,0.290420,0.010567,-1.637001,-0.029154,2.052359,-0.883111,0.0400,0.048721,0.6678,-0.0005,0.3228
0.3280,0.000352,0.335048,0.005510,-1.644184,-0.028114,2.040341,-0.873576,0.001890,0.290268,0.010735,-1.638055,-0.029618,2.053193,-0.884668,0.001890,0.290268,0.010735,-1.638055,-0.029618,2.053193,-0.884668,0.0400,0.048610,0.6678,-0.0005,0.3227
0.3300,0.000371,0.334794,0.005635,-1.644885,-0.028552,2.041162,-0.875058,0.001920,0.290114,0.010905,-1.639118,-0.030086,2.054033,-0.886239,0.001920,0.290114,0.010905,-1.639118,-0.030086,2.054033,-0.886239,0.0400,0.048505,0.6677,-0.0004,0.3227
0.3320,0.000391,0.334540,0.005762,-1.645597,-0.028994,2.041989,-0.876554,0.001950,0.289959,0.011076,-1.640190,-0.030558,2.054881,-0.887822,0.001950,0.289959,0.011076,-1.640190,-0.030558,2.054881,-0.887822,0.0400,0.048404,0.6677,-0.0004,0.3226
0.3340,0.000412,0.334286,0.005891,-1.646318,-0.029440,2.042822,-0.878062,0.001980,0.289802,0.011248,-1.641271,-0.031034,2.055736,-0.889419,0.001980,0.289802,0.011248,-1.641271,-0.031034,2.055736,-0.889419,0.0400,0.048309,0.6677,-0.0004,0.3225
0.3360,0.000432,0.334033,0.006021,-1.647050,-0.029890,2.043661,-0.879585,0.002011,0.289645,0.011422,-1.642361,-0.031514,2.056598,-0.891029,0.002011,0.289645,0.011422,-1.642361,-0.031514,2.056598,-0.891029,0.0400,0.048218,0.6677,-0.0003,0.3224
0.3380,0.000453,0.333781,0.006152,-1.647792,-0.030345,2.044506,-0.881120,0.002042,0.289486,0.011598,-1.643460,-0.031998,2.057467,-0.892653,0.002042,0.289486,0.011598,-1.643460,-0.031998,2.057467,-0.892653,0.0400,0.048132,0.6676,-0.0003,0.3223
0.3400,0.000475,0.333529,0.006285,-1.648544,-0.030803,2.045356,-0.882669,0.002073,0.289326,0.011774,-1.644568,-0.032485,2.058343,-0.894289,0.002073,0.289326,0.011774,-1.644568,-0.032485,2.058343,-0.894289,0.0400,0.048052,0.6676,-0.0003,0.3222
0.3420,0.000497,0.333278,0.006419,-1.649307,-0.031265,2.046213,-0.884231,0.002104,0.289164,0.011953,-1.645684,-0.032977,2.059226,-0.895938,0.002104,0.289164,0.011953,-1.645684,-0.032977,2.059226,-0.895938,0.0400,0.047976,0.6676,-0.0002,0.3221
0.3440,0.000519,0.333028,0.006555,-1.650080,-0.031732,2.047075,-0.885807,0.002136,0.289001,0.012132,-1.646810,-0.033472,2.060116,-0.897601,0.002136,0.289001,0.012132,-1.646810,-0.033472,2.060116,-0.897601,0.0400,0.047906,0.6675,-0.0002,0.3220
0.3460,0.000541,0.332779,0.006693,-1.650864,-0.032202,2.047943,-0.887395,0.002168,0.288837,0.012313,-1.647944,-0.033972,2.061013,-0.899277,0.002168,0.288837,0.012313,-1.647944,-0.033972,2.061013,-0.899277,0.0400,0.047841,0.6675,-0.0002,0.3218
0.3480,0.000564,0.332530,0.006832,-1.651658,-0.032677,2.048817,-0.888997,0.002200,0.288672,0.012496,-1.649087,-0.034475,2.061917,-0.900966,0.002200,0.288672,0.012496,-1.649087,-0.034475,2.061917,-0.900966,0.0400,0.047781,0.6674,-0.0001,0.3217
0.3500,0.000587,0.332283,0.006972,-1.652463,-0.033156,2.049697,-0.890612,0.002232,0.288505,0.012680,-1.650239,-0.034983,2.062828,-0.902667,0.002232,0.288505,0.012680,-1.650239,-0.034983,2.062828,-0.902667,0.0400,0.047726,0.6674,-0.0001,0.3216
0.3520,0.000611,0.332036,0.007114,-1.653278,-0.033638,2.050583,-0.892241,0.002265,0.288337,0.012865,-1.651400,-0.035494,2.063746,-0.904382,0.002265,0.288337,0.012865,-1.651400,-0.035494,2.063746,-0.904382,0.0400,0.047677,0.6674,-0.0000,0.3215
0.3540,0.000635,0.331791,0.007258,-1.654104,-0.034125,2.051475,-0.893883,0.002297,0.288168,0.013051,-1.652570,-0.036009,2.064671,-0.906110,0.002297,0.288168,0.013051,-1.652570,-0.036009,2.064671,-0.906110,0.0400,0.047633,0.6673,0.0000,0.3213
0.3560,0.000659,0.331547,0.007403,-1.654941,-0.034616,2.052372,-0.895537,0.002331,0.287997,0.013240,-1.653748,-0.036528,2.065603,-0.907851,0.002331,0.287997,0.013240,-1.653748,-0.036528,2.065603,-0.907851,0.0400,0.047594,0.6673,0.0000,0.3212
0.3580,0.000684,0.331304,0.007549,-1.655789,-0.035110,2.053276,-0.897205,0.002364,0.287826,0.013429,-1.654935,-0.037050,2.066541,-0.909604,0.002364,0.287826,0.013429,-1.654935,-0.037050,2.066541,-0.909604,0.0400,0.047560,0.6672,0.0001,0.3210
0.3600,0.000709,0.331062,0.007697,-1.656647,-0.035609,2.054186,-0.898887,0.002398,0.287653,0.013620,-1.656131,-0.037577,2.067487,-0.911371,0.002398,0.287653,0.013620,-1.656131,-0.037577,2.067487,-0.911371,0.0400,0.047531,0.6672,0.0001,0.3209
0.3620,0.000734,0.330821,0.007846,-1.657516,-0.036112,2.055101,-0.900581,0.002431,0.287478,0.013812,-1.657336,-0.038107,2.068440,-0.913151,0.002431,0.287478,0.013812,-1.657336,-0.038107,2.068440,-0.913151,0.0400,0.047508,0.6671,0.0002,0.3207
0.3640,0.000760,0.330581,0.007997,-1.658396,-0.036618,2.056023,-0.902288,0.002465,0.287303,0.014006,-1.658549,-0.038641,2.069399,-0.914943,0.002465,0.287303,0.014006,-1.658549,-0.038641,2.069399,-0.914943,0.0400,0.047489,0.6671,0.0002,0.3205
0.3660,0.000786,0.330343,0.008149,-1.659286,-0.037129,2.056951,-0.904009,0.002500,0.287126,0.014201,-1.659771,-0.039179,2.070365,-0.916748,0.002500,0.287126,0.014201,-1.659771,-0.039179,2.070365,-0.916748,0.0400,0.047476,0.6670,0.0003,0.3204
0.3680,0.000812,0.330106,0.008303,-1.660188,-0.037644,2.057885,-0.905742,0.002534,0.286948,0.014397,-1.661002,-0.039721,2.071339,-0.918566,0.002534,0.286948,0.014397,-1.661002,-0.039721,2.071339,-0.918566,0.0400,0.047468,0.6669,0.0003,0.3202
0.3700,0.000839,0.329870,0.008458,-1.661100,-0.038163,2.058825,-0.907489,0.002569,0.286769,0.014595,-1.662241,-0.040267,2.072319,-0.920397,0.002569,0.286769,0.014595,-1.662241,-0.040267,2.072319,-0.920397,0.0400,0.047464,0.6669,0.0004,0.3200
0.3720,0.000866,0.329636,0.008615,-1.662023,-0.038685,2.059771,-0.909248,0.002604,0.286588,0.014794,-1.663489,-0.040816,2.073305,-0.922240,0.002604,0.286588,0.014794,-1.663489,-0.040816,2.073305,-0.922240,0.0400,0.047466,0.6668,0.0004,0.3198
0.3740,0.000893,0.329403,0.008773,-1.662956,-0.039212,2.060723,-0.911020,0.002640,0.286406,0.014995,-1.664745,-0.041370,2.074299,-0.924096,0.002640,0.286406,0.014995,-1.664745,-0.041370,2.074299,-0.924096,0.0400,0.047472,0.6667,0.0005,0.3196
0.3760,0.000921,0.329171,0.008933,-1.663901,-0.039742,2.061681,-0.912806,0.002675,0.286223,0.015197,-1.666010,-0.041927,2.075299,-0.925965,0.002675,0.286223,0.015197,-1.666010,-0.041927,2.075299,-0.925965,0.0400,0.047484,0.6667,0.0005,0.3194
0.3780,0.000949,0.328941,0.009094,-1.664856,-0.040277,2.062646,-0.914604,0.002711,0.286039,0.015400,-1.667284,-0.042487,2.076306,-0.927847,0.002711,0.286039,0.015400,-1.667284,-0.042487,2.076306,-0.927847,0.0400,0.047500,0.6666,0.0006,0.3192
0.3800,0.000977,0.328712,0.009256,-1.665822,-0.040815,2.063616,-0.916415,0.002747,0.285853,0.015604,-1.668566,-0.043052,2.077320,-0.929741,0.002747,0.285853,0.015604,-1.668566,-0.043052,2.077320,-0.929741,0.0400,0.047520,0.6665,0.0006,0.3190
0.3820,0.001006,0.328484,0.009420,-1.666799,-0.041358,2.064593,-0.918239,0.002783,0.285667,0.015810,-1.669857,-0.043620,2.078341,-0.931647,0.002783,0.285667,0.015810,-1.669857,-0.043620,2.078341,-0.931647,0.0400,0.047546,0.6665,0.0007,0.3188
0.3840,0.001035,0.328258,0.009585,-1.667787,-0.041904,2.065576,-0.920076,0.002820,0.285479,0.016018,-1.671156,-0.044192,2.079368,-0.933566,0.002820,0.285479,0.016018,-1.671156,-0.044192,2.079368,-0.933566,0.0400,0.047575,0.6664,0.0007,0.3186
0.3860,0.001064,0.328033,0.009752,-1.668785,-0.042454,2.066565,-0.921926,0.002856,0.285290,0.016226,-1.672463,-0.044768,2.080402,-0.935498,0.002856,0.285290,0.016226,-1.672463,-0.044768,2.080402,-0.935498,0.0400,0.047610,0.6663,0.0008,0.3183
0.3880,0.001094,0.327810,0.009920,-1.669794,-0.043008,2.067560,-0.923788,0.002893,0.285099,0.016436,-1.673779,-0.045347,2.081443,-0.937442,0.002893,0.285099,0.016436,-1.673779,-0.045347,2.081443,-0.937442,0.0400,0.047649,0.6662,0.0008,0.3181
0.3900,0.001124,0.327587,0.010090,-1.670814,-0.043567,2.068562,-0.925663,0.002931,0.284908,0.016648,-1.675104,-0.045931,2.082490,-0.939398,0.002931,0.284908,0.016648,-1.675104,-0.045931,2.082490,-0.939398,0.0400,0.047692,0.6661,0.0009,0.3179
0.3920,0.001154,0.327367,0.010261,-1.671845,-0.044128,2.069569,-0.927551,0.002968,0.284715,0.016860,-1.676436,-0.046517,2.083544,-0.941367,0.002968,0.284715,0.016860,-1.676436,-0.046517,2.083544,-0.941367,0.0400,0.047739,0.6661,0.0009,0.3176
0.3940,0.001184,0.327147,0.010434,-1.672886,-0.044694,2.070583,-0.929451,0.003006,0.284521,0.017074,-1.677777,-0.047108,2.084605,-0.943348,0.003006,0.284521,0.017074,-1.677777,-0.047108,2.084605,-0.943348,0.0400,0.047790,0.6660,0.0010,0.3174
0.3960,0.001215,0.326929,0.010607,-1.673937,-0.045264,2.071603,-0.931364,0.003044,0.284325,0.017290,-1.679127,-0.047702,2.085672,-0.945341,0.003044,0.284325,0.017290,-1.679127,-0.047702,2.085672,-0.945341,0.0400,0.047846,0.6659,0.0010,0.3171
0.3980,0.001246,0.326712,0.010783,-1.675000,-0.045838,2.072629,-0.933289,0.003082,0.284129,0.017506,-1.680484,-0.048300,2.086745,-0.947347,0.003082,0.284129,0.017506,-1.680484,-0.048300,2.086745,-0.947347,0.0400,0.047905,0.6658,0.0011,0.3169
0.4000,0.001278,0.326496,0.010959,-1.676073,-0.046415,2.073662,-0.935227,0.003120,0.283931,0.017724,-1.681850,-0.048901,2.087825,-0.949365,0.003120,0.283931,0.017724,-1.681850,-0.048901,2.087825,-0.949365,0.0400,0.047968,0.6657,0.0012,0.3166
0.4020,0.001309,0.326282,0.011138,-1.677156,-0.046996,2.074700,-0.937178,0.003159,0.283733,0.017944,-1.683224,-0.049506,2.088912,-0.951394,0.003159,0.283733,0.017944,-1.683224,-0.049506,2.088912,-0.951394,0.0400,0.048035,0.6656,0.0012,0.3163
0.4040,0.001341,0.326069,0.011317,-1.678250,-0.047581,2.075745,-0.939141,0.003197,0.283533,0.018164,-1.684607,-0.050115,2.090005,-0.953436,0.003197,0.283533,0.018164,-1.684607,-0.050115,2.090005,-0.953436,0.0400,0.048106,0.6655,0.0013,0.3161
0.4060,0.001374,0.325857,0.011498,-1.679355,-0.048170,2.076796,-0.941116,0.003237,0.283331,0.018386,-1.685997,-0.050727,2.091105,-0.955490,0.003237,0.283331,0.018386,-1.685997,-0.050727,2.091105,-0.955490,0.0400,0.048180,0.6654,0.0013,0.3158
0.4080,0.001406,0.325646,0.011680,-1.680470,-0.048763,2.077853,-0.943104,0.003276,0.283129,0.018609,-1.687396,-0.051343,2.092210,-0.957557,0.003276,0.283129,0.018609,-1.687396,-0.051343,2.092210,-0.957557,0.0400,0.048258,0.6653,0.0014,0.3155
0.4100,0.001439,0.325437,0.011864,-1.681595,-0.049359,2.078916,-0.945104,0.003315,0.282926,0.018834,-1.688802,-0.051962,2.093323,-0.959635,0.003315,0.282926,0.018834,-1.688802,-0.051962,2.093323,-0.959635,0.0400,0.048339,0.6652,0.0015,0.3152
0.4120,0.001472,0.325228,0.012049,-1.682731,-0.049959,2.079986,-0.947116,0.003355,0.282721,0.019060,-1.690217,-0.052585,2.094442,-0.961724,0.003355,0.282721,0.019060,-1.690217,-0.052585,2.094442,-0.961724,0.0400,0.048424,0.6651,0.0015,0.3149
0.4140,0.001506,0.325021,0.012235,-1.683877,-0.050563,2.081062,-0.949141,0.003395,0.282515,0.019287,-1.691640,-0.053212,2.095567,-0.963826,0.003395,0.282515,0.019287,-1.691640,-0.053212,2.095567,-0.963826,0.0400,0.048512,0.6650,0.0016,0.3146
0.4160,0.001540,0.324815,0.012423,-1.685033,-0.051171,2.082144,-0.951177,0.003435,0.282308,0.019515,-1.693070,-0.053842,2.096698,-0.965940,0.003435,0.282308,0.019515,-1.693070,-0.053842,2.096698,-0.965940,0.0400,0.048603,0.6649,0.0017,0.3143
0.4180,0.001574,0.324610,0.012612,-1.686200,-0.051782,2.083232,-0.953226,0.003476,0.282100,0.019745,-1.694509,-0.054475,2.097836,-0.968065,0.003476,0.282100,0.019745,-1.694509,-0.054475,2.097836,-0.968065,0.0400,0.048697,0.6648,0.0017,0.3140
0.4200,0.001608,0.324406,0.012803,-1.687376,-0.052397,2.084326,-0.955287,0.003516,0.281891,0.019976,-1.695956,-0.055112,2.098980,-0.970202,0.003516,0.281891,0.019976,-1.695956,-0.055112,2.098980,-0.970202,0.0400,0.048794,0.6647,0.0018,0.3137
0.4220,0.001642,0.324203,0.012995,-1.688563,-0.053016,2.085426,-0.957360,0.003557,0.281680,0.020208,-1.697410,-0.055752,2.100130,-0.972351,0.003557,0.281680,0.020208,-1.697410,-0.055752,2.100130,-0.972351,0.0400,0.048894,0.6646,0.0019,0.3134
0.4240,0.001677,0.324001,0.013188,-1.689760,-0.053639,2.086532,-0.959445,0.003598,0.281469,0.020441,-1.698873,-0.056396,2.101287,-0.974511,0.003598,0.281469,0.020441,-1.698873,-0.056396,2.101287,-0.974511,0.0400,0.048996,0.6644,0.0019,0.3130
0.4260,0.001712,0.323800,0.013382,-1.690967,-0.054265,2.087645,-0.961542,0.003640,0.281256,0.020676,-1.700343,-0.057044,2.102449,-0.976683,0.003640,0.281256,0.020676,-1.700343,-0.057044,2.102449,-0.976683,0.0400,0.049101,0.6643,0.0020,0.3127
0.4280,0.001748,0.323599,0.013578,-1.692184,-0.054894,2.088763,-0.963651,0.003681,0.281042,0.020912,-1.701821,-0.057695,2.103618,-0.978867,0.003681,0.281042,0.020912,-1.701821,-0.057695,2.103618,-0.978867,0.0400,0.049209,0.6642,0.0021,0.3124
0.4300,0.001783,0.323400,0.013775,-1.693411,-0.055527,2.089888,-0.965771,0.003723,0.280827,0.021149,-1.703307,-0.058349,2.104793,-0.981061,0.003723,0.280827,0.021149,-1.703307,-0.058349,2.104793,-0.981061,0.0400,0.049319,0.6641,0.0021,0.3120
0.4320,0.001819,0.323201,0.013974,-1.694648,-0.056164,2.091019,-0.967904,0.003765,0.280611,0.021387,-1.704800,-0.059006,2.105974,-0.983268,0.003765,0.280611,0.021387,-1.704800,-0.059006,2.105974,-0.983268,0.0400,0.049432,0.6639,0.0022,0.3117
0.4340,0.001855,0.323003,0.014174,-1.695894,-0.056805,2.092156,-0.970048,0.003807,0.280394,0.021627,-1.706301,-0.059667,2.107161,-0.985485,0.003807,0.280394,0.021627,-1.706301,-0.059667,2.107161,-0.985485,0.0400,0.049547,0.6638,0.0023,0.3114
0.4360,0.001892,0.322806,0.014375,-1.697151,-0.057449,2.093298,-0.972204,0.003849,0.280175,0.021867,-1.707810,-0.060332,2.108354,-0.987714,0.003849,0.280175,0.021867,-1.707810,-0.060332,2.108354,-0.987714,0.0400,0.049664,0.6637,0.0024,0.3110
0.4380,0.001928,0.322610,0.014578,-1.698417,-0.058096,2.094447,-0.974371,0.003892,0.279956,0.022109,-1.709326,-0.060999,2.109553,-0.989954,0.003892,0.279956,0.022109,-1.709326,-0.060999,2.109553,-0.989954,0.0400,0.049783,0.6636,0.0024,0.3106
0.4400,0.001965,0.322414,0.014781,-1.699692,-0.058747,2.095602,-0.976551,0.003935,0.279736,0.022353,-1.710850,-0.061670,2.110758,-0.992206,0.003935,0.279736,0.022353,-1.710850,-0.061670,2.110758,-0.992206,0.0400,0.049905,0.6634,0.0025,0.3103
0.4420,0.002003,0.322218,0.014987,-1.700978,-0.059402,2.096763,-0.978741,0.003978,0.279514,0.022597,-1.712382,-0.062345,2.111969,-0.994468,0.003978,0.279514,0.022597,-1.712382,-0.062345,2.111969,-0.994468,0.0400,0.050028,0.6633,0.0026,0.3099
0.4440,0.002040,0.322024,0.015193,-1.702272,-0.060060,2.097929,-0.980943,0.004021,0.279291,0.022843,-1.713921,-0.063022,2.113186,-0.996741,0.004021,0.279291,0.022843,-1.713921,-0.063022,2.113186,-0.996741,0.0400,0.050153,0.6632,0.0027,0.3095
0.4460,0.002078,0.321830,0.015401,-1.703577,-0.060721,2.099102,-0.983157,0.004064,0.279068,0.023089,-1.715467,-0.063703,2.114409,-0.999026,0.004064,0.279068,0.023089,-1.715467,-0.063703,2.114409,-0.999026,0.0400,0.050280,0.6630,0.0028,0.3092
0.4480,0.002116,0.321636,0.015610,-1.704890,-0.061386,2.100281,-0.985382,0.004108,0.278843,0.023337,-1.717021,-0.064387,2.115638,-1.001321,0.004108,0.278843,0.023337,-1.717021,-0.064387,2.115638,-1.001321,0.0400,0.050408,0.6629,0.0028,0.3088
0.4500,0.002154,0.321443,0.015820,-1.706214,-0.062054,2.101465,-0.987618,0.004152,0.278617,0.023587,-1.718582,-0.065075,2.116873,-1.003627,0.004152,0.278617,0.023587,-1.718582,-0.065075,2.116873,-1.003627,0.0400,0.050539,0.6627,0.0029,0.3084
0.4520,0.002192,0.321250,0.016032,-1.707546,-0.062725,2.102656,-0.989866,0.004196,0.278390,0.023837,-1.720151,-0.065765,2.118113,-1.005944,0.004196,0.278390,0.023837,-1.720151,-0.065765,2.118113,-1.005944,0.0400,0.050670,0.6626,0.0030,0.3080
0.4540,0.002231,0.321057,0.016245,-1.708887,-0.063400,2.103852,-0.992124,0.004240,0.278162,0.024088,-1.721726,-0.066459,2.119359,-1.008272,0.004240,0.278162,0.024088,-1.721726,-0.066459,2.119359,-1.008272,0.0400,0.050804,0.6624,0.0031,0.3076
0.4560,0.002270,0.320865,0.016459,-1.710238,-0.064079,2.105054,-0.994394,0.004285,0.277933,0.024341,-1.723309,-0.067156,2.120611,-1.010611,0.004285,0.277933,0.024341,-1.723309,-0.067156,2.120611,-1.010611,0.0400,0.050938,0.6623,0.0032,0.3072
0.4580,0.002309,0.320673,0.016674,-1.711598,-0.064760,2.106262,-0.996675,0.004329,0.277703,0.024595,-1.724900,-0.067856,2.121868,-1.012960,0.004329,0.277703,0.024595,-1.724900,-0.067856,2.121868,-1.012960,0.0400,0.051074,0.6621,0.0032,0.3068
0.4600,0.002348,0.320482,0.016891,-1.712967,-0.065445,2.107476,-0.998967,0.004374,0.277472,0.024850,-1.726497,-0.068560,2.123132,-1.015320,0.004374,0.277472,0.024850,-1.726497,-0.068560,2.123132,-1.015320,0.0400,0.051211,0.6620,0.0033,0.3064
0.4620,0.002388,0.320290,0.017109,-1.714345,-0.066133,2.108695,-1.001270,0.004419,0.277240,0.025106,-1.728101,-0.069266,2.124400,-1.017690,0.004419,0.277240,0.025106,-1.728101,-0.069266,2.124400,-1.017690,0.0400,0.051349,0.6618,0.0034,0.3060
0.4640,0.002428,0.320099,0.017328,-1.715731,-0.066825,2.109920,-1.003584,0.004465,0.277006,0.025363,-1.729713,-0.069976,2.125675,-1.020070,0.004465,0.277006,0.025363,-1.729713,-0.069976,2.125675,-1.020070,0.0400,0.051488,0.6617,0.0035,0.3056
0.4660,0.002468,0.319907,0.017549,-1.717127,-0.067519,2.111152,-1.005909,0.004510,0.276772,0.025621,-1.731332,-0.070688,2.126955,-1.022461,0.004510,0.276772,0.025621,-1.731332,-0.070688,2.126955,-1.022461,0.0400,0.051629,0.6615,0.0036,0.3052
0.4680,0.002508,0.319716,0.017770,-1.718531,-0.068217,2.112388,-1.008244,0.004556,0.276537,0.025881,-1.732957,-0.071404,2.128240,-1.024863,0.004556,0.276537,0.025881,-1.732957,-0.071404,2.128240,-1.024863,0.0400,0.051770,0.6613,0.0037,0.3048
0.4700,0.002549,0.319525,0.017993,-1.719945,-0.068918,2.113631,-1.010591,0.004602,0.276301,0.026141,-1.734590,-0.072123,2.129531,-1.027274,0.004602,0.276301,0.026141,-1.734590,-0.072123,2.129531,-1.027274,0.0400,0.051912,0.6612,0.0038,0.3044
0.4720,0.002590,0.319334,0.018217,-1.721366,-0.069622,2.114879,-1.012947,0.004648,0.276064,0.026403,-1.736229,-0.072845,2.130827,-1.029696,0.004648,0.276064,0.026403,-1.736229,-0.072845,2.130827,-1.029696,0.0400,0.052055,0.6610,0.0039,0.3040
0.4740,0.002631,0.319142,0.018443,-1.722797,-0.070330,2.116133,-1.015315,0.004694,0.275826,0.026666,-1.737875,-0.073570,2.132129,-1.032128,0.004694,0.275826,0.026666,-1.737875,-0.073570,2.132129,-1.032128,0.0400,0.052198,0.6608,0.0039,0.3035
0.4760,0.002672,0.318951,0.018670,-1.724235,-0.071040,2.117392,-1.017693,0.004740,0.275586,0.026929,-1.739528,-0.074297,2.133436,-1.034570,0.004740,0.275586,0.026929,-1.739528,-0.074297,2.133436,-1.034570,0.0400,0.052342,0.6607,0.0040,0.3031
0.4780,0.002714,0.318759,0.018897,-1.725683,-0.071754,2.118657,-1.020081,0.004787,0.275346,0.027194,-1.741188,-0.075028,2.134749,-1.037022,0.004787,0.275346,0.027194,-1.741188,-0.075028,2.134749,-1.037022,0.0400,0.052487,0.6605,0.0041,0.3027
0.4800,0.002756,0.318567,0.019126,-1.727138,-0.072470,2.119928,-1.022480,0.004834,0.275105,0.027460,-1.742854,-0.075762,2.136067,-1.039483,0.004834,0.275105,0.027460,-1.742854,-0.075762,2.136067,-1.039483,0.0400,0.052632,0.6603,0.0042,0.3022
0.4820,0.002798,0.318375,0.019357,-1.728602,-0.073190,2.121204,-1.024889,0.004881,0.274863,0.027727,-1.744527,-0.076499,2.137390,-1.041955,0.004881,0.274863,0.027727,-1.744527,-0.076499,2.137390,-1.041955,0.0400,0.052778,0.6601,0.0043,0.3018
0.4840,0.002840,0.318183,0.019588,-1.730075,-0.073913,2.122485,-1.027309,0.004928,0.274620,0.027995,-1.746207,-0.077238,2.138718,-1.044436,0.004928,0.274620,0.027995,-1.746207,-0.077238,2.138718,-1.044436,0.0400,0.052924,0.6600,0.0044,0.3013
0.4860,0.002882,0.317990,0.019821,-1.731555,-0.074639,2.123772,-1.029738,0.004975,0.274376,0.028264,-1.747893,-0.077981,2.140051,-1.046927,0.004975,0.274376,0.028264,-1.747893,-0.077981,2.140051,-1.046927,0.0400,0.053070,0.6598,0.0045,0.3009
0.4880,0.002925,0.317797,0.020055,-1.733044,-0.075368,2.125065,-1.032178,0.005023,0.274131,0.028535,-1.749586,-0.078726,2.141390,-1.049428,0.005023,0.274131,0.028535,-1.749586,-0.078726,2.141390,-1.049428,0.0400,0.053217,0.6596,0.0046,0.3005
0.4900,0.002968,0.317604,0.020290,-1.734540,-0.076099,2.126363,-1.034628,0.005071,0.273885,0.028806,-1.751285,-0.079474,2.142734,-1.051938,0.005071,0.273885,0.028806,-1.751285,-0.079474,2.142734,-1.051938,0.0400,0.053364,0.6594,0.0047,0.3000
0.4920,0.003011,0.317410,0.020526,-1.736045,-0.076834,2.127666,-1.037087,0.005119,0.273639,0.029078,-1.752991,-0.080225,2.144083,-1.054458,0.005119,0.273639,0.029078,-1.752991,-0.080225,2.144083,-1.054458,0.0400,0.053511,0.6592,0.0048,0.2995
0.4940,0.003054,0.317215,0.020764,-1.737557,-0.077572,2.128975,-1.039557,0.005167,0.273391,0.029351,-1.754703,-0.080979,2.145436,-1.056987,0.005167,0.273391,0.029351,-1.754703,-0.080979,2.145436,-1.056987,0.0400,0.053658,0.6590,0.0049,0.2991
0.4960,0.003098,0.317020,0.021002,-1.739077,-0.078312,2.130289,-1.042037,0.005215,0.273142,0.029625,-1.756421,-0.081736,2.146795,-1.059525,0.005215,0.273142,0.029625,-1.756421,-0.081736,2.146795,-1.059525,0.0400,0.053805,0.6589,0.0050,0.2986
0.4980,0.003142,0.316825,0.021242,-1.740605,-0.079056,2.131609,-1.044526,0.005263,0.272893,0.029901,-1.758146,-0.082495,2.148159,-1.062073,0.005263,0.272893,0.029901,-1.758146,-0.082495,2.148159,-1.062073,0.0400,0.053952,0.6587,0.0051,0.2982
0.5000,0.003186,0.316629,0.021483,-1.742141,-0.079802,2.132934,-1.047025,0.005312,0.272642,0.030177,-1.759876,-0.083257,2.149528,-1.064630,0.005312,0.272642,0.030177,-1.759876,-0.083257,2.149528,-1.064630,0.0400,0.054099,0.6585,0.0052,0.2977
0.5020,0.003230,0.316432,0.021725,-1.743685,-0.080551,2.134264,-1.049534,0.005361,0.272391,0.030454,-1.761613,-0.084022,2.150901,-1.067196,0.005361,0.272391,0.030454,-1.761613,-0.084022,2.150901,-1.067196,0.0400,0.054246,0.6583,0.0053,0.2972
0.5040,0.003275,0.316235,0.021969,-1.745236,-0.081303,2.135599,-1.052052,0.005410,0.272139,0.030732,-1.763357,-0.084789,2.152280,-1.069771,0.005410,0.272139,0.030732,-1.763357,-0.084789,2.152280,-1.069771,0.0400,0.054393,0.6581,0.0054,0.2968
0.5060,0.003319,0.316037,0.022213,-1.746794,-0.082058,2.136940,-1.054580,0.005459,0.271886,0.031011,-1.765106,-0.085560,2.153663,-1.072355,0.005459,0.271886,0.031011,-1.765106,-0.085560,2.153663,-1.072355,0.0400,0.054539,0.6579,0.0055,0.2963
0.5080,0.003364,0.315839,0.022459,-1.748360,-0.082816,2.138285,-1.057117,0.005508,0.271632,0.031292,-1.766861,-0.086332,2.155051,-1.074947,0.005508,0.271632,0.031292,-1.766861,-0.086332,2.155051,-1.074947,0.0400,0.054685,0.6577,0.0056,0.2958
0.5100,0.003409,0.315639,0.022706,-1.749933,-0.083576,2.139636,-1.059663,0.005558,0.271377,0.031573,-1.768622,-0.087108,2.156444,-1.077549,0.005558,0.271377,0.031573,-1.768622,-0.087108,2.156444,-1.077549,0.0400,0.054831,0.6575,0.0057,0.2953
0.5120,0.003455,0.315439,0.022954,-1.751514,-0.084339,2.140992,-1.062219,0.005607,0.271121,0.031855,-1.770389,-0.087886,2.157841,-1.080159,0.005607,0.271121,0.031855,-1.770389,-0.087886,2.157841,-1.080159,0.0400,0.054977,0.6573,0.0058,0.2949
0.5140,0.003500,0.315238,0.023203,-1.753102,-0.085105,2.142353,-1.064784,0.005657,0.270865,0.032138,-1.772162,-0.088666,2.159243,-1.082778,0.005657,0.270865,0.032138,-1.772162,-0.088666,2.159243,-1.082778,0.0400,0.055122,0.6571,0.0059,0.2944
0.5160,0.003546,0.315036,0.023453,-1.754697,-0.085874,2.143719,-1.067358,0.005707,0.270607,0.032421,-1.773940,-0.089450,2.160649,-1.085406,0.005707,0.270607,0.032421,-1.773940,-0.089450,2.160649,-1.085406,0.0400,0.055267,0.6568,0.0061,0.2939
0.5180,0.003592,0.314833,0.023704,-1.756299,-0.086645,2.145090,-1.069941,0.005757,0.270349,0.032706,-1.775725,-0.090235,2.162061,-1.088042,0.005757,0.270349,0.032706,-1.775725,-0.090235,2.162061,-1.088042,0.0400,0.055412,0.6566,0.0062,0.2934
0.5200,0.003638,0.314630,0.023956,-1.757908,-0.087419,2.146466,-1.072533,0.005808,0.270090,0.032992,-1.777515,-0.091024,2.163476,-1.090686,0.005808,0.270090,0.032992,-1.777515,-0.091024,2.163476,-1.090686,0.0400,0.055555,0.6564,0.0063,0.2929
0.5220,0.003685,0.314425,0.024210,-1.759524,-0.088196,2.147847,-1.075134,0.005858,0.269830,0.033278,-1.779311,-0.091814,2.164896,-1.093339,0.005858,0.269830,0.033278,-1.779311,-0.091814,2.164896,-1.093339,0.0400,0.055699,0.6562,0.0064,0.2924
0.5240,0.003732,0.314220,0.024464,-1.761147,-0.088975,2.149233,-1.077744,0.005909,0.269570,0.033566,-1.781112,-0.092607,2.166321,-1.096000,0.005909,0.269570,0.033566,-1.781112,-0.092607,2.166321,-1.096000,0.0400,0.055841,0.6560,0.0065,0.2919
0.5260,0.003778,0.314014,0.024720,-1.762777,-0.089756,2.150624,-1.080362,0.005959,0.269308,0.033854,-1.782919,-0.093403,2.167750,-1.098669,0.005959,0.269308,0.033854,-1.782919,-0.093403,2.167750,-1.098669,0.0400,0.055984,0.6558,0.0066,0.2914
0.5280,0.003826,0.313806,0.024977,-1.764414,-0.090541,2.152020,-1.082990,0.006010,0.269046,0.034144,-1.784731,-0.094201,2.169183,-1.101347,0.006010,0.269046,0.034144,-1.784731,-0.094201,2.169183,-1.101347,0.0400,0.056125,0.6556,0.0067,0.2910
0.5300,0.003873,0.313598,0.025235,-1.766057,-0.091327,2.153420,-1.085625,0.006061,0.268783,0.034434,-1.786549,-0.095001,2.170620,-1.104032,0.006061,0.268783,0.034434,-1.786549,-0.095001,2.170620,-1.104032,0.0400,0.056266,0.6553,0.0069,0.2905
0.5320,0.003920,0.313388,0.025494,-1.767707,-0.092117,2.154825,-1.088270,0.006113,0.268519,0.034725,-1.788372,-0.095804,2.172062,-1.106725,0.006113,0.268519,0.034725,-1.788372,-0.095804,2.172062,-1.106725,0.0400,0.056406,0.6551,0.0070,0.2900
0.5340,0.003968,0.313178,0.025754,-1.769364,-0.092909,2.156235,-1.090922,0.006164,0.268255,0.035016,-1.790201,-0.096609,2.173508,-1.109427,0.006164,0.268255,0.035016,-1.790201,-0.096609,2.173508,-1.109427,0.0400,0.056545,0.6549,0.0071,0.2895
0.5360,0.004016,0.312966,0.026015,-1.771027,-0.093703,2.157649,-1.093583,0.006216,0.267990,0.035309,-1.792035,-0.097417,2.174958,-1.112135,0.006216,0.267990,0.035309,-1.792035,-0.097417,2.174958,-1.112135,0.0400,0.056683,0.6547,0.0072,0.2889
0.5380,0.004064,0.312754,0.026277,-1.772697,-0.094500,2.159068,-1.096253,0.006267,0.267724,0.035603,-1.793873,-0.098226,2.176412,-1.114852,0.006267,0.267724,0.035603,-1.793873,-0.098226,2.176412,-1.114852,0.0400,0.056821,0.6544,0.0073,0.2884
0.5400,0.004113,0.312540,0.026540,-1.774373,-0.095299,2.160492,-1.098930,0.006319,0.267457,0.035897,-1.795718,-0.099038,2.177870,-1.117576,0.006319,0.267457,0.035897,-1.795718,-0.099038,2.177870,-1.117576,0.0400,0.056958,0.6542,0.0075,0.2879
0.5420,0.004161,0.312325,0.026805,-1.776055,-0.096100,2.161920,-1.101616,0.006371,0.267189,0.036192,-1.797567,-0.099853,2.179333,-1.120308,0.006371,0.267189,0.036192,-1.797567,-0.099853,2.179333,-1.120308,0.0400,0.057094,0.6540,0.0076,0.2874
0.5440,0.004210,0.312109,0.027070,-1.777744,-0.096904,2.163353,-1.104309,0.006423,0.266921,0.036488,-1.799421,-0.100669,2.180799,-1.123047,0.006423,0.266921,0.036488,-1.799421,-0.100669,2.180799,-1.123047,0.0400,0.057229,0.6537,0.0077,0.2869
0.5460,0.004259,0.311892,0.027336,-1.779439,-0.097711,2.164790,-1.107011,0.006475,0.266652,0.036785,-1.801280,-0.101488,2.182269,-1.125794,0.006475,0.266652,0.036785,-1.801280,-0.101488,2.182269,-1.125794,0.0400,0.057363,0.6535,0.0078,0.2864
0.5480,0.004308,0.311674,0.027604,-1.781140,-0.098519,2.166231,-1.109720,0.006528,0.266382,0.037082,-1.803144,-0.102308,2.183743,-1.128547,0.006528,0.266382,0.037082,-1.803144,-0.102308,2.183743,-1.128547,0.0400,0.057496,0.6532,0.0079,0.2859
0.5500,0.004358,0.311454,0.027872,-1.782847,-0.099330,2.167677,-1.112437,0.006580,0.266112,0.037380,-1.805013,-0.103131,2.185221,-1.131308,0.006580,0.266112,0.037380,-1.805013,-0.103131,2.185221,-1.131308,0.0400,0.057628,0.6530,0.0081,0.2854
0.5520,0.004408,0.311233,0.028142,-1.784560,-0.100143,2.169127,-1.115162,0.006633,0.265841,0.037679,-1.806887,-0.103956,2.186703,-1.134076,0.006633,0.265841,0.037679,-1.806887,-0.103956,2.186703,-1.134076,0.0400,0.057759,0.6528,0.0082,0.2849
0.5540,0.004457,0.311011,0.028412,-1.786279,-0.100959,2.170582,-1.117895,0.006686,0.265569,0.037979,-1.808765,-0.104783,2.188189,-1.136851,0.006686,0.265569,0.037979,-1.808765,-0.104783,2.188189,-1.136851,0.0400,0.057889,0.6525,0.0083,0.2844
0.5560,0.004508,0.310788,0.028684,-1.788004,-0.101777,2.172040,-1.120635,0.006738,0.265296,0.038280,-1.810649,-0.105613,2.189678,-1.139633,0.006738,0.265296,0.038280,-1.810649,-0.105613,2.189678,-1.139633,0.0400,0.058018,0.6523,0.0085,0.2838
0.5580,0.004558,0.310564,0.028956,-1.789734,-0.102597,2.173503,-1.123382,0.006791,0.265023,0.038581,-1.812536,-0.106444,2.191171,-1.142422,0.006791,0.265023,0.038581,-1.812536,-0.106444,2.191171,-1.142422,0.0400,0.058146,0.6520,0.0086,0.2833
0.5600,0.004608,0.310338,0.029230,-1.791471,-0.103419,2.174970,-1.126137,0.006845,0.264749,0.038883,-1.814429,-0.107277,2.192667,-1.145218,0.006845,0.264749,0.038883,-1.814429,-0.107277,2.192667,-1.145218,0.0400,0.058273,0.6518,0.0087,0.2828
0.5620,0.004659,0.310111,0.029504,-1.793213,-0.104243,2.176441,-1.128899,0.006898,0.264475,0.039186,-1.816326,-0.108112,2.194167,-1.148020,0.006898,0.264475,0.039186,-1.816326,-0.108112,2.194167,-1.148020,0.0400,0.058398,0.6515,0.0089,0.2823
0.5640,0.004710,0.309883,0.029780,-1.794961,-0.105069,2.177916,-1.131668,0.006951,0.264200,0.039489,-1.818227,-0.108950,2.195671,-1.150829,0.006951,0.264200,0.039489,-1.818227,-0.108950,2.195671,-1.150829,0.0400,0.058523,0.6513,0.0090,0.2818
0.5660,0.004761,0.309653,0.030056,-1.796715,-0.105898,2.179395,-1.134444,0.007005,0.263924,0.039793,-1.820133,-0.109789,2.197178,-1.153644,0.007005,0.263924,0.039793,-1.820133,-0.109789,2.197178,-1.153644,0.0400,0.058646,0.6510,0.0091,0.2812
0.5680,0.004813,0.309423,0.030333,-1.798474,-0.106728,2.180879,-1.137228,0.007059,0.263648,0.040098,-1.822043,-0.110630,2.198688,-1.156466,0.007059,0.263648,0.040098,-1.822043,-0.110630,2.198688,-1.156466,0.0400,0.058769,0.6507,0.0093,0.2807
0.5700,0.004864,0.309191,0.030612,-1.800238,-0.107561,2.182365,-1.140018,0.007112,0.263371,0.040404,-1.823957,-0.111473,2.200202,-1.159294,0.007112,0.263371,0.040404,-1.823957,-0.111473,2.200202,-1.159294,0.0400,0.058890,0.6505,0.0094,0.2802
0.5720,0.004916,0.308957,0.030891,-1.802008,-0.108395,2.183856,-1.142815,0.007166,0.263093,0.040710,-1.825876,-0.112317,2.201719,-1.162128,0.007166,0.263093,0.040710,-1.825876,-0.112317,2.201719,-1.162128,0.0400,0.059009,0.6502,0.0095,0.2796
0.5740,0.004968,0.308723,0.031171,-1.803783,-0.109232,2.185351,-1.145619,0.007220,0.262815,0.041017,-1.827799,-0.113164,2.203240,-1.164968,0.007220,0.262815,0.041017,-1.827799,-0.113164,2.203240,-1.164968,0.0400,0.059128,0.6500,0.0097,0.2791
0.5760,0.005020,0.308487,0.031453,-1.805564,-0.110071,2.186849,-1.148430,0.007274,0.262536,0.041324,-1.829725,-0.114012,2.204764,-1.167815,0.007274,0.262536,0.041324,-1.829725,-0.114012,2.204764,-1.167815,0.0400,0.059245,0.6497,0.0098,0.2786
0.5780,0.005072,0.308250,0.031735,-1.807350,-0.110911,2.188351,-1.151247,0.007329,0.262257,0.041632,-1.831656,-0.114863,2.206290,-1.170667,0.007329,0.262257,0.041632,-1.831656,-0.114863,2.206290,-1.170667,0.0400,0.059361,0.6494,0.0099,0.2781
0.5800,0.005125,0.308011,0.032018,-1.809141,-0.111754,2.189857,-1.154070,0.007383,0.261977,0.041941,-1.833591,-0.115714,2.207820,-1.173525,0.007383,0.261977,0.041941,-1.833591,-0.115714,2.207820,-1.173525,0.0400,0.059476,0.6492,0.0101,0.2775
0.5820,0.005178,0.307772,0.032302,-1.810937,-0.112598,2.191366,-1.156900,0.007437,0.261697,0.042251,-1.835530,-0.116568,2.209354,-1.176389,0.007437,0.261697,0.042251,-1.835530,-0.116568,2.209354,-1.176389,0.0400,0.059590,0.6489,0.0102,0.2770
0.5840,0.005231,0.307531,0.032587,-1.812738,-0.113444,2.192879,-1.159736,0.007492,0.261415,0.042561,-1.837472,-0.117423,2.210890,-1.179259,0.007492,0.261415,0.042561,-1.837472,-0.117423,2.210890,-1.179259,0.0400,0.059702,0.6486,0.0104,0.2765
0.5860,0.005284,0.307288,0.032873,-1.814544,-0.114292,2.194395,-1.162579,0.007547,0.261134,0.042871,-1.839419,-0.118280,2.212429,-1.182134,0.007547,0.261134,0.042871,-1.839419,-0.118280,2.212429,-1.182134,0.0400,0.059813,0.6484,0.0105,0.2759
0.5880,0.005337,0.307045,0.033160,-1.816355,-0.115142,2.195915,-1.165428,0.007601,0.260852,0.043182,-1.841369,-0.119139,2.213971,-1.185015,0.007601,0.260852,0.043182,-1.841369,-0.119139,2.213971,-1.185015,0.0400,0.059922,0.6481,0.0107,0.2754
0.5900,0.005391,0.306800,0.033447,-1.818171,-0.115994,2.197438,-1.168282,0.007656,0.260569,0.043494,-1.843322,-0.119999,2.215516,-1.187901,0.007656,0.260569,0.043494,-1.843322,-0.119999,2.215516,-1.187901,0.0400,0.060031,0.6478,0.0108,0.2749
0.5920,0.005445,0.306553,0.033736,-1.819992,-0.116847,2.198965,-1.171143,0.007711,0.260286,0.043807,-1.845280,-0.120861,2.217064,-1.190792,0.007711,0.260286,0.043807,-1.845280,-0.120861,2.217064,-1.190792,0.0400,0.060137,0.6475,0.0110,0.2743
0.5940,0.005499,0.306306,0.034025,-1.821818,-0.117703,2.200494,-1.174009,0.007766,0.260002,0.044120,-1.847241,-0.121725,2.218614,-1.193689,0.007766,0.260002,0.044120,-1.847241,-0.121725,2.218614,-1.193689,0.0400,0.060243,0.6472,0.0111,0.2738
0.5960,0.005553,0.306057,0.034316,-1.823648,-0.118560,2.202027,-1.176882,0.007822,0.259718,0.044433,-1.849205,-0.122590,2.220168,-1.196591,0.007822,0.259718,0.044433,-1.849205,-0.122590,2.220168,-1.196591,0.0400,0.060347,0.6470,0.0113,0.2733
0.5980,0.005607,0.305807,0.034607,-1.825483,-0.119418,2.203563,-1.179760,0.007877,0.259433,0.044747,-1.851173,-0.123456,2.221724,-1.199498,0.007877,0.259433,0.044747,-1.851173,-0.123456,2.221724,-1.199498,0.0400,0.060450,0.6467,0.0114,0.2727
0.6000,0.005662,0.305556,0.034899,-1.827323,-0.120279,2.205103,-1.182643,0.007932,0.259148,0.045062,-1.853144,-0.124324,2.223283,-1.202410,0.007932,0.259148,0.045062,-1.853144,-0.124324,2.223283,-1.202410,0.0400,0.060551,0.6464,0.0116,0.2722
0.6020,0.005717,0.305303,0.035192,-1.829167,-0.121140,2.206645,-1.185532,0.007988,0.258862,0.045377,-1.855118,-0.125193,2.224844,-1.205327,0.007988,0.258862,0.045377,-1.855118,-0.125193,2.224844,-1.205327,0.0400,0.060651,0.6461,0.0117,0.2716
0.6040,0.005772,0.305049,0.035485,-1.831016,-0.122004,2.208191,-1.188426,0.008043,0.258576,0.045692,-1.857096,-0.126064,2.226408,-1.208248,0.008043,0.258576,0.045692,-1.857096,-0.126064,2.226408,-1.208248,0.0400,0.060750,0.6458,0.0119,0.2711
0.6060,0.005827,0.304794,0.035780,-1.832869,-0.122869,2.209739,-1.191326,0.008099,0.258290,0.046009,-1.859077,-0.126936,2.227974,-1.211174,0.008099,0.258290,0.046009,-1.859077,-0.126936,2.227974,-1.211174,0.0400,0.060847,0.6455,0.0120,0.2706
0.6080,0.005882,0.304538,0.036075,-1.834726,-0.123736,2.211290,-1.194231,0.008155,0.258003,0.046325,-1.861061,-0.127810,2.229543,-1.214105,0.008155,0.258003,0.046325,-1.861061,-0.127810,2.229543,-1.214105,0.0400,0.060942,0.6452,0.0122,0.2700
0.6100,0.005938,0.304280,0.036372,-1.836588,-0.124604,2.212844,-1.197141,0.008211,0.257715,0.046642,-1.863048,-0.128685,2.231114,-1.217040,0.008211,0.257715,0.046642,-1.863048,-0.128685,2.231114,-1.217040,0.0400,0.061037,0.6449,0.0123,0.2695
0.6120,0.005994,0.304021,0.036669,-1.838454,-0.125473,2.214401,-1.200056,0.008266,0.257427,0.046960,-1.865038,-0.129561,2.232688,-1.219980,0.008266,0.257427,0.046960,-1.865038,-0.129561,2.232688,-1.219980,0.0400,0.061129,0.6446,0.0125,0.2689
0.6140,0.006050,0.303761,0.036967,-1.840325,-0.126345,2.215961,-1.202976,0.008322,0.257139,0.047278,-1.867030,-0.130438,2.234264,-1.222924,0.008322,0.257139,0.047278,-1.867030,-0.130438,2.234264,-1.222924,0.0400,0.061221,0.6443,0.0126,0.2684
0.6160,0.006106,0.303500,0.037265,-1.842199,-0.127217,2.217523,-1.205901,0.008378,0.256850,0.047596,-1.869026,-0.131317,2.235842,-1.225872,0.008378,0.256850,0.047596,-1.869026,-0.131317,2.235842,-1.225872,0.0400,0.061311,0.6440,0.0128,0.2678
0.6180,0.006162,0.303238,0.037565,-1.844078,-0.128091,2.219089,-1.208831,0.008435,0.256561,0.047915,-1.871024,-0.132197,2.237422,-1.228824,0.008435,0.256561,0.047915,-1.871024,-0.132197,2.237422,-1.228824,0.0400,0.061399,0.6437,0.0130,0.2673
0.6200,0.006219,0.302974,0.037865,-1.845960,-0.128967,2.220656,-1.211765,0.008491,0.256271,0.048235,-1.873026,-0.133078,2.239005,-1.231780,0.008491,0.256271,0.048235,-1.873026,-0.133078,2.239005,-1.231780,0.0400,0.061486,0.6434,0.0131,0.2668
0.6220,0.006275,0.302709,0.038166,-1.847847,-0.129843,2.222226,-1.214704,0.008547,0.255982,0.048554,-1.875029,-0.133960,2.240589,-1.234740,0.008547,0.255982,0.048554,-1.875029,-0.133960,2.240589,-1.234740,0.0400,0.061571,0.6431,0.0133,0.2662
0.6240,0.006332,0.302443,0.038467,-1.849738,-0.130721,2.223799,-1.217647,0.008603,0.255691,0.048875,-1.877036,-0.134844,2.242176,-1.237704,0.008603,0.255691,0.048875,-1.877036,-0.134844,2.242176,-1.237704,0.0400,0.061655,0.6428,0.0134,0.2657
0.6260,0.006389,0.302176,0.038770,-1.851632,-0.131601,2.225374,-1.220595,0.008660,0.255401,0.049195,-1.879045,-0.135728,2.243765,-1.240672,0.008660,0.255401,0.049195,-1.879045,-0.135728,2.243765,-1.240672,0.0400,0.061738,0.6425,0.0136,0.2651
0.6280,0.006447,0.301908,0.039073,-1.853530,-0.132481,2.226952,-1.223547,0.008716,0.255110,0.049516,-1.881056,-0.136614,2.245355,-1.243643,0.008716,0.255110,0.049516,-1.881056,-0.136614,2.245355,-1.243643,0.0400,0.061819,0.6422,0.0138,0.2646
0.6300,0.006504,0.301639,0.039377,-1.855432,-0.133363,2.228532,-1.226503,0.008773,0.254818,0.049838,-1.883070,-0.137501,2.246948,-1.246618,0.008773,0.254818,0.049838,-1.883070,-0.137501,2.246948,-1.246618,0.0400,0.061898,0.6419,0.0139,0.2640
0.6320,0.006562,0.301368,0.039682,-1.857338,-0.134246,2.230114,-1.229464,0.008830,0.254527,0.050159,-1.885086,-0.138388,2.248542,-1.249596,0.008830,0.254527,0.050159,-1.885086,-0.138388,2.248542,-1.249596,0.0400,0.061976,0.6416,0.0141,0.2635
0.6340,0.006620,0.301096,0.039987,-1.859247,-0.135131,2.231698,-1.232428,0.008886,0.254235,0.050482,-1.887104,-0.139277,2.250138,-1.252578,0.008886,0.254235,0.050482,-1.887104,-0.139277,2.250138,-1.252578,0.0400,0.062053,0.6412,0.0143,0.2629
0.6360,0.006678,0.300824,0.040293,-1.861160,-0.136016,2.233284,-1.235396,0.008943,0.253942,0.050804,-1.889125,-0.140167,2.251736,-1.255563,0.008943,0.253942,0.050804,-1.889125,-0.140167,2.251736,-1.255563,0.0400,0.062128,0.6409,0.0144,0.2624
0.6380,0.006736,0.300550,0.040600,-1.863077,-0.136903,2.234873,-1.238368,0.009000,0.253650,0.051127,-1.891147,-0.141057,2.253335,-1.258551,0.009000,0.253650,0.051127,-1.891147,-0.141057,2.253335,-1.258551,0.0400,0.062201,0.6406,0.0146,0.2618
0.6400,0.006794,0.300275,0.040908,-1.864997,-0.137791,2.236463,-1.241344,0.009057,0.253357,0.051450,-1.893172,-0.141949,2.254937,-1.261542,0.009057,0.253357,0.051450,-1.893172,-0.141949,2.254937,-1.261542,0.0400,0.062273,0.6403,0.0148,0.2613
0.6420,0.006853,0.299999,0.041216,-1.866921,-0.138680,2.238056,-1.244323,0.009114,0.253063,0.051773,-1.895199,-0.142841,2.256539,-1.264536,0.009114,0.253063,0.051773,-1.895199,-0.142841,2.256539,-1.264536,0.0400,0.062343,0.6400,0.0149,0.2607
0.6440,0.006911,0.299722,0.041525,-1.868848,-0.139569,2.239651,-1.247306,0.009171,0.252770,0.052097,-1.897227,-0.143734,2.258144,-1.267533,0.009171,0.252770,0.052097,-1.897227,-0.143734,2.258144,-1.267533,0.0400,0.062412,0.6396,0.0151,0.2602
0.6460,0.006970,0.299444,0.041834,-1.870778,-0.140460,2.241247,-1.250292,0.009228,0.252476,0.052421,-1.899258,-0.144628,2.259749,-1.270532,0.009228,0.252476,0.052421,-1.899258,-0.144628,2.259749,-1.270532,0.0400,0.062480,0.6393,0.0153,0.2596
0.6480,0.007029,0.299165,0.042145,-1.872711,-0.141352,2.242845,-1.253282,0.009285,0.252182,0.052746,-1.901290,-0.145523,2.261356,-1.273535,0.009285,0.252182,0.052746,-1.901290,-0.145523,2.261356,-1.273535,0.0400,0.062545,0.6390,0.0155,0.2591
0.6500,0.007088,0.298886,0.042455,-1.874648,-0.142245,2.244445,-1.256275,0.009342,0.251888,0.053070,-1.903324,-0.146419,2.262965,-1.276539,0.009342,0.251888,0.053070,-1.903324,-0.146419,2.262965,-1.276539,0.0400,0.062609,0.6386,0.0156,0.2585
0.6520,0.007148,0.298605,0.042767,-1.876588,-0.143139,2.246047,-1.259270,0.009399,0.251593,0.053395,-1.905360,-0.147315,2.264575,-1.279547,0.009399,0.251593,0.053395,-1.905360,-0.147315,2.264575,-1.279547,0.0400,0.062672,0.6383,0.0158,0.2580
0.6540,0.007207,0.298323,0.043079,-1.878531,-0.144034,2.247650,-1.262269,0.009456,0.251298,0.053720,-1.907397,-0.148212,2.266186,-1.282556,0.009456,0.251298,0.053720,-1.907397,-0.148212,2.266186,-1.282556,0.0400,0.062733,0.6380,0.0160,0.2574
0.6560,0.007267,0.298040,0.043392,-1.880477,-0.144929,2.249255,-1.265271,0.009514,0.251003,0.054046,-1.909436,-0.149110,2.267798,-1.285568,0.009514,0.251003,0.054046,-1.909436,-0.149110,2.267798,-1.285568,0.0400,0.062793,0.6376,0.0162,0.2569
0.6580,0.007327,0.297756,0.043705,-1.882426,-0.145826,2.250862,-1.268276,0.009571,0.250708,0.054371,-1.911477,-0.150008,2.269412,-1.288582,0.009571,0.250708,0.054371,-1.911477,-0.150008,2.269412,-1.288582,0.0400,0.062851,0.6373,0.0163,0.2563
0.6600,0.007387,0.297472,0.044019,-1.884378,-0.146723,2.252470,-1.271284,0.009628,0.250413,0.054697,-1.913518,-0.150907,2.271026,-1.291599,0.009628,0.250413,0.054697,-1.913518,-0.150907,2.271026,-1.291599,0.0400,0.062907,0.6370,0.0165,0.2558
0.6620,0.007447,0.297186,0.044333,-1.886333,-0.147621,2.254079,-1.274294,0.009686,0.250117,0.055023,-1.915562,-0.151807,2.272642,-1.294617,0.009686,0.250117,0.055023,-1.915562,-0.151807,2.272642,-1.294617,0.0400,0.062962,0.6366,0.0167,0.2552
0.6640,0.007507,0.296900,0.044649,-1.888291,-0.148520,2.255690,-1.277306,0.009743,0.249821,0.055349,-1.917606,-0.152707,2.274259,-1.297637,0.009743,0.249821,0.055349,-1.917606,-0.152707,2.274259,-1.297637,0.0400,0.063015,0.6363,0.0169,0.2547
0.6660,0.007568,0.296613,0.044964,-1.890251,-0.149420,2.257302,-1.280321,0.009801,0.249526,0.055676,-1.919651,-0.153608,2.275876,-1.300659,0.009801,0.249526,0.055676,-1.919651,-0.153608,2.275876,-1.300659,0.0400,0.063067,0.6359,0.0171,0.2541
0.6680,0.007628,0.296325,0.045280,-1.892214,-0.150320,2.258916,-1.283339,0.009858,0.249229,0.056002,-1.921698,-0.154509,2.277495,-1.303682,0.009858,0.249229,0.056002,-1.921698,-0.154509,2.277495,-1.303682,0.0400,0.063117,0.6356,0.0172,0.2536
0.6700,0.007689,0.296036,0.045597,-1.894180,-0.151221,2.260530,-1.286359,0.009916,0.248933,0.056329,-1.923746,-0.155411,2.279114,-1.306707,0.009916,0.248933,0.056329,-1.923746,-0.155411,2.279114,-1.306707,0.0400,0.063166,0.6352,0.0174,0.2530
0.6720,0.007750,0.295746,0.045914,-1.896149,-0.152123,2.262146,-1.289380,0.009973,0.248637,0.056656,-1.925795,-0.156313,2.280734,-1.309734,0.009973,0.248637,0.056656,-1.925795,-0.156313,2.280734,-1.309734,0.0400,0.063213,0.6349,0.0176,0.2524
0.6740,0.007811,0.295456,0.046232,-1.898120,-0.153025,2.263763,-1.292404,0.010031,0.248340,0.056983,-1.927844,-0.157215,2.282355,-1.312762,0.010031,0.248340,0.056983,-1.927844,-0.157215,2.282355,-1.312762,0.0400,0.063258,0.6345,0.0178,0.2519
0.6760,0.007872,0.295165,0.046551,-1.900093,-0.153928,2.265381,-1.295430,0.010088,0.248043,0.057311,-1.929895,-0.158118,2.283977,-1.315791,0.010088,0.248043,0.057311,-1.929895,-0.158118,2.283977,-1.315791,0.0400,0.063302,0.6342,0.0180,0.2513
0.6780,0.007934,0.294873,0.046870,-1.902069,-0.154832,2.267000,-1.298458,0.010146,0.247747,0.057638,-1.931946,-0.159022,2.285599,-1.318821,0.010146,0.247747,0.057638,-1.931946,-0.159022,2.285599,-1.318821,0.0400,0.063344,0.6338,0.0182,0.2508
0.6800,0.007995,0.294580,0.047189,-1.904048,-0.155736,2.268620,-1.301487,0.010204,0.247450,0.057966,-1.933999,-0.159925,2.287222,-1.321853,0.010204,0.247450,0.057966,-1.933999,-0.159925,2.287222,-1.321853,0.0400,0.063385,0.6335,0.0184,0.2502
0.6820,0.008057,0.294286,0.047509,-1.906028,-0.156641,2.270241,-1.304519,0.010261,0.247153,0.058293,-1.936051,-0.160829,2.288845,-1.324886,0.010261,0.247153,0.058293,-1.936051,-0.160829,2.288845,-1.324886,0.0400,0.063424,0.6331,0.0185,0.2497
0.6840,0.008119,0.293992,0.047829,-1.908011,-0.157546,2.271862,-1.307551,0.010319,0.246856,0.058621,-1.938105,-0.161733,2.290469,-1.327919,0.010319,0.246856,0.058621,-1.938105,-0.161733,2.290469,-1.327919,0.0400,0.063462,0.6328,0.0187,0.2491
0.6860,0.008181,0.293698,0.048150,-1.909996,-0.158451,2.273484,-1.310586,0.010377,0.246558,0.058949,-1.940159,-0.162638,2.292093,-1.330953,0.010377,0.246558,0.058949,-1.940159,-0.162638,2.292093,-1.330953,0.0400,0.063498,0.6324,0.0189,0.2486
0.6880,0.008243,0.293402,0.048471,-1.911984,-0.159357,2.275108,-1.313621,0.010435,0.246261,0.059277,-1.942213,-0.163542,2.293718,-1.333988,0.010435,0.246261,0.059277,-1.942213,-0.163542,2.293718,-1.333988,0.0400,0.063532,0.6320,0.0191,0.2480
0.6900,0.008305,0.293106,0.048793,-1.913973,-0.160263,2.276731,-1.316658,0.010492,0.245964,0.059604,-1.944268,-0.164447,2.295343,-1.337024,0.010492,0.245964,0.059604,-1.944268,-0.164447,2.295343,-1.337024,0.0400,0.063565,0.6317,0.0193,0.2475
0.6920,0.008367,0.292809,0.049115,-1.915965,-0.161170,2.278356,-1.319696,0.010550,0.245667,0.059932,-1.946323,-0.165352,2.296968,-1.340060,0.010550,0.245667,0.059932,-1.946323,-0.165352,2.296968,-1.340060,0.0400,0.063596,0.6313,0.0195,0.2469
0.6940,0.008429,0.292512,0.049437,-1.917958,-0.162077,2.279981,-1.322735,0.010608,0.245369,0.060260,-1.948378,-0.166257,2.298593,-1.343096,0.010608,0.245369,0.060260,-1.948378,-0.166257,2.298593,-1.343096,0.0400,0.063625,0.6309,0.0197,0.2463
0.6960,0.008492,0.292214,0.049760,-1.919953,-0.162985,2.281606,-1.325775,0.010665,0.245072,0.060589,-1.950434,-0.167162,2.300219,-1.346133,0.010665,0.245072,0.060589,-1.950434,-0.167162,2.300219,-1.346133,0.0400,0.063653,0.6306,0.0199,0.2458
0.6980,0.008555,0.291915,0.050084,-1.921951,-0.163892,2.283232,-1.328816,0.010723,0.244774,0.060917,-1.952490,-0.168067,2.301844,-1.349169,0.010723,0.244774,0.060917,-1.952490,-0.168067,2.301844,-1.349169,0.0400,0.063680,0.6302,0.0201,0.2452
0.7000,0.008617,0.291616,0.050408,-1.923950,-0.164800,2.284858,-1.331857,0.010781,0.244477,0.061245,-1.954546,-0.168972,2.303470,-1.352206,0.010781,0.244477,0.061245,-1.954546,-0.168972,2.303470,-1.352206,0.0400,0.063705,0.6298,0.0203,0.2447
0.7020,0.008680,0.291317,0.050732,-1.925950,-0.165708,2.286485,-1.334900,0.010839,0.244179,0.061573,-1.956602,-0.169877,2.305096,-1.355243,0.010839,0.244179,0.061573,-1.956602,-0.169877,2.305096,-1.355243,0.0400,0.063728,0.6294,0.0205,0.2441
0.7040,0.008743,0.291016,0.051056,-1.927953,-0.166617,2.288111,-1.337942,0.010897,0.243882,0.061901,-1.958657,-0.170783,2.306722,-1.358280,0.010897,0.243882,0.061901,-1.958657,-0.170783,2.306722,-1.358280,0.0400,0.063749,0.6291,0.0206,0.2436
0.7060,0.008806,0.290716,0.051381,-1.929957,-0.167525,2.289738,-1.340986,0.010954,0.243585,0.062229,-1.960713,-0.171688,2.308347,-1.361317,0.010954,0.243585,0.062229,-1.960713,-0.171688,2.308347,-1.361317,0.0400,0.063769,0.6287,0.0208,0.2430
0.7080,0.008870,0.290415,0.051706,-1.931963,-0.168434,2.291366,-1.344029,0.011012,0.243287,0.062557,-1.962768,-0.172593,2.309973,-1.364353,0.011012,0.243287,0.062557,-1.962768,-0.172593,2.309973,-1.364353,0.0400,0.063788,0.6283,0.0210,0.2425
0.7100,0.008933,0.290113,0.052032,-1.933970,-0.169342,2.292993,-1.347073,0.011070,0.242990,0.062885,-1.964823,-0.173498,2.311598,-1.367389,0.011070,0.242990,0.062885,-1.964823,-0.173498,2.311598,-1.367389,0.0400,0.063805,0.6279,0.0212,0.2419
0.7120,0.008996,0.289811,0.052358,-1.935979,-0.170251,2.294620,-1.350118,0.011127,0.242693,0.063213,-1.966878,-0.174402,2.313223,-1.370425,0.011127,0.242693,0.063213,-1.966878,-0.174402,2.313223,-1.370425,0.0400,0.063820,0.6275,0.0214,0.2413
0.7140,0.009060,0.289508,0.052684,-1.937989,-0.171160,2.296248,-1.353162,0.011185,0.242395,0.063541,-1.968933,-0.175307,2.314847,-1.373460,0.011185,0.242395,0.063541,-1.968933,-0.175307,2.314847,-1.373460,0.0400,0.063833,0.6272,0.0216,0.2408
0.7160,0.009123,0.289205,0.053010,-1.940000,-0.172069,2.297875,-1.356206,0.011243,0.242098,0.063869,-1.970987,-0.176211,2.316472,-1.376494,0.011243,0.242098,0.063869,-1.970987,-0.176211,2.316472,-1.376494,0.0400,0.063846,0.6268,0.0218,0.2402
0.7180,0.009187,0.288902,0.053337,-1.942013,-0.172978,2.299502,-1.359250,0.011301,0.241801,0.064196,-1.973040,-0.177116,2.318095,-1.379527,0.011301,0.241801,0.064196,-1.973040,-0.177116,2.318095,-1.379527,0.0400,0.063856,0.6264,0.0220,0.2397
0.7200,0.009251,0.288598,0.053664,-1.944026,-0.173886,2.301129,-1.362294,0.011358,0.241504,0.064524,-1.975093,-0.178019,2.319719,-1.382560,0.011358,0.241504,0.064524,-1.975093,-0.178019,2.319719,-1.382560,0.0400,0.063865,0.6260,0.0222,0.2391
0.7220,0.009315,0.288294,0.053992,-1.946041,-0.174795,2.302756,-1.365337,0.011416,0.241207,0.064851,-1.977145,-0.178923,2.321342,-1.385591,0.011416,0.241207,0.064851,-1.977145,-0.178923,2.321342,-1.385591,0.0400,0.063872,0.6256,0.0224,0.2386
0.7240,0.009379,0.287989,0.054319,-1.948058,-0.175704,2.304383,-1.368380,0.011474,0.240910,0.065179,-1.979196,-0.179826,2.322964,-1.388622,0.011474,0.240910,0.065179,-1.979196,-0.179826,2.322964,-1.388622,0.0400,0.063878,0.6252,0.0226,0.2380
0.7260,0.009443,0.287685,0.054647,-1.950075,-0.176612,2.306009,-1.371423,0.011531,0.240614,0.065506,-1.981247,-0.180729,2.324585,-1.391651,0.011531,0.240614,0.065506,-1.981247,-0.180729,2.324585,-1.391651,0.0400,0.063882,0.6248,0.0228,0.2375
0.7280,0.009507,0.287379,0.054975,-1.952093,-0.177520,2.307635,-1.374465,0.011589,0.240317,0.065833,-1.983297,-0.181632,2.326206,-1.394679,0.011589,0.240317,0.065833,-1.983297,-0.181632,2.326206,-1.394679,0.0400,0.063884,0.6244,0.0230,0.2369
0.7300,0.009571,0.287074,0.055304,-1.954112,-0.178429,2.309260,-1.377506,0.011646,0.240021,0.066160,-1.985345,-0.182534,2.327826,-1.397706,0.011646,0.240021,0.066160,-1.985345,-0.182534,2.327826,-1.397706,0.0400,0.063885,0.6240,0.0233,0.2364
0.7320,0.009636,0.286768,0.055632,-1.956132,-0.179336,2.310885,-1.380547,0.011704,0.239724,0.066487,-1.987393,-0.183435,2.329446,-1.400731,0.011704,0.239724,0.066487,-1.987393,-0.183435,2.329446,-1.400731,0.0400,0.063884,0.6236,0.0235,0.2358
0.7340,0.009700,0.286462,0.055961,-1.958152,-0.180244,2.312509,-1.383586,0.011761,0.239428,0.066814,-1.989440,-0.184337,2.331064,-1.403754,0.011761,0.239428,0.066814,-1.989440,-0.184337,2.331064,-1.403754,0.0400,0.063882,0.6232,0.0237,0.2353
0.7360,0.009764,0.286156,0.056290,-1.960174,-0.181151,2.314133,-1.386624,0.011819,0.239132,0.067140,-1.991486,-0.185237,2.332682,-1.406776,0.011819,0.239132,0.067140,-1.991486,-0.185237,2.332682,-1.406776,0.0400,0.063878,0.6228,0.0239,0.2347
0.7380,0.009829,0.285849,0.056619,-1.962196,-0.182059,2.315756,-1.389662,0.011876,0.238837,0.067466,-1.993530,-0.186137,2.334299,-1.409796,0.011876,0.238837,0.067466,-1.993530,-0.186137,2.334299,-1.409796,0.0400,0.063872,0.6224,0.0241,0.2341
0.7400,0.009893,0.285542,0.056948,-1.964218,-0.182965,2.317379,-1.392698,0.011934,0.238541,0.067792,-1.995573,-0.187037,2.335914,-1.412814,0.011934,0.238541,0.067792,-1.995573,-0.187037,2.335914,-1.412814,0.0400,0.063865,0.6220,0.0243,0.2336
0.7420,0.009958,0.285235,0.057278,-1.966242,-0.183872,2.319000,-1.395733,0.011991,0.238246,0.068118,-1.997615,-0.187936,2.337529,-1.415831,0.011991,0.238246,0.068118,-1.997615,-0.187936,2.337529,-1.415831,0.0400,0.063857,0.6216,0.0245,0.2330
0.7440,0.010023,0.284928,0.057607,-1.968265,-0.184778,2.320621,-1.398766,0.012048,0.237950,0.068444,-1.999655,-0.188834,2.339142,-1.418845,0.012048,0.237950,0.068444,-1.999655,-0.188834,2.339142,-1.418845,0.0400,0.063846,0.6212,0.0247,0.2325
0.7460,0.010088,0.284620,0.057937,-1.970290,-0.185683,2.322241,-1.401798,0.012106,0.237655,0.068769,-2.001694,-0.189732,2.340755,-1.421857,0.012106,0.237655,0.068769,-2.001694,-0.189732,2.340755,-1.421857,0.0400,0.063834,0.6208,0.0249,0.2319
0.7480,0.010152,0.284312,0.058267,-1.972314,-0.186588,2.323860,-1.404828,0.012163,0.237361,0.069094,-2.003731,-0.190629,2.342366,-1.424866,0.012163,0.237361,0.069094,-2.003731,-0.190629,2.342366,-1.424866,0.0400,0.063821,0.6204,0.0251,0.2314
0.7500,0.010217,0.284005,0.058597,-1.974339,-0.187493,2.325479,-1.407857,0.012220,0.237066,0.069419,-2.005767,-0.191526,2.343976,-1.427874,0.012220,0.237066,0.069419,-2.005767,-0.191526,2.343976,-1.427874,0.0400,0.063806,0.6200,0.0253,0.2308
0.7520,0.010282,0.283697,0.058927,-1.976364,-0.188397,2.327096,-1.410883,0.012277,0.236772,0.069744,-2.007801,-0.192421,2.345584,-1.430878,0.012277,0.236772,0.069744,-2.007801,-0.192421,2.345584,-1.430878,0.0400,0.063789,0.6195,0.0255,0.2303
0.7540,0.010347,0.283388,0.059257,-1.978389,-0.189300,2.328712,-1.413908,0.012334,0.236478,0.070068,-2.009833,-0.193316,2.347191,-1.433881,0.012334,0.236478,0.070068,-2.009833,-0.193316,2.347191,-1.433881,0.0400,0.063771,0.6191,0.0257,0.2297
0.7560,0.010412,0.283080,0.059587,-1.980414,-0.190203,2.330327,-1.416931,0.012391,0.236184,0.070392,-2.011864,-0.194210,2.348797,-1.436880,0.012391,0.236184,0.070392,-2.011864,-0.194210,2.348797,-1.436880,0.0400,0.063751,0.6187,0.0259,0.2292
0.7580,0.010477,0.282772,0.059917,-1.982440,-0.191105,2.331940,-1.419951,0.012448,0.235890,0.070716,-2.013893,-0.195103,2.350401,-1.439877,0.012448,0.235890,0.070716,-2.013893,-0.195103,2.350401,-1.439877,0.0400,0.063730,0.6183,0.0262,0.2286
0.7600,0.010542,0.282463,0.060248,-1.984465,-0.192007,2.333553,-1.422970,0.012505,0.235597,0.071040,-2.015919,-0.195996,2.352004,-1.442871,0.012505,0.235597,0.071040,-2.015919,-0.195996,2.352004,-1.442871,0.0400,0.063707,0.6179,0.0264,0.2281
0.7620,0.010607,0.282155,0.060578,-1.986490,-0.192908,2.335164,-1.425986,0.012562,0.235304,0.071363,-2.017944,-0.196887,2.353605,-1.445862,0.012562,0.235304,0.071363,-2.017944,-0.196887,2.353605,-1.445862,0.0400,0.063682,0.6175,0.0266,0.2275
0.7640,0.010672,0.281846,0.060908,-1.988515,-0.193808,2.336774,-1.429000,0.012619,0.235012,0.071685,-2.019967,-0.197778,2.355204,-1.448850,0.012619,0.235012,0.071685,-2.019967,-0.197778,2.355204,-1.448850,0.0400,0.063656,0.6170,0.0268,0.2270
0.7660,0.010737,0.281537,0.061239,-1.990540,-0.194708,2.338382,-1.432011,0.012676,0.234719,0.072008,-2.021987,-0.198668,2.356802,-1.451835,0.012676,0.234719,0.072008,-2.021987,-0.198668,2.356802,-1.451835,0.0400,0.063628,0.6166,0.0270,0.2264
0.7680,0.010803,0.281228,0.061569,-1.992565,-0.195607,2.339990,-1.435020,0.012732,0.234427,0.072330,-2.024006,-0.199556,2.358398,-1.454817,0.012732,0.234427,0.072330,-2.024006,-0.199556,2.358398,-1.454817,0.0400,0.063599,0.6162,0.0272,0.2259
0.7700,0.010868,0.280920,0.061900,-1.994589,-0.196505,2.341595,-1.438025,0.012789,0.234135,0.072652,-2.026022,-0.200444,2.359993,-1.457795,0.012789,0.234135,0.072652,-2.026022,-0.200444,2.359993,-1.457795,0.0400,0.063568,0.6158,0.0274,0.2253
0.7720,0.010933,0.280611,0.062230,-1.996613,-0.197402,2.343199,-1.441029,0.012846,0.233844,0.072973,-2.028035,-0.201331,2.361585,-1.460770,0.012846,0.233844,0.072973,-2.028035,-0.201331,2.361585,-1.460770,0.0400,0.063536,0.6153,0.0276,0.2248
0.7740,0.010998,0.280302,0.062560,-1.998636,-0.198299,2.344802,-1.444029,0.012902,0.233553,0.073294,-2.030047,-0.202216,2.363176,-1.463741,0.012902,0.233553,0.073294,-2.030047,-0.202216,2.363176,-1.463741,0.0400,0.063501,0.6149,0.0279,0.2242
0.7760,0.011063,0.279993,0.062891,-2.000659,-0.199194,2.346402,-1.447026,0.012959,0.233262,0.073615,-2.032056,-0.203101,2.364764,-1.466709,0.012959,0.233262,0.073615,-2.032056,-0.203101,2.364764,-1.466709,0.0400,0.063466,0.6145,0.0281,0.2237
0.7780,0.011129,0.279684,0.063221,-2.002681,-0.200089,2.348001,-1.450020,0.013015,0.232972,0.073935,-2.034062,-0.203984,2.366351,-1.469673,0.013015,0.232972,0.073935,-2.034062,-0.203984,2.366351,-1.469673,0.0400,0.063429,0.6140,0.0283,0.2232
0.7800,0.011194,0.279375,0.063551,-2.004703,-0.200983,2.349599,-1.453011,0.013071,0.232682,0.074255,-2.036066,-0.204867,2.367936,-1.472633,0.013071,0.232682,0.074255,-2.036066,-0.204867,2.367936,-1.472633,0.0400,0.063390,0.6136,0.0285,0.2226
0.7820,0.011259,0.279067,0.063881,-2.006724,-0.201875,2.351194,-1.455999,0.013127,0.232393,0.074574,-2.038067,-0.205748,2.369518,-1.475589,0.013127,0.232393,0.074574,-2.038067,-0.205748,2.369518,-1.475589,0.0400,0.063350,0.6132,0.0287,0.2221
0.7840,0.011324,0.278758,0.064211,-2.008744,-0.202767,2.352788,-1.458983,0.013184,0.232104,0.074893,-2.040065,-0.206628,2.371098,-1.478541,0.013184,0.232104,0.074893,-2.040065,-0.206628,2.371098,-1.478541,0.0400,0.063308,0.6127,0.0289,0.2215
0.7860,0.011390,0.278449,0.064541,-2.010763,-0.203658,2.354380,-1.461964,0.013240,0.231815,0.075212,-2.042061,-0.207506,2.372676,-1.481489,0.013240,0.231815,0.075212,-2.042061,-0.207506,2.372676,-1.481489,0.0400,0.063265,0.6123,0.0291,0.2210
0.7880,0.011455,0.278140,0.064871,-2.012782,-0.204548,2.355970,-1.464941,0.013296,0.231527,0.075530,-2.044054,-0.208384,2.374252,-1.484433,0.013296,0.231527,0.075530,-2.044054,-0.208384,2.374252,-1.484433,0.0400,0.063220,0.6118,0.0294,0.2204
0.7900,0.011520,0.277832,0.065201,-2.014799,-0.205436,2.357557,-1.467915,0.013352,0.231239,0.075847,-2.046044,-0.209260,2.375826,-1.487373,0.013352,0.231239,0.075847,-2.046044,-0.209260,2.375826,-1.487373,0.0400,0.063173,0.6114,0.0296,0.2199
0.7920,0.011585,0.277523,0.065530,-2.016815,-0.206324,2.359143,-1.470885,0.013407,0.230951,0.076164,-2.048031,-0.210135,2.377397,-1.490308,0.013407,0.230951,0.076164,-2.048031,-0.210135,2.377397,-1.490308,0.0400,0.063125,0.6110,0.0298,0.2194
0.7940,0.011651,0.277215,0.065860,-2.018830,-0.207210,2.360727,-1.473851,0.013463,0.230664,0.076481,-2.050015,-0.211008,2.378966,-1.493239,0.013463,0.230664,0.076481,-2.050015,-0.211008,2.378966,-1.493239,0.0400,0.063076,0.6105,0.0300,0.2188
0.7960,0.011716,0.276907,0.066189,-2.020845,-0.208095,2.362308,-1.476813,0.013519,0.230378,0.076797,-2.051995,-0.211881,2.380532,-1.496165,0.013519,0.230378,0.076797,-2.051995,-0.211881,2.380532,-1.496165,0.0400,0.063024,0.6101,0.0302,0.2183
0.7980,0.011781,0.276599,0.066518,-2.022857,-0.208979,2.363888,-1.479771,0.013574,0.230091,0.077113,-2.053973,-0.212751,2.382096,-1.499086,0.013574,0.230091,0.077113,-2.053973,-0.212751,2.382096,-1.499086,0.0400,0.062972,0.6096,0.0304,0.2177
0.8000,0.011846,0.276291,0.066847,-2.024869,-0.209862,2.365465,-1.482724,0.013630,0.229806,0.077428,-2.055947,-0.213621,2.383658,-1.502003,0.013630,0.229806,0.077428,-2.055947,-0.213621,2.383658,-1.502003,0.0400,0.062918,0.6092,0.0307,0.2172
0.8020,0.011911,0.275983,0.067175,-2.026879,-0.210744,2.367040,-1.485674,0.013685,0.229521,0.077742,-2.057919,-0.214489,2.385216,-1.504915,0.013685,0.229521,0.077742,-2.057919,-0.214489,2.385216,-1.504915,0.0400,0.062862,0.6087,0.0309,0.2167
0.8040,0.011976,0.275675,0.067504,-2.028888,-0.211624,2.368612,-1.488619,0.013740,0.229236,0.078056,-2.059886,-0.215355,2.386773,-1.507822,0.013740,0.229236,0.078056,-2.059886,-0.215355,2.386773,-1.507822,0.0400,0.062805,0.6083,0.0311,0.2161
0.8060,0.012041,0.275368,0.067832,-2.030895,-0.212503,2.370182,-1.491560,0.013796,0.228952,0.078370,-2.061851,-0.216220,2.388326,-1.510724,0.013796,0.228952,0.078370,-2.061851,-0.216220,2.388326,-1.510724,0.0400,0.062746,0.6078,0.0313,0.2156
0.8080,0.012106,0.275060,0.068160,-2.032901,-0.213381,2.371750,-1.494496,0.013851,0.228668,0.078683,-2.063812,-0.217083,2.389877,-1.513620,0.013851,0.228668,0.078683,-2.063812,-0.217083,2.389877,-1.513620,0.0400,0.062686,0.6074,0.0315,0.2151
0.8100,0.012171,0.274753,0.068488,-2.034905,-0.214257,2.373315,-1.497428,0.013906,0.228385,0.078995,-2.065769,-0.217945,2.391424,-1.516512,0.013906,0.228385,0.078995,-2.065769,-0.217945,2.391424,-1.516512,0.0400,0.062624,0.6069,0.0317,0.2145
0.8120,0.012236,0.274446,0.068816,-2.036907,-0.215132,2.374877,-1.500355,0.013961,0.228102,0.079307,-2.067723,-0.218805,2.392969,-1.519398,0.013961,0.228102,0.079307,-2.067723,-0.218805,2.392969,-1.519398,0.0400,0.062561,0.6065,0.0320,0.2140
0.8140,0.012301,0.274139,0.069143,-2.038908,-0.216005,2.376437,-1.503277,0.014015,0.227820,0.079618,-2.069673,-0.219664,2.394512,-1.522279,0.014015,0.227820,0.079618,-2.069673,-0.219664,2.394512,-1.522279,0.0400,0.062496,0.6060,0.0322,0.2135
0.8160,0.012366,0.273833,0.069470,-2.040906,-0.216878,2.377995,-1.506194,0.014070,0.227538,0.079929,-2.071619,-0.220521,2.396051,-1.525154,0.014070,0.227538,0.079929,-2.071619,-0.220521,2.396051,-1.525154,0.0400,0.062430,0.6056,0.0324,0.2129
