alvinuday/Neuromorphic-Robot-Control/mpc_log.csv
t_sim,q1,q2,q3,q4,q5,q6,q1_ref,q2_ref,q3_ref,q4_ref,q5_ref,q6_ref,tau1,tau2,tau3,tau4,tau5,tau6,tracking_error
0.0000,0.000000,0.000000,0.000000,0.000000,0.000000,0.000000,0.000000,0.095885,0.108060,0.199499,-0.083229,0.119694,0.000000,0.007671,0.008695,9.575952,-3.995010,5.745333,0.286225
0.0200,0.000000,-0.000000,0.009008,1.000000,-0.000000,-0.000000,0.002513,0.098083,0.105937,0.199661,-0.085508,0.117672,0.000196,0.007650,0.007470,-9.999927,-4.104205,5.647985,0.825059
0.0400,-0.000000,0.000000,0.018569,1.000000,0.000000,0.000000,0.005026,0.100266,0.103797,0.199792,-0.087773,0.115630,0.000392,0.007820,0.006580,-9.999927,-4.212930,5.549999,0.823863
0.0600,-0.000000,0.000000,0.024309,1.000000,0.000000,0.000000,0.007538,0.102432,0.101641,0.199890,-0.090025,0.113570,0.000588,0.007989,0.005995,-9.999927,-4.320988,5.451136,0.823230
0.0800,-0.000000,0.000000,0.027201,1.000000,0.000000,0.000000,0.010049,0.104583,0.099468,0.199958,-0.092262,0.111493,0.000784,0.008157,0.005618,-9.999927,-4.428365,5.351413,0.822965
0.1000,-0.000000,0.000000,0.028618,1.000000,0.000000,0.000000,0.012558,0.106717,0.097280,0.199994,-0.094484,0.109397,0.000979,0.008324,0.005347,-9.999927,-4.535042,5.250844,0.822901
0.1200,-0.000000,0.000000,0.029306,1.000000,0.000000,0.000000,0.015065,0.108834,0.095076,0.199998,-0.096692,0.107285,0.001175,0.008489,0.005126,-9.999927,-4.641003,5.149447,0.822958
0.1400,-0.000000,0.000000,0.029629,1.000000,0.000000,0.000000,0.017570,0.110934,0.092858,0.199971,-0.098884,0.105155,0.001370,0.008653,0.004930,-9.999927,-4.746230,5.047236,0.823101
0.1600,-0.000000,0.000000,0.029772,1.000000,0.000000,0.000000,0.020072,0.113016,0.090625,0.199912,-0.101061,0.103009,0.001566,0.008815,0.004745,-9.999927,-4.850709,4.944227,0.823313
0.1800,-0.000000,0.000000,0.029836,1.000000,0.000000,0.000000,0.022571,0.115081,0.088377,0.199821,-0.103222,0.100847,0.001760,0.008976,0.004566,-9.999927,-4.954421,4.840438,0.823584
0.2000,-0.000000,0.000000,0.029865,1.000000,0.000000,0.000000,0.025067,0.117127,0.086116,0.199699,-0.105366,0.098669,0.001955,0.009135,0.004387,-9.999927,-5.057351,4.735885,0.823912
0.2200,-0.000000,0.000000,0.029879,1.000000,0.000000,0.000000,0.027558,0.119155,0.083840,0.199545,-0.107494,0.096475,0.002149,0.009293,0.004209,-9.999927,-5.159482,4.630584,0.824293
0.2400,-0.000000,0.000000,0.029886,1.000000,0.000000,0.000000,0.030045,0.121164,0.081552,0.199360,-0.109605,0.094266,0.002343,0.009450,0.004029,-9.999927,-5.260798,4.524551,0.824728
0.2600,-0.000000,0.000000,0.029889,1.000000,0.000000,0.000000,0.032527,0.123154,0.079251,0.199144,-0.111698,0.092042,0.002537,0.009605,0.003850,-9.999927,-5.361283,4.417804,0.825215
0.2800,-0.000000,0.000000,0.029891,1.000000,0.000000,0.000000,0.035005,0.125124,0.076937,0.198896,-0.113774,0.089803,0.002730,0.009758,0.003669,-9.999927,-5.460922,4.310359,0.825755
0.3000,-0.000000,0.000000,0.029891,1.000000,0.000000,0.000000,0.037476,0.127075,0.074611,0.198616,-0.115832,0.087550,0.002923,0.009910,0.003487,-9.999927,-5.559698,4.202234,0.826348
0.3200,-0.000000,0.000000,0.029892,1.000000,0.000000,0.000000,0.039942,0.129006,0.072274,0.198305,-0.117872,0.085284,0.003115,0.010060,0.003305,-9.999927,-5.657596,4.093444,0.826992
0.3400,-0.000000,0.000000,0.029892,1.000000,0.000000,0.000000,0.042401,0.130916,0.069924,0.197963,-0.119893,0.083004,0.003306,0.010209,0.003122,-9.999927,-5.754601,3.984009,0.827687
0.3600,-0.000000,0.000000,0.029892,1.000000,0.000000,0.000000,0.044854,0.132806,0.067564,0.197590,-0.121895,0.080711,0.003498,0.010356,0.002938,-9.999927,-5.850696,3.873944,0.828434
0.3800,-0.000000,0.000000,0.029892,1.000000,0.000000,0.000000,0.047300,0.134674,0.065194,0.197185,-0.123878,0.078405,0.003688,0.010501,0.002753,-9.999927,-5.945868,3.763268,0.829232
0.4000,-0.000000,0.000000,0.029892,1.000000,0.000000,0.000000,0.049738,0.136522,0.062812,0.196750,-0.125841,0.076087,0.003878,0.010644,0.002567,-9.999927,-6.040101,3.651997,0.830080
0.4200,-0.000000,0.000000,0.029892,1.000000,0.000000,0.000000,0.052168,0.138348,0.060421,0.196283,-0.127785,0.073757,0.004067,0.010786,0.002380,-9.999927,-6.133379,3.540149,0.830978
0.4400,-0.000000,0.000000,0.029892,1.000000,0.000000,0.000000,0.054590,0.140152,0.058021,0.195785,-0.129708,0.071415,0.004256,0.010926,0.002193,-9.999927,-6.225689,3.427743,0.831925
0.4600,-0.000000,0.000000,0.029892,1.000000,0.000000,0.000000,0.057004,0.141934,0.055611,0.195256,-0.131611,0.069061,0.004444,0.011064,0.002005,-9.999927,-6.317016,3.314795,0.832922
0.4800,-0.000000,0.000000,0.029892,1.000000,0.000000,0.000000,0.059408,0.143693,0.053193,0.194697,-0.133493,0.066697,0.004631,0.011201,0.001816,-9.999927,-6.407345,3.201324,0.833968
0.5000,-0.000000,0.000000,0.029892,1.000000,0.000000,0.000000,0.061803,0.145430,0.050766,0.194107,-0.135354,0.064323,0.004817,0.011335,0.001627,-9.999927,-6.496662,3.087347,0.835061
0.5200,-0.000000,0.000000,0.029892,1.000000,0.000000,0.000000,0.064189,0.147144,0.048331,0.193486,-0.137193,0.061938,0.005003,0.011468,0.001437,-9.999927,-6.584953,2.972883,0.836203
0.5400,-0.000000,0.000000,0.029892,1.000000,0.000000,0.000000,0.066564,0.148834,0.045888,0.192834,-0.139011,0.059543,0.005187,0.011599,0.001247,-9.999927,-6.672203,2.857949,0.837391
0.5600,-0.000000,0.000000,0.029892,1.000000,0.000000,0.000000,0.068929,0.150501,0.043439,0.192152,-0.140807,0.057140,0.005371,0.011728,0.001056,-9.999927,-6.758400,2.742564,0.838627
0.5800,-0.000000,0.000000,0.029892,1.000000,0.000000,-0.000000,0.071282,0.152144,0.040982,0.191440,-0.142580,0.054727,0.005554,0.011855,0.000864,-9.999927,-6.843530,2.626746,0.839908
0.6000,-0.000000,0.000000,0.029892,1.000000,0.000000,0.000000,0.073625,0.153764,0.038519,0.190697,-0.144332,0.052305,0.005736,0.011980,0.000672,-9.999927,-6.927579,2.510514,0.841235
0.6200,-0.000000,0.000000,0.029892,1.000000,0.000000,-0.000000,0.075956,0.155359,0.036050,0.189925,-0.146060,0.049875,0.005917,0.012103,0.000480,-9.999926,-7.010533,2.393885,0.842607
0.6400,-0.000000,0.000000,0.029892,1.000000,0.000000,-0.000000,0.078275,0.156929,0.033575,0.189122,-0.147765,0.047437,0.006097,0.012224,0.000287,-9.999926,-7.092381,2.276877,0.844023
0.6600,-0.000000,0.000000,0.029892,1.000000,0.000000,-0.000000,0.080581,0.158475,0.031095,0.188290,-0.149447,0.044992,0.006276,0.012344,0.000094,-9.999926,-7.173108,2.159511,0.845483
0.6800,-0.000000,0.000000,0.029892,1.000000,0.000000,-0.000000,0.082875,0.159995,0.028609,0.187428,-0.151106,0.042540,0.006454,0.012461,-0.000100,-9.999926,-7.252702,2.041803,0.846986
0.7000,-0.000000,0.000000,0.029892,1.000000,0.000000,0.000000,0.085156,0.161491,0.026120,0.186536,-0.152740,0.040081,0.006631,0.012576,-0.000294,-9.999926,-7.331150,1.923774,0.848531
0.7200,-0.000000,0.000000,0.029892,1.000000,0.000000,-0.000000,0.087423,0.162961,0.023626,0.185615,-0.154351,0.037615,0.006807,0.012689,-0.000488,-9.999926,-7.408441,1.805440,0.850118
0.7400,-0.000000,0.000000,0.029892,1.000000,0.000000,-0.000000,0.089677,0.164405,0.021129,0.184664,-0.155937,0.035144,0.006982,0.012800,-0.000682,-9.999926,-7.484562,1.686821,0.851746
0.7600,-0.000000,0.000000,0.029892,1.000000,0.000000,-0.000000,0.091916,0.165823,0.018628,0.183684,-0.157498,0.032667,0.007155,0.012909,-0.000877,-9.999926,-7.559500,1.567937,0.853415
0.7800,-0.000000,0.000000,0.029892,1.000000,0.000000,0.000000,0.094141,0.167215,0.016124,0.182675,-0.159035,0.030185,0.007328,0.013016,-0.001072,-9.999926,-7.633244,1.448804,0.855123
0.8000,-0.000000,0.000000,0.029892,1.000000,0.000000,-0.000000,0.096351,0.168580,0.013618,0.181638,-0.160546,0.027698,0.007499,0.013120,-0.001267,-9.999926,-7.705783,1.329443,0.856870
0.8200,-0.000000,0.000000,0.029892,1.000000,0.000000,0.000000,0.098545,0.169919,0.011109,0.180572,-0.162032,0.025207,0.007669,0.013223,-0.001462,-9.999926,-7.777104,1.209873,0.858655
0.8400,-0.000000,0.000000,0.029892,1.000000,0.000000,-0.000000,0.100725,0.171232,0.008599,0.179477,-0.163492,0.022712,0.007837,0.013323,-0.001657,-9.999926,-7.847198,1.090111,0.860478
0.8600,-0.000000,0.000000,0.029892,1.000000,0.000000,-0.000000,0.102888,0.172517,0.006088,0.178354,-0.164927,0.020213,0.008004,0.013421,-0.001852,-9.999925,-7.916051,0.970177,0.862338
0.8800,-0.000000,0.000000,0.029892,1.000000,0.000000,0.000000,0.105035,0.173775,0.003575,0.177202,-0.166336,0.017711,0.008170,0.013517,-0.002047,-9.999925,-7.983655,0.850090,0.864234
0.9000,-0.000000,0.000000,0.029892,1.000000,0.000000,-0.000000,0.107165,0.175005,0.001062,0.176023,-0.167718,0.015207,0.008335,0.013611,-0.002242,-9.999925,-7.999892,0.729870,0.866164
0.9200,-0.000000,0.000000,0.029892,1.000000,0.000000,0.000000,0.109279,0.176208,-0.001451,0.174816,-0.169074,0.012699,0.008498,0.013702,-0.002437,-9.999925,-7.999923,0.609534,0.868130
0.9400,-0.000000,0.000000,0.029892,1.000000,0.000000,-0.000000,0.111375,0.177383,-0.003964,0.173581,-0.170403,0.010190,0.008659,0.013792,-0.002632,-9.999925,-8.000057,0.489102,0.870129
0.9600,-0.000000,0.000000,0.029892,1.000000,0.000000,0.000000,0.113454,0.178530,-0.006477,0.172319,-0.171705,0.007679,0.008820,0.013879,-0.002827,-9.999925,-7.999945,0.368593,0.872161
0.9800,-0.000000,0.000000,0.029892,1.000000,0.000000,-0.000000,0.115515,0.179648,-0.008988,0.171030,-0.172980,0.005168,0.008979,0.013963,-0.003022,-9.999925,-7.999984,0.248026,0.874225
1.0000,-0.000000,0.000000,0.029892,1.000000,0.000000,-0.000000,0.117557,0.180739,-0.011498,0.169714,-0.174228,0.002655,0.009136,0.014046,-0.003217,-9.999925,-8.000047,0.127420,0.876320
1.0200,-0.000000,0.000000,0.029892,1.000000,0.000000,0.000000,0.119581,0.181801,-0.014006,0.168371,-0.175449,0.000142,0.009292,0.014126,-0.003411,-9.999925,-8.000038,0.006794,0.878446
1.0400,-0.000000,0.000000,0.029892,1.000000,0.000000,0.000000,0.121586,0.182834,-0.016512,0.167001,-0.176641,-0.002372,0.009446,0.014204,-0.003605,-9.999924,-8.000004,-0.113833,0.880602
1.0600,-0.000000,0.000000,0.029892,1.000000,0.000000,-0.000000,0.123572,0.183838,-0.019015,0.165605,-0.177806,-0.004885,0.009598,0.014279,-0.003799,-9.999924,-7.999969,-0.234441,0.882787
1.0800,-0.000000,0.000000,0.029892,1.000000,0.000000,-0.000000,0.125538,0.184813,-0.021516,0.164183,-0.178943,-0.007397,0.009749,0.014353,-0.003992,-9.999924,-7.999944,-0.355012,0.885000
1.1000,-0.000000,0.000000,0.029892,1.000000,0.000000,0.000000,0.127485,0.185759,-0.024013,0.162735,-0.180051,-0.009907,0.009899,0.014423,-0.004185,-9.999924,-7.999962,-0.475527,0.887240
1.1200,-0.000000,0.000000,0.029892,1.000000,0.000000,-0.000000,0.129411,0.186676,-0.026506,0.161261,-0.181131,-0.012417,0.010046,0.014492,-0.004378,-9.999924,-7.999980,-0.595967,0.889507
1.1400,-0.000000,0.000000,0.029892,1.000000,0.000000,0.000000,0.131317,0.187563,-0.028995,0.159761,-0.182182,-0.014924,0.010192,0.014558,-0.004571,-9.999924,-7.999998,-0.716312,0.891799
1.1600,-0.000000,0.000000,0.029892,1.000000,0.000000,0.000000,0.133202,0.188421,-0.031479,0.158237,-0.183205,-0.017429,0.010337,0.014622,-0.004763,-9.999924,-8.000015,-0.836543,0.894117
1.1800,-0.000000,0.000000,0.029892,1.000000,0.000000,0.000000,0.135067,0.189249,-0.033959,0.156687,-0.184198,-0.019932,0.010479,0.014683,-0.004954,-9.999923,-8.000032,-0.956643,0.896458
1.2000,-0.000000,0.000000,0.029892,1.000000,0.000000,-0.000000,0.136909,0.190047,-0.036433,0.155113,-0.185163,-0.022431,0.010620,0.014742,-0.005145,-9.999923,-8.000048,-1.076590,0.898823
1.2200,-0.000000,0.000000,0.029892,1.000000,0.000000,0.000000,0.138731,0.190815,-0.038901,0.153514,-0.186098,-0.024926,0.010759,0.014799,-0.005335,-9.999923,-8.000051,-1.196368,0.901211
1.2400,-0.000000,0.000000,0.029892,1.000000,0.000000,-0.000000,0.140530,0.191552,-0.041363,0.151891,-0.187004,-0.027418,0.010897,0.014853,-0.005525,-9.999923,-8.000043,-1.315956,0.903620
1.2600,-0.000000,0.000000,0.029892,1.000000,0.000000,0.000000,0.142307,0.192260,-0.043819,0.150244,-0.187881,-0.029905,0.011032,0.014904,-0.005714,-9.999923,-8.000035,-1.435336,0.906050
1.2800,-0.000000,0.000000,0.029892,1.000000,0.000000,0.000000,0.144062,0.192937,-0.046267,0.148574,-0.188727,-0.032388,0.011166,0.014954,-0.005903,-9.999923,-8.000028,-1.554489,0.908500
1.3000,-0.000000,0.000000,0.029892,1.000000,0.000000,-0.000000,0.145794,0.193584,-0.048709,0.146880,-0.189544,-0.034865,0.011297,0.015001,-0.006091,-9.999923,-8.000020,-1.673396,0.910970
1.3200,-0.000000,0.000000,0.029892,1.000000,0.000000,0.000000,0.147503,0.194200,-0.051142,0.145162,-0.190331,-0.037337,0.011427,0.015045,-0.006278,-9.999922,-8.000013,-1.792039,0.913458
1.3400,-0.000000,0.000000,0.029892,1.000000,0.000000,-0.000000,0.149188,0.194786,-0.053568,0.143422,-0.191088,-0.039803,0.011555,0.015087,-0.006464,-9.999922,-8.000007,-1.910398,0.915964
1.3600,-0.000000,0.000000,0.029892,1.000000,0.000000,-0.000000,0.150850,0.195340,-0.055985,0.141659,-0.191815,-0.042263,0.011681,0.015126,-0.006650,-9.999922,-8.000000,-2.028454,0.918486
1.3800,-0.000000,0.000000,0.029892,1.000000,0.000000,0.000000,0.152489,0.195864,-0.058393,0.139874,-0.192511,-0.044716,0.011805,0.015163,-0.006835,-9.999922,-7.999994,-2.146190,0.921025
1.4000,-0.000000,0.000000,0.029892,1.000000,0.000000,0.000000,0.154103,0.196357,-0.060793,0.138066,-0.193178,-0.047162,0.011927,0.015198,-0.007019,-9.999922,-7.999989,-2.263587,0.923580
1.4200,-0.000000,0.000000,0.029892,1.000000,0.000000,0.000000,0.155692,0.196819,-0.063182,0.136237,-0.193813,-0.049601,0.012048,0.015230,-0.007202,-9.999922,-7.999983,-2.380626,0.926148
1.4400,-0.000000,0.000000,0.029892,1.000000,0.000000,-0.000000,0.157258,0.197250,-0.065562,0.134386,-0.194418,-0.052032,0.012166,0.015260,-0.007384,-9.999921,-7.999978,-2.497288,0.928731
1.4600,-0.000000,0.000000,0.029892,1.000000,0.000000,-0.000000,0.158798,0.197650,-0.067931,0.132514,-0.194992,-0.054454,0.012282,0.015287,-0.007566,-9.999921,-7.999973,-2.613555,0.931327
1.4800,-0.000000,0.000000,0.029892,1.000000,0.000000,0.000000,0.160313,0.198018,-0.070289,0.130622,-0.195536,-0.056868,0.012396,0.015311,-0.007746,-9.999921,-7.999969,-2.729410,0.933935
1.5000,-0.000000,0.000000,0.029892,1.000000,0.000000,0.000000,0.161803,0.198356,-0.072637,0.128708,-0.196048,-0.059273,0.012508,0.015334,-0.007926,-9.999921,-7.999965,-2.844832,0.936555
1.5200,-0.000000,0.000000,0.029892,1.000000,0.000000,0.000000,0.163268,0.198662,-0.074972,0.126774,-0.196530,-0.061669,0.012618,0.015353,-0.008104,-9.999921,-7.999961,-2.959805,0.939186
1.5400,-0.000000,0.000000,0.029892,1.000000,0.000000,0.000000,0.164707,0.198936,-0.077296,0.124820,-0.196981,-0.064055,0.012726,0.015370,-0.008282,-9.999921,-7.999958,-3.074309,0.941826
1.5600,-0.000000,0.000000,0.029892,1.000000,0.000000,0.000000,0.166119,0.199179,-0.079608,0.122847,-0.197400,-0.066430,0.012831,0.015385,-0.008458,-9.999920,-7.999955,-3.188328,0.944476
1.5800,-0.000000,0.000000,0.029892,1.000000,0.000000,-0.000000,0.167506,0.199391,-0.081907,0.120854,-0.197788,-0.068796,0.012935,0.015397,-0.008633,-9.999920,-7.999952,-3.301843,0.947135
1.6000,-0.000000,0.000000,0.029892,1.000000,0.000000,0.000000,0.168866,0.199571,-0.084194,0.118842,-0.198146,-0.071150,0.013037,0.015407,-0.008808,-9.999920,-7.999949,-3.414835,0.949802
1.6200,-0.000000,0.000000,0.029892,1.000000,0.000000,-0.000000,0.170199,0.199720,-0.086467,0.116811,-0.198471,-0.073493,0.013136,0.015414,-0.008980,-9.999920,-7.999947,-3.527287,0.952476
1.6400,-0.000000,0.000000,0.029892,1.000000,0.000000,-0.000000,0.171505,0.199837,-0.088726,0.114762,-0.198766,-0.075825,0.013233,0.015419,-0.009152,-9.999920,-7.999946,-3.639182,0.955156
1.6600,-0.000000,0.000000,0.029892,1.000000,0.000000,0.000000,0.172785,0.199923,-0.090972,0.112695,-0.199029,-0.078144,0.013328,0.015421,-0.009323,-9.999919,-7.999944,-3.750502,0.957842
1.6800,-0.000000,0.000000,0.029892,1.000000,0.000000,0.000000,0.174037,0.199977,-0.093203,0.110609,-0.199261,-0.080452,0.013421,0.015421,-0.009492,-9.999919,-7.999943,-3.861228,0.960533
1.7000,-0.000000,0.000000,0.029892,1.000000,0.000000,-0.000000,0.175261,0.199999,-0.095419,0.108507,-0.199461,-0.082746,0.013511,0.015418,-0.009660,-9.999919,-7.999943,-3.971344,0.963229
1.7200,-0.000000,0.000000,0.029892,1.000000,0.000000,0.000000,0.176458,0.199990,-0.097620,0.106387,-0.199629,-0.085028,0.013599,0.015413,-0.009827,-9.999919,-7.999942,-4.080832,0.965929
1.7400,-0.000000,0.000000,0.029892,1.000000,0.000000,-0.000000,0.177627,0.199949,-0.099806,0.104251,-0.199767,-0.087296,0.013685,0.015405,-0.009993,-9.999919,-7.999942,-4.189674,0.968632
1.7600,-0.000000,0.000000,0.029892,1.000000,0.000000,0.000000,0.178768,0.199877,-0.101976,0.102098,-0.199872,-0.089550,0.013769,0.015395,-0.010157,-9.999919,-7.999943,-4.297855,0.971337
1.7800,-0.000000,0.000000,0.029892,1.000000,0.000000,0.000000,0.179881,0.199773,-0.104130,0.099928,-0.199946,-0.091790,0.013851,0.015382,-0.010320,-9.999918,-7.999943,-4.405356,0.974044
1.8000,-0.000000,0.000000,0.029892,1.000000,0.000000,0.000000,0.180965,0.199638,-0.106267,0.097744,-0.199989,-0.094016,0.013930,0.015367,-0.010481,-9.999918,-7.999944,-4.512160,0.976752
1.8200,-0.000000,0.000000,0.029892,1.000000,0.000000,-0.000000,0.182021,0.199471,-0.108388,0.095543,-0.200000,-0.096227,0.014007,0.015350,-0.010641,-9.999918,-7.999946,-4.618251,0.979461
1.8400,-0.000000,0.000000,0.029892,1.000000,0.000000,0.000000,0.183048,0.199273,-0.110492,0.093328,-0.199979,-0.098422,0.014081,0.015330,-0.010799,-9.999918,-7.999948,-4.723611,0.982170
1.8600,-0.000000,0.000000,0.029892,1.000000,0.000000,0.000000,0.184046,0.199043,-0.112578,0.091098,-0.199927,-0.100602,0.014154,0.015307,-0.010956,-9.999918,-7.999950,-4.828225,0.984878
1.8800,-0.000000,0.000000,0.029892,1.000000,0.000000,0.000000,0.185015,0.198781,-0.114646,0.088853,-0.199843,-0.102766,0.014224,0.015282,-0.011112,-9.999917,-7.999952,-4.932075,0.987584
1.9000,-0.000000,0.000000,0.029892,1.000000,0.000000,0.000000,0.185955,0.198489,-0.116696,0.086594,-0.199727,-0.104914,0.014291,0.015255,-0.011266,-9.999917,-7.999955,-5.035146,0.990289
1.9200,-0.000000,0.000000,0.029892,1.000000,0.000000,-0.000000,0.186866,0.198165,-0.118728,0.084322,-0.199581,-0.107046,0.014357,0.015225,-0.011418,-9.999917,-7.999959,-5.137420,0.992992
1.9400,-0.000000,0.000000,0.029892,1.000000,0.000000,0.000000,0.187747,0.197809,-0.120741,0.082037,-0.199402,-0.109160,0.014420,0.015192,-0.011569,-9.999917,-7.999962,-5.238882,0.995692
1.9600,-0.000000,0.000000,0.029892,1.000000,0.000000,0.000000,0.188598,0.197423,-0.122735,0.079738,-0.199192,-0.111258,0.014480,0.015158,-0.011718,-9.999916,-7.999966,-5.339516,0.998388
1.9800,-0.000000,0.000000,0.029892,1.000000,0.000000,-0.000000,0.189420,0.197005,-0.124710,0.077427,-0.198951,-0.113337,0.014538,0.015121,-0.011866,-9.999916,-7.999971,-5.439306,1.001080
2.0000,-0.000000,0.000000,0.029892,1.000000,0.000000,0.000000,0.190211,0.196556,-0.126665,0.075104,-0.198678,-0.115399,0.014594,0.015081,-0.012012,-9.999916,-7.999975,-5.538235,1.003767
2.0200,-0.000000,0.000000,0.029892,1.000000,0.000000,-0.000000,0.190973,0.196076,-0.128600,0.072768,-0.198374,-0.117443,0.014648,0.015039,-0.012156,-9.999916,-7.999980,-5.636289,1.006449
2.0400,-0.000000,0.000000,0.029892,1.000000,0.000000,0.000000,0.191704,0.195566,-0.130514,0.070422,-0.198038,-0.119468,0.014699,0.014995,-0.012299,-9.999916,-7.999986,-5.733452,1.009125
2.0600,-0.000000,0.000000,0.029892,1.000000,0.000000,-0.000000,0.192406,0.195024,-0.132408,0.068064,-0.197671,-0.121474,0.014747,0.014948,-0.012440,-9.999915,-7.999992,-5.829708,1.011796
2.0800,-0.000000,0.000000,0.029892,1.000000,0.000000,0.000000,0.193076,0.194451,-0.134281,0.065695,-0.197273,-0.123461,0.014794,0.014899,-0.012579,-9.999915,-7.999998,-5.925042,1.014459
2.1000,-0.000000,0.000000,0.029892,1.000000,0.000000,-0.000000,0.193717,0.193848,-0.136133,0.063316,-0.196844,-0.125428,0.014838,0.014848,-0.012717,-9.999915,-8.000005,-5.999950,1.017115
2.1200,-0.000000,0.000000,0.029892,1.000000,0.000000,0.000000,0.194326,0.193214,-0.137964,0.060927,-0.196384,-0.127376,0.014879,0.014794,-0.012852,-9.999915,-8.000012,-6.000044,1.019764
2.1400,-0.000000,0.000000,0.029892,1.000000,0.000000,-0.000000,0.194905,0.192550,-0.139772,0.058529,-0.195893,-0.129303,0.014918,0.014738,-0.012986,-9.999915,-8.000019,-6.000086,1.022404
2.1600,-0.000000,0.000000,0.029892,1.000000,0.000000,-0.000000,0.195454,0.191855,-0.141559,0.056121,-0.195371,-0.131210,0.014955,0.014679,-0.013118,-9.999914,-8.000027,-5.999927,1.025036
2.1800,-0.000000,0.000000,0.029892,1.000000,0.000000,0.000000,0.195971,0.191130,-0.143323,0.053704,-0.194818,-0.133097,0.014989,0.014618,-0.013248,-9.999914,-8.000035,-6.000032,1.027659
2.2000,-0.000000,0.000000,0.029892,1.000000,0.000000,-0.000000,0.196457,0.190375,-0.145065,0.051279,-0.194234,-0.134962,0.015020,0.014555,-0.013377,-9.999914,-8.000044,-6.000033,1.030272
2.2200,-0.000000,0.000000,0.029892,1.000000,0.000000,0.000000,0.196913,0.189589,-0.146783,0.048846,-0.193619,-0.136806,0.015050,0.014490,-0.013503,-9.999914,-8.000052,-5.999973,1.032875
2.2400,-0.000000,0.000000,0.029892,1.000000,0.000000,-0.000000,0.197337,0.188774,-0.148479,0.046405,-0.192974,-0.138629,0.015077,0.014422,-0.013628,-9.999913,-8.000062,-5.999951,1.035468
2.2600,-0.000000,0.000000,0.029892,1.000000,0.000000,0.000000,0.197730,0.187929,-0.150151,0.043957,-0.192299,-0.140429,0.015101,0.014353,-0.013750,-9.999913,-8.000071,-5.999984,1.038050
2.2800,-0.000000,0.000000,0.029892,1.000000,0.000000,0.000000,0.198092,0.187054,-0.151799,0.041502,-0.191593,-0.142208,0.015123,0.014280,-0.013871,-9.999913,-8.000062,-6.000017,1.040621
2.3000,-0.000000,0.000000,0.029892,1.000000,0.000000,0.000000,0.198423,0.186150,-0.153424,0.039040,-0.190857,-0.143964,0.015143,0.014206,-0.013990,-9.999913,-8.000045,-6.000050,1.043180
2.3200,-0.000000,0.000000,0.029892,1.000000,0.000000,-0.000000,0.198722,0.185216,-0.155024,0.036572,-0.190091,-0.145697,0.015160,0.014129,-0.014107,-9.999913,-8.000028,-6.000042,1.045727
2.3400,-0.000000,0.000000,0.029892,1.000000,0.000000,-0.000000,0.198990,0.184254,-0.156599,0.034098,-0.189294,-0.147407,0.015174,0.014051,-0.014221,-9.999912,-8.000009,-6.000024,1.048262
2.3600,-0.000000,0.000000,0.029892,1.000000,0.000000,-0.000000,0.199227,0.183262,-0.158150,0.031619,-0.188468,-0.149094,0.015187,0.013970,-0.014334,-9.999912,-7.999990,-6.000006,1.050784
2.3800,-0.000000,0.000000,0.029892,1.000000,0.000000,0.000000,0.199432,0.182241,-0.159676,0.029135,-0.187612,-0.150757,0.015196,0.013887,-0.014445,-9.999912,-7.999970,-5.999989,1.053293
2.4000,-0.000000,0.000000,0.029892,1.000000,0.000000,0.000000,0.199605,0.181191,-0.161177,0.026646,-0.186727,-0.152397,0.015204,0.013801,-0.014554,-9.999912,-7.999949,-5.999972,1.055788
2.4200,-0.000000,0.000000,0.029892,1.000000,0.000000,0.000000,0.199747,0.180113,-0.162652,0.024153,-0.185812,-0.154012,0.015209,0.013714,-0.014660,-9.999911,-7.999928,-5.999955,1.058270
2.4400,-0.000000,0.000000,0.029892,1.000000,0.000000,-0.000000,0.199858,0.179006,-0.164102,0.021657,-0.184867,-0.155604,0.015211,0.013624,-0.014765,-9.999911,-7.999917,-5.999953,1.060738
2.4600,-0.000000,0.000000,0.029892,1.000000,0.000000,0.000000,0.199937,0.177871,-0.165525,0.019156,-0.183894,-0.157170,0.015211,0.013533,-0.014868,-9.999911,-7.999955,-5.999962,1.063191
2.4800,-0.000000,0.000000,0.029892,1.000000,0.000000,0.000000,0.199984,0.176708,-0.166923,0.016653,-0.182891,-0.158712,0.015209,0.013439,-0.014968,-9.999911,-7.999994,-5.999970,1.065629
2.5000,-0.000000,0.000000,0.029892,1.000000,0.000000,-0.000000,0.200000,0.175517,-0.168294,0.014147,-0.181859,-0.160229,0.015204,0.013343,-0.015066,-9.999911,-8.000033,-5.999979,1.068052
2.5200,-0.000000,0.000000,0.029892,1.000000,0.000000,-0.000000,0.199984,0.174298,-0.169639,0.011639,-0.180799,-0.161720,0.015197,0.013245,-0.015163,-9.999910,-8.000074,-5.999987,1.070460
2.5400,-0.000000,0.000000,0.029892,1.000000,0.000000,0.000000,0.199937,0.173051,-0.170957,0.009130,-0.179710,-0.163186,0.015187,0.013145,-0.015257,-9.999910,-8.000093,-5.999995,1.072852
2.5600,-0.000000,0.000000,0.029892,1.000000,0.000000,0.000000,0.199858,0.171778,-0.172247,0.006618,-0.178593,-0.164626,0.015175,0.013043,-0.015349,-9.999910,-8.000021,-6.000003,1.075228
2.5800,-0.000000,0.000000,0.029892,1.000000,0.000000,-0.000000,0.199747,0.170477,-0.173511,0.004106,-0.177448,-0.166040,0.015161,0.012939,-0.015438,-9.999910,-7.999946,-6.000011,1.077588
2.6000,-0.000000,0.000000,0.029892,1.000000,0.000000,0.000000,0.199605,0.169149,-0.174747,0.001593,-0.176275,-0.167428,0.015144,0.012833,-0.015526,-9.999909,-7.999870,-6.000019,1.079932
2.6200,-0.000000,0.000000,0.029892,1.000000,0.000000,-0.000000,0.199432,0.167795,-0.175956,-0.000920,-0.175073,-0.168790,0.015125,0.012725,-0.015611,-9.999909,-8.000000,-6.000026,1.082259
2.6400,-0.000000,0.000000,0.029892,1.000000,0.000000,0.000000,0.199227,0.166414,-0.177137,-0.003433,-0.173845,-0.170125,0.015103,0.012616,-0.015695,-9.999909,-8.000134,-6.000034,1.084569
2.6600,-0.000000,0.000000,0.029892,1.000000,0.000000,0.000000,0.198990,0.165007,-0.178290,-0.005946,-0.172588,-0.171432,0.015079,0.012504,-0.015776,-9.999909,-7.999967,-6.000041,1.086861
2.6800,-0.000000,0.000000,0.029892,1.000000,0.000000,-0.000000,0.198722,0.163574,-0.179414,-0.008458,-0.171305,-0.172713,0.015053,0.012390,-0.015854,-9.999908,-7.999939,-6.000048,1.089136
2.7000,-0.000000,0.000000,0.029892,1.000000,0.000000,0.000000,0.198423,0.162115,-0.180511,-0.010968,-0.169994,-0.173967,0.015024,0.012275,-0.015931,-9.999908,-8.000051,-6.000049,1.091394
2.7200,-0.000000,0.000000,0.029892,1.000000,0.000000,0.000000,0.198092,0.160630,-0.181579,-0.013477,-0.168657,-0.175193,0.014993,0.012158,-0.016005,-9.999908,-8.000305,-6.000045,1.093634
2.7400,-0.000000,0.000000,0.029892,1.000000,0.000000,-0.000000,0.197730,0.159120,-0.182618,-0.015983,-0.167293,-0.176392,0.014959,0.012038,-0.016078,-9.999908,-8.000224,-6.000042,1.095855
2.7600,-0.000000,0.000000,0.029892,1.000000,0.000000,0.000000,0.197337,0.157585,-0.183628,-0.018487,-0.165902,-0.177562,0.014924,0.011917,-0.016147,-9.999908,-7.960420,-6.000039,1.098059
2.7800,-0.000000,0.000000,0.029892,1.000000,0.000000,0.000000,0.196913,0.156025,-0.184610,-0.020988,-0.164485,-0.178705,0.014885,0.011795,-0.016215,-9.999907,-7.892388,-6.000036,1.100244
2.8000,-0.000000,0.000000,0.029892,1.000000,0.000000,-0.000000,0.196457,0.154441,-0.185562,-0.023486,-0.163043,-0.179819,0.014845,0.011670,-0.016280,-9.999907,-7.823111,-6.000033,1.102410
2.8200,-0.000000,0.000000,0.029892,1.000000,0.000000,0.000000,0.195971,0.152832,-0.186485,-0.025979,-0.161574,-0.180905,0.014802,0.011544,-0.016343,-9.999907,-7.752598,-6.000030,1.104558
2.8400,-0.000000,0.000000,0.029892,1.000000,0.000000,0.000000,0.195454,0.151198,-0.187378,-0.028469,-0.160080,-0.181962,0.014757,0.011416,-0.016404,-9.999907,-7.680861,-6.000028,1.106686
2.8600,-0.000000,0.000000,0.029892,1.000000,0.000000,0.000000,0.194905,0.149541,-0.188242,-0.030955,-0.158561,-0.182991,0.014710,0.011286,-0.016463,-9.999906,-7.607911,-6.000025,1.108796
2.8800,-0.000000,0.000000,0.029892,1.000000,0.000000,-0.000000,0.194326,0.147861,-0.189076,-0.033435,-0.157017,-0.183991,0.014660,0.011154,-0.016519,-9.999906,-7.533761,-6.000023,1.110886
2.9000,-0.000000,0.000000,0.029892,1.000000,0.000000,0.000000,0.193717,0.146157,-0.189880,-0.035910,-0.155448,-0.184962,0.014608,0.011021,-0.016573,-9.999906,-7.458421,-6.000020,1.112957
2.9200,-0.000000,0.000000,0.029892,1.000000,0.000000,-0.000000,0.193076,0.144430,-0.190655,-0.038380,-0.153854,-0.185903,0.014554,0.010887,-0.016624,-9.999906,-7.381905,-6.000018,1.115008
2.9400,-0.000000,0.000000,0.029892,1.000000,0.000000,0.000000,0.192406,0.142680,-0.191399,-0.040843,-0.152236,-0.186815,0.014497,0.010750,-0.016673,-9.999906,-7.304223,-6.000016,1.117040
2.9600,-0.000000,0.000000,0.029892,1.000000,0.000000,-0.000000,0.191704,0.140907,-0.192113,-0.043300,-0.150594,-0.187698,0.014438,0.010612,-0.016720,-9.999905,-7.225388,-6.000013,1.119052
2.9800,-0.000000,0.000000,0.029892,1.000000,0.000000,-0.000000,0.190973,0.139113,-0.192797,-0.045751,-0.148929,-0.188551,0.014377,0.010473,-0.016765,-9.999905,-7.145413,-6.000011,1.121044
3.0000,-0.000000,0.000000,0.029892,1.000000,0.000000,0.000000,0.190211,0.137296,-0.193450,-0.048194,-0.147239,-0.189374,0.014314,0.010332,-0.016807,-9.999905,-7.064310,-6.000009,1.123016
3.0200,-0.000000,0.000000,0.029892,1.000000,0.000000,-0.000000,0.189420,0.135458,-0.194072,-0.050629,-0.145527,-0.190168,0.014249,0.010190,-0.016847,-9.999905,-6.982092,-6.000008,1.124967
3.0400,-0.000000,0.000000,0.029892,1.000000,0.000000,-0.000000,0.188598,0.133598,-0.194664,-0.053056,-0.143791,-0.190931,0.014181,0.010046,-0.016885,-9.999904,-6.898773,-6.000006,1.126899
3.0600,-0.000000,0.000000,0.029892,1.000000,0.000000,-0.000000,0.187747,0.131717,-0.195226,-0.055475,-0.142033,-0.191664,0.014111,0.009900,-0.016920,-9.999904,-6.814365,-6.000004,1.128810
3.0800,-0.000000,0.000000,0.029892,1.000000,0.000000,0.000000,0.186866,0.129816,-0.195756,-0.057885,-0.140253,-0.192367,0.014039,0.009753,-0.016953,-9.999904,-6.728882,-6.000003,1.130701
3.1000,-0.000000,0.000000,0.029892,1.000000,0.000000,-0.000000,0.185955,0.127893,-0.196256,-0.060287,-0.138450,-0.193039,0.013965,0.009605,-0.016984,-9.999904,-6.642338,-6.000001,1.132572
3.1200,-0.000000,0.000000,0.029892,1.000000,0.000000,0.000000,0.185015,0.125951,-0.196724,-0.062678,-0.136625,-0.193681,0.013889,0.009455,-0.017012,-9.999904,-6.554745,-6.000000,1.134422
3.1400,-0.000000,0.000000,0.029892,1.000000,0.000000,-0.000000,0.184046,0.123989,-0.197162,-0.065060,-0.134779,-0.194293,0.013811,0.009304,-0.017038,-9.999903,-6.466118,-5.999998,1.136251
3.1600,-0.000000,0.000000,0.029892,1.000000,0.000000,0.000000,0.183048,0.122007,-0.197568,-0.067431,-0.132912,-0.194874,0.013730,0.009152,-0.017062,-9.999903,-6.376472,-5.999997,1.138060
3.1800,-0.000000,0.000000,0.029892,1.000000,0.000000,-0.000000,0.182021,0.120006,-0.197943,-0.069792,-0.131023,-0.195424,0.013648,0.008998,-0.017083,-9.999903,-6.285819,-5.999996,1.139848
3.2000,-0.000000,0.000000,0.029892,1.000000,0.000000,-0.000000,0.180965,0.117986,-0.198287,-0.072142,-0.129114,-0.195943,0.013563,0.008843,-0.017102,-9.999903,-6.194175,-5.999995,1.141616
3.2200,-0.000000,0.000000,0.029892,1.000000,0.000000,-0.000000,0.179881,0.115948,-0.198600,-0.074480,-0.127185,-0.196431,0.013476,0.008687,-0.017118,-9.999903,-6.101554,-5.999994,1.143362
3.2400,-0.000000,0.000000,0.029892,1.000000,0.000000,-0.000000,0.178768,0.113891,-0.198881,-0.076806,-0.125235,-0.196888,0.013388,0.008529,-0.017132,-9.999902,-6.007971,-5.999994,1.145088
3.2600,-0.000000,0.000000,0.029892,1.000000,0.000000,0.000000,0.177627,0.111816,-0.199131,-0.079121,-0.123265,-0.197314,0.013297,0.008370,-0.017144,-9.999902,-5.913441,-5.999993,1.146793
3.2800,-0.000000,0.000000,0.029892,1.000000,0.000000,0.000000,0.176458,0.109723,-0.199349,-0.081423,-0.121277,-0.197709,0.013204,0.008210,-0.017154,-9.999902,-5.817978,-5.999992,1.148477
3.3000,-0.000000,0.000000,0.029892,1.000000,0.000000,-0.000000,0.175261,0.107613,-0.199536,-0.083712,-0.119269,-0.198073,0.013109,0.008049,-0.017161,-9.999902,-5.721598,-5.999992,1.150141
3.3200,-0.000000,0.000000,0.029892,1.000000,0.000000,0.000000,0.174037,0.105486,-0.199691,-0.085988,-0.117242,-0.198405,0.013013,0.007887,-0.017166,-9.999901,-5.624315,-5.999992,1.151783
3.3400,-0.000000,0.000000,0.029892,1.000000,0.000000,-0.000000,0.172785,0.103343,-0.199815,-0.088250,-0.115196,-0.198706,0.012914,0.007724,-0.017168,-9.999901,-5.526146,-5.999991,1.153405
3.3600,-0.000000,0.000000,0.029892,1.000000,0.000000,0.000000,0.171505,0.101183,-0.199907,-0.090498,-0.113133,-0.198976,0.012813,0.007559,-0.017168,-9.999901,-5.427106,-5.999991,1.155005
3.3800,-0.000000,0.000000,0.029892,1.000000,0.000000,0.000000,0.170199,0.099007,-0.199968,-0.092732,-0.111051,-0.199214,0.012711,0.007394,-0.017166,-9.999901,-5.327211,-5.999991,1.156585
3.4000,-0.000000,0.000000,0.029892,1.000000,0.000000,-0.000000,0.168866,0.096816,-0.199997,-0.094952,-0.108953,-0.199421,0.012606,0.007228,-0.017162,-9.999901,-5.226475,-5.999991,1.158144
3.4200,-0.000000,0.000000,0.029892,1.000000,0.000000,0.000000,0.167506,0.094609,-0.199995,-0.097156,-0.106836,-0.199596,0.012500,0.007060,-0.017155,-9.999900,-5.124916,-5.999991,1.159682
3.4400,-0.000000,0.000000,0.029892,1.000000,0.000000,-0.000000,0.166119,0.092387,-0.199961,-0.099345,-0.104703,-0.199740,0.012392,0.006892,-0.017146,-9.999900,-5.022550,-5.999992,1.161199
3.4600,-0.000000,0.000000,0.029892,1.000000,0.000000,-0.000000,0.164707,0.090151,-0.199895,-0.101519,-0.102554,-0.199853,0.012282,0.006722,-0.017134,-9.999900,-4.919392,-5.999992,1.162695
3.4800,-0.000000,0.000000,0.029892,1.000000,0.000000,0.000000,0.163268,0.087900,-0.199798,-0.103676,-0.100388,-0.199933,0.012170,0.006552,-0.017121,-9.999900,-4.815459,-5.999993,1.164170
3.5000,-0.000000,0.000000,0.029892,1.000000,0.000000,-0.000000,0.161803,0.085636,-0.199669,-0.105817,-0.098206,-0.199982,0.012056,0.006381,-0.017105,-9.999900,-4.710768,-5.999993,1.165625
3.5200,-0.000000,0.000000,0.029892,1.000000,0.000000,0.000000,0.160313,0.083358,-0.199509,-0.107941,-0.096009,-0.200000,0.011941,0.006209,-0.017086,-9.999899,-4.605334,-5.999994,1.167059
3.5400,-0.000000,0.000000,0.029892,1.000000,0.000000,0.000000,0.158798,0.081067,-0.199317,-0.110049,-0.093797,-0.199986,0.011823,0.006036,-0.017066,-9.999899,-4.499175,-5.999995,1.168472
3.5600,-0.000000,0.000000,0.029892,1.000000,0.000000,0.000000,0.157258,0.078763,-0.199094,-0.112138,-0.091570,-0.199940,0.011704,0.005862,-0.017043,-9.999899,-4.392308,-5.999996,1.169864
3.5800,-0.000000,0.000000,0.029892,1.000000,0.000000,-0.000000,0.155692,0.076447,-0.198839,-0.114211,-0.089328,-0.199863,0.011583,0.005688,-0.017018,-9.999899,-4.284749,-5.999997,1.171235
3.6000,-0.000000,0.000000,0.029892,1.000000,0.000000,0.000000,0.154103,0.074118,-0.198553,-0.116265,-0.087073,-0.199754,0.011461,0.005512,-0.016990,-9.999899,-4.176515,-5.999998,1.172586
3.6200,-0.000000,0.000000,0.029892,1.000000,0.000000,-0.000000,0.152489,0.071778,-0.198236,-0.118300,-0.084803,-0.199614,0.011337,0.005336,-0.016960,-9.999899,-4.067623,-5.999999,1.173917
3.6400,-0.000000,0.000000,0.029892,1.000000,0.000000,0.000000,0.150850,0.069427,-0.197887,-0.120317,-0.082521,-0.199442,0.011211,0.005160,-0.016928,-9.999898,-3.958092,-6.000000,1.175227
3.6600,-0.000000,0.000000,0.029892,1.000000,0.000000,-0.000000,0.149188,0.067064,-0.197507,-0.122316,-0.080225,-0.199239,0.011084,0.004982,-0.016894,-9.999898,-3.847937,-6.000002,1.176516
3.6800,-0.000000,0.000000,0.029892,1.000000,0.000000,-0.000000,0.147503,0.064691,-0.197096,-0.124294,-0.077916,-0.199004,0.010954,0.004804,-0.016858,-9.999898,-3.737177,-6.000003,1.177785
3.7000,-0.000000,0.000000,0.029892,1.000000,0.000000,0.000000,0.145794,0.062308,-0.196654,-0.126253,-0.075595,-0.198738,0.010824,0.004626,-0.016819,-9.999898,-3.625829,-6.000005,1.179033
3.7200,-0.000000,0.000000,0.029892,1.000000,0.000000,0.000000,0.144062,0.059915,-0.196180,-0.128193,-0.073263,-0.198441,0.010691,0.004447,-0.016778,-9.999898,-3.513910,-6.000007,1.180261
3.7400,-0.000000,0.000000,0.029892,1.000000,0.000000,0.000000,0.142307,0.057513,-0.195676,-0.130112,-0.070918,-0.198112,0.010558,0.004267,-0.016735,-9.999897,-3.401438,-6.000009,1.181469
3.7600,-0.000000,0.000000,0.029892,1.000000,0.000000,0.000000,0.140530,0.055101,-0.195141,-0.132010,-0.068563,-0.197752,0.010422,0.004086,-0.016689,-9.999897,-3.288432,-6.000011,1.182657
3.7800,-0.000000,0.000000,0.029892,1.000000,0.000000,0.000000,0.138731,0.052681,-0.194575,-0.133888,-0.066197,-0.197360,0.010285,0.003906,-0.016642,-9.999897,-3.174908,-6.000013,1.183825
3.8000,-0.000000,0.000000,0.029892,1.000000,0.000000,0.000000,0.136909,0.050252,-0.193978,-0.135744,-0.063820,-0.196938,0.010147,0.003724,-0.016592,-9.999897,-3.060886,-6.000015,1.184972
3.8200,-0.000000,0.000000,0.029892,1.000000,0.000000,0.000000,0.135067,0.047816,-0.193351,-0.137579,-0.061433,-0.196484,0.010007,0.003543,-0.016540,-9.999897,-2.946382,-6.000017,1.186100
3.8400,-0.000000,0.000000,0.029892,1.000000,0.000000,-0.000000,0.133202,0.045371,-0.192693,-0.139392,-0.059036,-0.195999,0.009866,0.003360,-0.016486,-9.999897,-2.831415,-6.000020,1.187207
3.8600,-0.000000,0.000000,0.029892,1.000000,0.000000,0.000000,0.131317,0.042920,-0.192004,-0.141183,-0.056630,-0.195484,0.009723,0.003178,-0.016429,-9.999896,-2.716003,-6.000022,1.188295
3.8800,-0.000000,0.000000,0.029892,1.000000,0.000000,-0.000000,0.129411,0.040462,-0.191286,-0.142952,-0.054216,-0.194937,0.009579,0.002995,-0.016371,-9.999896,-2.600164,-6.000025,1.189363
3.9000,-0.000000,0.000000,0.029892,1.000000,0.000000,0.000000,0.127485,0.037998,-0.190537,-0.144699,-0.051792,-0.194360,0.009433,0.002812,-0.016310,-9.999896,-2.483917,-6.000027,1.190411
3.9200,-0.000000,0.000000,0.029892,1.000000,0.000000,0.000000,0.125538,0.035527,-0.189758,-0.146422,-0.049361,-0.193752,0.009286,0.002628,-0.016248,-9.999896,-2.367280,-6.000030,1.191440
3.9400,-0.000000,0.000000,0.029892,1.000000,0.000000,-0.000000,0.123572,0.033051,-0.188949,-0.148123,-0.046921,-0.193113,0.009138,0.002444,-0.016183,-9.999896,-2.250271,-6.000033,1.192449
3.9600,-0.000000,0.000000,0.029892,1.000000,0.000000,0.000000,0.121586,0.030570,-0.188110,-0.149800,-0.044475,-0.192444,0.008988,0.002260,-0.016116,-9.999896,-2.132910,-6.000036,1.193438
3.9800,-0.000000,0.000000,0.029892,1.000000,0.000000,-0.000000,0.119581,0.028084,-0.187242,-0.151453,-0.042021,-0.191745,0.008837,0.002075,-0.016047,-9.999896,-2.015213,-6.000039,1.194408
4.0000,-0.000000,0.000000,0.029892,1.000000,0.000000,0.000000,0.117557,0.025593,-0.186344,-0.153082,-0.039560,-0.191015,0.008685,0.001891,-0.015976,-9.999895,-1.897201,-6.000043,1.195359
4.0200,-0.000000,0.000000,0.029892,1.000000,0.000000,-0.000000,0.115515,0.023099,-0.185416,-0.154688,-0.037094,-0.190255,0.008532,0.001706,-0.015902,-9.999895,-1.778891,-6.000046,1.196291
4.0400,-0.000000,0.000000,0.029892,1.000000,0.000000,0.000000,0.113454,0.020601,-0.184459,-0.156269,-0.034621,-0.189465,0.008377,0.001521,-0.015827,-9.999895,-1.660302,-6.000049,1.197203
4.0600,-0.000000,0.000000,0.029892,1.000000,0.000000,-0.000000,0.111375,0.018099,-0.183474,-0.157825,-0.032143,-0.188645,0.008221,0.001336,-0.015750,-9.999895,-1.541453,-6.000053,1.198096
4.0800,-0.000000,0.000000,0.029892,1.000000,0.000000,-0.000000,0.109279,0.015595,-0.182459,-0.159356,-0.029660,-0.187796,0.008064,0.001151,-0.015671,-9.999895,-1.422363,-6.000057,1.198971
4.1000,-0.000000,0.000000,0.029892,1.000000,0.000000,0.000000,0.107165,0.013088,-0.181415,-0.160862,-0.027172,-0.186916,0.007906,0.000966,-0.015589,-9.999895,-1.303051,-6.000060,1.199826
4.1200,-0.000000,0.000000,0.029892,1.000000,0.000000,-0.000000,0.105035,0.010579,-0.180343,-0.162343,-0.024680,-0.186007,0.007747,0.000780,-0.015506,-9.999895,-1.183535,-6.000064,1.200663
4.1400,-0.000000,0.000000,0.029892,1.000000,0.000000,0.000000,0.102888,0.008069,-0.179242,-0.163798,-0.022184,-0.185069,0.007586,0.000595,-0.015421,-9.999894,-1.063834,-6.000057,1.201481
4.1600,-0.000000,0.000000,0.029892,1.000000,0.000000,0.000000,0.100725,0.005557,-0.178113,-0.165227,-0.019685,-0.184102,0.007425,0.000410,-0.015333,-9.999894,-0.943967,-6.000049,1.202280
4.1800,-0.000000,0.000000,0.029892,1.000000,0.000000,-0.000000,0.098545,0.003044,-0.176956,-0.166630,-0.017182,-0.183105,0.007263,0.000224,-0.015244,-9.999894,-0.823952,-6.000042,1.203061
4.2000,-0.000000,0.000000,0.029892,1.000000,0.000000,0.000000,0.096351,0.000531,-0.175770,-0.168007,-0.014677,-0.182080,0.007099,0.000039,-0.015153,-9.999894,-0.703810,-6.000034,1.203823
4.2200,-0.000000,0.000000,0.029892,1.000000,0.000000,-0.000000,0.094141,-0.001982,-0.174558,-0.169357,-0.012169,-0.181026,0.006934,-0.000146,-0.015060,-9.999894,-0.583559,-6.000026,1.204566
4.2400,-0.000000,0.000000,0.029892,1.000000,0.000000,-0.000000,0.091916,-0.004495,-0.173317,-0.170680,-0.009660,-0.179943,0.006769,-0.000331,-0.014965,-9.999894,-0.463217,-6.000018,1.205292
4.2600,-0.000000,0.000000,0.029892,1.000000,0.000000,0.000000,0.089677,-0.007007,-0.172049,-0.171977,-0.007149,-0.178832,0.006602,-0.000516,-0.014868,-9.999894,-0.342804,-6.000009,1.205999
4.2800,-0.000000,0.000000,0.029892,1.000000,0.000000,0.000000,0.087423,-0.009519,-0.170754,-0.173246,-0.004637,-0.177692,0.006435,-0.000701,-0.014769,-9.999894,-0.222339,-6.000001,1.206688
4.3000,-0.000000,0.000000,0.029892,1.000000,0.000000,0.000000,0.085156,-0.012028,-0.169432,-0.174488,-0.002124,-0.176525,0.006267,-0.000885,-0.014668,-9.999893,-0.101840,-5.999992,1.207359
4.3200,-0.000000,0.000000,0.029892,1.000000,0.000000,0.000000,0.082875,-0.014536,-0.168083,-0.175703,0.000389,-0.175329,0.006097,-0.001069,-0.014566,-9.999893,0.018673,-5.999983,1.208012
4.3400,-0.000000,0.000000,0.029892,1.000000,0.000000,0.000000,0.080581,-0.017041,-0.166708,-0.176890,0.002903,-0.174106,0.005927,-0.001254,-0.014461,-9.999893,0.139181,-5.999974,1.208646
4.3600,-0.000000,0.000000,0.029892,1.000000,0.000000,-0.000000,0.078275,-0.019544,-0.165307,-0.178048,0.005415,-0.172856,0.005756,-0.001437,-0.014355,-9.999893,0.259666,-5.999965,1.209263
4.3800,-0.000000,0.000000,0.029892,1.000000,0.000000,-0.000000,0.075956,-0.022044,-0.163879,-0.179179,0.007927,-0.171578,0.005585,-0.001621,-0.014247,-9.999893,0.380108,-5.999955,1.209863
4.4000,-0.000000,0.000000,0.029892,1.000000,0.000000,-0.000000,0.073625,-0.024540,-0.162425,-0.180281,0.010438,-0.170273,0.005412,-0.001804,-0.014137,-9.999893,0.500489,-5.999945,1.210444
4.4200,-0.000000,0.000000,0.029892,1.000000,0.000000,0.000000,0.071282,-0.027032,-0.160946,-0.181355,0.012947,-0.168941,0.005239,-0.001987,-0.014026,-9.999893,0.620789,-5.999936,1.211008
4.4400,-0.000000,0.000000,0.029892,1.000000,0.000000,-0.000000,0.068929,-0.029520,-0.159441,-0.182401,0.015454,-0.167583,0.005065,-0.002169,-0.013913,-9.999893,0.740989,-5.999925,1.211554
4.4600,-0.000000,0.000000,0.029892,1.000000,0.000000,0.000000,0.066564,-0.032003,-0.157912,-0.183417,0.017958,-0.166198,0.004890,-0.002351,-0.013798,-9.999893,0.861071,-5.999944,1.212083
4.4800,-0.000000,0.000000,0.029892,1.000000,0.000000,-0.000000,0.064189,-0.034482,-0.156357,-0.184405,0.020460,-0.164787,0.004715,-0.002533,-0.013681,-9.999893,0.981016,-5.999963,1.212595
4.5000,-0.000000,0.000000,0.029892,1.000000,0.000000,0.000000,0.061803,-0.036955,-0.154777,-0.185363,0.022958,-0.163350,0.004539,-0.002714,-0.013562,-9.999892,1.100805,-5.999982,1.213089
4.5200,-0.000000,0.000000,0.029892,1.000000,0.000000,-0.000000,0.059408,-0.039422,-0.153173,-0.186292,0.025453,-0.161887,0.004362,-0.002895,-0.013442,-9.999892,1.220419,-6.000001,1.213565
4.5400,-0.000000,0.000000,0.029892,1.000000,0.000000,-0.000000,0.057004,-0.041882,-0.151545,-0.187192,0.027944,-0.160398,0.004185,-0.003075,-0.013321,-9.999892,1.339838,-6.000021,1.214025
4.5600,-0.000000,0.000000,0.029892,1.000000,0.000000,0.000000,0.054590,-0.044337,-0.149893,-0.188062,0.030430,-0.158884,0.004007,-0.003255,-0.013197,-9.999892,1.459046,-6.000041,1.214467
4.5800,-0.000000,0.000000,0.029892,1.000000,0.000000,0.000000,0.052168,-0.046784,-0.148218,-0.188902,0.032912,-0.157345,0.003829,-0.003434,-0.013072,-9.999892,1.578021,-6.000062,1.214892
4.6000,-0.000000,0.000000,0.029892,1.000000,0.000000,-0.000000,0.049738,-0.049224,-0.146519,-0.189713,0.035388,-0.155781,0.003650,-0.003612,-0.012945,-9.999892,1.696747,-6.000082,1.215300
4.6200,-0.000000,0.000000,0.029892,1.000000,0.000000,0.000000,0.047300,-0.051656,-0.144796,-0.190494,0.037859,-0.154193,0.003470,-0.003790,-0.012817,-9.999892,1.815204,-6.000062,1.215691
4.6400,-0.000000,0.000000,0.029892,1.000000,0.000000,-0.000000,0.044854,-0.054079,-0.143051,-0.191244,0.040323,-0.152580,0.003291,-0.003967,-0.012687,-9.999892,1.933373,-6.000024,1.216066
4.6600,-0.000000,0.000000,0.029892,1.000000,0.000000,-0.000000,0.042401,-0.056495,-0.141284,-0.191965,0.042782,-0.150943,0.003110,-0.004144,-0.012556,-9.999892,2.051236,-5.999986,1.216423
4.6800,-0.000000,0.000000,0.029892,1.000000,0.000000,-0.000000,0.039942,-0.058901,-0.139494,-0.192655,0.045234,-0.149282,0.002929,-0.004320,-0.012423,-9.999892,2.168775,-5.999947,1.216763
4.7000,-0.000000,0.000000,0.029892,1.000000,0.000000,0.000000,0.037476,-0.061298,-0.137682,-0.193314,0.047678,-0.147598,0.002748,-0.004495,-0.012289,-9.999892,2.285971,-5.999908,1.217087
4.7200,-0.000000,0.000000,0.029892,1.000000,0.000000,0.000000,0.035005,-0.063686,-0.135848,-0.193943,0.050115,-0.145891,0.002567,-0.004670,-0.012153,-9.999892,2.402805,-5.999937,1.217394
4.7400,-0.000000,0.000000,0.029892,1.000000,0.000000,0.000000,0.032527,-0.066063,-0.133993,-0.194542,0.052544,-0.144160,0.002385,-0.004843,-0.012015,-9.999892,2.519259,-6.000008,1.217684
4.7600,-0.000000,0.000000,0.029892,1.000000,0.000000,-0.000000,0.030045,-0.068430,-0.132116,-0.195110,0.054965,-0.142407,0.002203,-0.005016,-0.011877,-9.999892,2.635315,-6.000079,1.217957
4.7800,-0.000000,0.000000,0.029892,1.000000,0.000000,0.000000,0.027558,-0.070786,-0.130219,-0.195647,0.057377,-0.140631,0.002020,-0.005189,-0.011736,-9.999892,2.750955,-6.000095,1.218214
4.8000,-0.000000,0.000000,0.029892,1.000000,0.000000,0.000000,0.025067,-0.073131,-0.128301,-0.196153,0.059780,-0.138833,0.001837,-0.005360,-0.011595,-9.999891,2.866160,-5.999969,1.218454
4.8200,-0.000000,0.000000,0.029892,1.000000,0.000000,-0.000000,0.022571,-0.075464,-0.126363,-0.196628,0.062174,-0.137013,0.001654,-0.005531,-0.011452,-9.999891,2.980912,-5.999841,1.218678
4.8400,-0.000000,0.000000,0.029892,1.000000,0.000000,-0.000000,0.020072,-0.077786,-0.124405,-0.197072,0.064557,-0.135171,0.001471,-0.005700,-0.011307,-9.999891,3.095193,-6.000054,1.218885
4.8600,-0.000000,0.000000,0.029892,1.000000,0.000000,-0.000000,0.017570,-0.080095,-0.122428,-0.197485,0.066931,-0.133308,0.001287,-0.005869,-0.011161,-9.999891,3.208986,-6.000072,1.219076
4.8800,-0.000000,0.000000,0.029892,1.000000,0.000000,0.000000,0.015065,-0.082392,-0.120431,-0.197867,0.069294,-0.131424,0.001104,-0.006037,-0.011014,-9.999891,3.322272,-5.999848,1.219250
4.9000,-0.000000,0.000000,0.029892,1.000000,0.000000,-0.000000,0.012558,-0.084675,-0.118415,-0.198217,0.071646,-0.129519,0.000920,-0.006204,-0.010866,-9.999891,3.435033,-6.000001,1.219408
4.9200,-0.000000,0.000000,0.029892,1.000000,0.000000,-0.000000,0.010049,-0.086945,-0.116380,-0.198536,0.073987,-0.127594,0.000736,-0.006370,-0.010716,-9.999891,3.547252,-6.000001,1.219549
4.9400,-0.000000,0.000000,0.029892,1.000000,0.000000,0.000000,0.007538,-0.089202,-0.114327,-0.198824,0.076316,-0.125648,0.000552,-0.006535,-0.010565,-9.999891,3.658911,-6.000234,1.219674
4.9600,-0.000000,0.000000,0.029892,1.000000,0.000000,0.000000,0.005026,-0.091444,-0.112256,-0.199080,0.078633,-0.123683,0.000368,-0.006699,-0.010413,-9.999891,3.769993,-5.929891,1.219782
4.9800,-0.000000,0.000000,0.029892,1.000000,0.000000,0.000000,0.002513,-0.093672,-0.110167,-0.199305,0.080938,-0.121698,0.000184,-0.006862,-0.010259,-9.999891,3.880480,-5.834725,1.219874
5.0000,-0.000000,0.000000,0.029892,1.000000,0.000000,0.000000,0.000000,-0.095885,-0.108060,-0.199499,0.083229,-0.119694,0.000000,-0.007023,-0.010105,-9.999891,3.990355,-5.738638,1.219949
5.0200,-0.000000,0.000000,0.029892,1.000000,0.000000,-0.000000,-0.002513,-0.098083,-0.105937,-0.199661,0.085508,-0.117672,-0.000184,-0.007184,-0.009949,-9.999891,4.099600,-5.641647,1.220009
5.0400,-0.000000,0.000000,0.029892,1.000000,0.000000,0.000000,-0.005026,-0.100266,-0.103797,-0.199792,0.087773,-0.115630,-0.000368,-0.007344,-0.009792,-9.999891,4.208198,-5.543765,1.220051
5.0600,-0.000000,0.000000,0.029892,1.000000,0.000000,-0.000000,-0.007538,-0.102432,-0.101641,-0.199890,0.090025,-0.113570,-0.000552,-0.007502,-0.009634,-9.999891,4.316132,-5.445010,1.220078
5.0800,-0.000000,0.000000,0.029892,1.000000,0.000000,0.000000,-0.010049,-0.104583,-0.099468,-0.199958,0.092262,-0.111493,-0.000736,-0.007660,-0.009475,-9.999891,4.423386,-5.345396,1.220088
5.1000,-0.000000,0.000000,0.029892,1.000000,0.000000,0.000000,-0.012558,-0.106717,-0.097280,-0.199994,0.094484,-0.109397,-0.000920,-0.007816,-0.009314,-9.999891,4.529942,-5.244940,1.220081
5.1200,-0.000000,0.000000,0.029892,1.000000,0.000000,0.000000,-0.015065,-0.108834,-0.095076,-0.199998,0.096692,-0.107285,-0.001103,-0.007971,-0.009153,-9.999891,4.635783,-5.143656,1.220059
5.1400,-0.000000,0.000000,0.029892,1.000000,0.000000,0.000000,-0.017570,-0.110934,-0.092858,-0.199971,0.098884,-0.105155,-0.001287,-0.008125,-0.008990,-9.999891,4.740894,-5.041561,1.220019
5.1600,-0.000000,0.000000,0.029892,1.000000,0.000000,-0.000000,-0.020072,-0.113016,-0.090625,-0.199912,0.101061,-0.103009,-0.001470,-0.008278,-0.008827,-9.999891,4.845257,-4.938670,1.219964
5.1800,-0.000000,0.000000,0.029892,1.000000,0.000000,0.000000,-0.022571,-0.115081,-0.088377,-0.199821,0.103222,-0.100847,-0.001653,-0.008429,-0.008662,-9.999891,4.948855,-4.835001,1.219892
5.2000,-0.000000,0.000000,0.029892,1.000000,0.000000,-0.000000,-0.025067,-0.117127,-0.086116,-0.199699,0.105366,-0.098669,-0.001836,-0.008579,-0.008497,-9.999891,5.051674,-4.730569,1.219803
5.2200,-0.000000,0.000000,0.029892,1.000000,0.000000,-0.000000,-0.027558,-0.119155,-0.083840,-0.199545,0.107494,-0.096475,-0.002019,-0.008728,-0.008331,-9.999891,5.153696,-4.625391,1.219698
5.2400,-0.000000,0.000000,0.029892,1.000000,0.000000,0.000000,-0.030045,-0.121164,-0.081552,-0.199360,0.109605,-0.094266,-0.002201,-0.008875,-0.008163,-9.999891,5.254905,-4.519483,1.219577
5.2600,-0.000000,0.000000,0.029892,1.000000,0.000000,-0.000000,-0.032527,-0.123154,-0.079251,-0.199144,0.111698,-0.092042,-0.002383,-0.009021,-0.007995,-9.999891,5.355286,-4.412862,1.219439
5.2800,-0.000000,0.000000,0.029892,1.000000,0.000000,-0.000000,-0.035005,-0.125124,-0.076937,-0.198896,0.113774,-0.089803,-0.002564,-0.009166,-0.007826,-9.999891,5.454823,-4.305545,1.219284
5.3000,-0.000000,0.000000,0.029892,1.000000,0.000000,0.000000,-0.037476,-0.127075,-0.074611,-0.198616,0.115832,-0.087550,-0.002746,-0.009310,-0.007656,-9.999891,5.553499,-4.197548,1.219113
5.3200,-0.000000,0.000000,0.029892,1.000000,0.000000,-0.000000,-0.039942,-0.129006,-0.072274,-0.198305,0.117872,-0.085284,-0.002926,-0.009451,-0.007485,-9.999891,5.651300,-4.088889,1.218925
5.3400,-0.000000,0.000000,0.029892,1.000000,0.000000,0.000000,-0.042401,-0.130916,-0.069924,-0.197963,0.119893,-0.083004,-0.003107,-0.009592,-0.007313,-9.999891,5.748211,-3.979585,1.218721
5.3600,-0.000000,0.000000,0.029892,1.000000,0.000000,-0.000000,-0.044854,-0.132806,-0.067564,-0.197590,0.121895,-0.080711,-0.003287,-0.009731,-0.007141,-9.999891,5.844215,-3.869652,1.218500
5.3800,-0.000000,0.000000,0.029892,1.000000,0.000000,-0.000000,-0.047300,-0.134674,-0.065194,-0.197185,0.123878,-0.078405,-0.003466,-0.009869,-0.006968,-9.999891,5.939298,-3.759109,1.218262
5.4000,-0.000000,0.000000,0.029892,1.000000,0.000000,0.000000,-0.049738,-0.136522,-0.062812,-0.196750,0.125841,-0.076087,-0.003645,-0.010005,-0.006794,-9.999891,6.033444,-3.647972,1.218007
5.4200,-0.000000,0.000000,0.029892,1.000000,0.000000,-0.000000,-0.052168,-0.138348,-0.060421,-0.196283,0.127785,-0.073757,-0.003824,-0.010140,-0.006619,-9.999891,6.126640,-3.536260,1.217736
5.4400,-0.000000,0.000000,0.029892,1.000000,0.000000,0.000000,-0.054590,-0.140152,-0.058021,-0.195785,0.129708,-0.071415,-0.004001,-0.010273,-0.006444,-9.999892,6.218870,-3.423988,1.217447
5.4600,-0.000000,0.000000,0.029892,1.000000,0.000000,-0.000000,-0.057004,-0.141934,-0.055611,-0.195256,0.131611,-0.069061,-0.004179,-0.010405,-0.006268,-9.999892,6.310119,-3.311176,1.217142
5.4800,-0.000000,0.000000,0.029892,1.000000,0.000000,0.000000,-0.059408,-0.143693,-0.053193,-0.194697,0.133493,-0.066697,-0.004355,-0.010535,-0.006091,-9.999892,6.400374,-3.197841,1.216819
5.5000,-0.000000,0.000000,0.029892,1.000000,0.000000,0.000000,-0.061803,-0.145430,-0.050766,-0.194107,0.135354,-0.064323,-0.004532,-0.010663,-0.005914,-9.999892,6.489620,-3.084001,1.216480
5.5200,-0.000000,0.000000,0.029892,1.000000,0.000000,-0.000000,-0.064189,-0.147144,-0.048331,-0.193486,0.137193,-0.061938,-0.004707,-0.010790,-0.005736,-9.999892,6.577844,-2.969673,1.216124
5.5400,-0.000000,0.000000,0.029892,1.000000,0.000000,0.000000,-0.066564,-0.148834,-0.045888,-0.192834,0.139011,-0.059543,-0.004882,-0.010915,-0.005558,-9.999892,6.665030,-2.854877,1.215750
5.5600,-0.000000,0.000000,0.029892,1.000000,0.000000,-0.000000,-0.068929,-0.150501,-0.043439,-0.192152,0.140807,-0.057140,-0.005056,-0.011039,-0.005379,-9.999892,6.751166,-2.739629,1.215359
5.5800,-0.000000,0.000000,0.029892,1.000000,0.000000,0.000000,-0.071282,-0.152144,-0.040982,-0.191440,0.142580,-0.054727,-0.005229,-0.011161,-0.005199,-9.999892,6.836237,-2.623947,1.214951
5.6000,-0.000000,0.000000,0.029892,1.000000,0.000000,0.000000,-0.073625,-0.153764,-0.038519,-0.190697,0.144332,-0.052305,-0.005402,-0.011281,-0.005019,-9.999892,6.920231,-2.507851,1.214525
5.6200,-0.000000,0.000000,0.029892,1.000000,0.000000,0.000000,-0.075956,-0.155359,-0.036050,-0.189925,0.146060,-0.049875,-0.005574,-0.011400,-0.004839,-9.999892,7.003135,-2.391358,1.214082
5.6400,-0.000000,0.000000,0.029892,1.000000,0.000000,0.000000,-0.078275,-0.156929,-0.033575,-0.189122,0.147765,-0.047437,-0.005745,-0.011517,-0.004658,-9.999892,7.084934,-2.274487,1.213622
5.6600,-0.000000,0.000000,0.029892,1.000000,0.000000,-0.000000,-0.080581,-0.158475,-0.031095,-0.188290,0.149447,-0.044992,-0.005915,-0.011632,-0.004477,-9.999892,7.165617,-2.157256,1.213144
5.6800,-0.000000,0.000000,0.029892,1.000000,0.000000,0.000000,-0.082875,-0.159995,-0.028609,-0.187428,0.151106,-0.042540,-0.006084,-0.011746,-0.004295,-9.999892,7.245170,-2.039683,1.212648
5.7000,-0.000000,0.000000,0.029892,1.000000,0.000000,-0.000000,-0.085156,-0.161491,-0.026120,-0.186536,0.152740,-0.040081,-0.006253,-0.011858,-0.004113,-9.999892,7.323581,-1.921787,1.212135
5.7200,-0.000000,0.000000,0.029892,1.000000,0.000000,0.000000,-0.087423,-0.162961,-0.023626,-0.185615,0.154351,-0.037615,-0.006420,-0.011968,-0.003930,-9.999892,7.400838,-1.803587,1.211604
5.7400,-0.000000,0.000000,0.029892,1.000000,0.000000,-0.000000,-0.089677,-0.164405,-0.021129,-0.184664,0.155937,-0.035144,-0.006587,-0.012076,-0.003748,-9.999893,7.476928,-1.685101,1.211055
5.7600,-0.000000,0.000000,0.029892,1.000000,0.000000,0.000000,-0.091916,-0.165823,-0.018628,-0.183684,0.157498,-0.032667,-0.006753,-0.012182,-0.003565,-9.999893,7.551839,-1.566348,1.210488
5.7800,-0.000000,0.000000,0.029892,1.000000,0.000000,0.000000,-0.094141,-0.167215,-0.016124,-0.182675,0.159035,-0.030185,-0.006917,-0.012287,-0.003381,-9.999893,7.625560,-1.447346,1.209903
5.8000,-0.000000,0.000000,0.029892,1.000000,0.000000,0.000000,-0.096351,-0.168580,-0.013618,-0.181638,0.160546,-0.027698,-0.007081,-0.012389,-0.003198,-9.999893,7.698078,-1.328114,1.209300
5.8200,-0.000000,0.000000,0.029892,1.000000,0.000000,0.000000,-0.098545,-0.169919,-0.011109,-0.180572,0.162032,-0.025207,-0.007244,-0.012490,-0.003014,-9.999893,7.769383,-1.208671,1.208679
5.8400,-0.000000,0.000000,0.029892,1.000000,0.000000,-0.000000,-0.100725,-0.171232,-0.008599,-0.179477,0.163492,-0.022712,-0.007405,-0.012589,-0.002830,-9.999893,7.839464,-1.089037,1.208039
5.8600,-0.000000,0.000000,0.029892,1.000000,0.000000,0.000000,-0.102888,-0.172517,-0.006088,-0.178354,0.164927,-0.020213,-0.007566,-0.012686,-0.002646,-9.999893,7.908308,-0.969228,1.207381
5.8800,-0.000000,0.000000,0.029892,1.000000,0.000000,-0.000000,-0.105035,-0.173775,-0.003575,-0.177202,0.166336,-0.017711,-0.007726,-0.012782,-0.002462,-9.999893,7.975905,-0.849265,1.206705
5.9000,-0.000000,0.000000,0.029892,1.000000,0.000000,0.000000,-0.107165,-0.175005,-0.001062,-0.176023,0.167718,-0.015207,-0.007884,-0.012875,-0.002277,-9.999893,7.999999,-0.729167,1.206010
5.9200,-0.000000,0.000000,0.029892,1.000000,0.000000,0.000000,-0.109279,-0.176208,0.001451,-0.174816,0.169074,-0.012699,-0.008041,-0.012966,-0.002093,-9.999893,8.000019,-0.608952,1.205297
5.9400,-0.000000,0.000000,0.029892,1.000000,0.000000,0.000000,-0.111375,-0.177383,0.003964,-0.173581,0.170403,-0.010190,-0.008197,-0.013056,-0.001908,-9.999894,8.000461,-0.488639,1.204565
5.9600,-0.000000,0.000000,0.029892,1.000000,0.000000,0.000000,-0.113454,-0.178530,0.006477,-0.172319,0.171705,-0.007679,-0.008352,-0.013143,-0.001724,-9.999894,7.999689,-0.368247,1.203814
5.9800,-0.000000,0.000000,0.029892,1.000000,0.000000,-0.000000,-0.115515,-0.179648,0.008988,-0.171030,0.172980,-0.005168,-0.008506,-0.013229,-0.001539,-9.999894,8.000371,-0.247795,1.203044
6.0000,-0.000000,0.000000,0.029892,1.000000,0.000000,-0.000000,-0.117557,-0.180739,0.011498,-0.169714,0.174228,-0.002655,-0.008659,-0.013312,-0.001355,-9.999894,7.999942,-0.127302,1.202255
6.0200,-0.000000,0.000000,0.029892,1.000000,0.000000,-0.000000,-0.119581,-0.181801,0.014006,-0.168371,0.175449,-0.000142,-0.008810,-0.013394,-0.001170,-9.999894,7.999787,-0.006788,1.201447
6.0400,-0.000000,0.000000,0.029892,1.000000,0.000000,0.000000,-0.121586,-0.182834,0.016512,-0.167001,0.176641,0.002372,-0.008960,-0.013473,-0.000986,-9.999894,8.000031,0.113730,1.200620
6.0600,-0.000000,0.000000,0.029892,1.000000,0.000000,0.000000,-0.123572,-0.183838,0.019015,-0.165605,0.177806,0.004885,-0.009109,-0.013551,-0.000802,-9.999894,8.000237,0.234231,1.199774
6.0800,-0.000000,0.000000,0.029892,1.000000,0.000000,0.000000,-0.125538,-0.184813,0.021516,-0.164183,0.178943,0.007397,-0.009256,-0.013626,-0.000618,-9.999894,8.000099,0.354697,1.198909
6.1000,-0.000000,0.000000,0.029892,1.000000,0.000000,-0.000000,-0.127485,-0.185759,0.024013,-0.162735,0.180051,0.009907,-0.009402,-0.013700,-0.000434,-9.999895,7.999964,0.475110,1.198024
6.1200,-0.000000,0.000000,0.029892,1.000000,0.000000,-0.000000,-0.129411,-0.186676,0.026506,-0.161261,0.181131,0.012417,-0.009547,-0.013771,-0.000250,-9.999895,7.999833,0.595449,1.197120
6.1400,-0.000000,0.000000,0.029892,1.000000,0.000000,-0.000000,-0.131317,-0.187563,0.028995,-0.159761,0.182182,0.014924,-0.009690,-0.013840,-0.000066,-9.999895,7.999858,0.715696,1.196196
6.1600,-0.000000,0.000000,0.029892,1.000000,0.000000,0.000000,-0.133202,-0.188421,0.031479,-0.158237,0.183205,0.017429,-0.009832,-0.013907,0.000117,-9.999895,7.999931,0.835833,1.195252
6.1800,-0.000000,0.000000,0.029892,1.000000,0.000000,0.000000,-0.135067,-0.189249,0.033959,-0.156687,0.184198,0.019932,-0.009972,-0.013973,0.000300,-9.999895,8.000003,0.955839,1.194289
6.2000,-0.000000,0.000000,0.029892,1.000000,0.000000,-0.000000,-0.136909,-0.190047,0.036433,-0.155113,0.185163,0.022431,-0.010111,-0.014036,0.000483,-9.999895,8.000072,1.075697,1.193306
6.2200,-0.000000,0.000000,0.029892,1.000000,0.000000,0.000000,-0.138731,-0.190815,0.038901,-0.153514,0.186098,0.024926,-0.010249,-0.014096,0.000666,-9.999895,8.000140,1.195386,1.192303
6.2400,-0.000000,0.000000,0.029892,1.000000,0.000000,-0.000000,-0.140530,-0.191552,0.041363,-0.151891,0.187004,0.027418,-0.010385,-0.014155,0.000848,-9.999896,8.000133,1.314890,1.191280
6.2600,-0.000000,0.000000,0.029892,1.000000,0.000000,0.000000,-0.142307,-0.192260,0.043819,-0.150244,0.187881,0.029905,-0.010519,-0.014212,0.001029,-9.999896,8.000095,1.434187,1.190237
6.2800,-0.000000,0.000000,0.029892,1.000000,0.000000,-0.000000,-0.144062,-0.192937,0.046267,-0.148574,0.188727,0.032388,-0.010652,-0.014266,0.001211,-9.999896,8.000059,1.553261,1.189174
6.3000,-0.000000,0.000000,0.029892,1.000000,0.000000,0.000000,-0.145794,-0.193584,0.048709,-0.146880,0.189544,0.034865,-0.010783,-0.014318,0.001392,-9.999896,8.000024,1.672091,1.188091
6.3200,-0.000000,0.000000,0.029892,1.000000,0.000000,0.000000,-0.147503,-0.194200,0.051142,-0.145162,0.190331,0.037337,-0.010913,-0.014368,0.001572,-9.999896,7.999990,1.790660,1.186987
6.3400,-0.000000,0.000000,0.029892,1.000000,0.000000,-0.000000,-0.149188,-0.194786,0.053568,-0.143422,0.191088,0.039803,-0.011041,-0.014416,0.001752,-9.999896,7.999957,1.908947,1.185863
6.3600,-0.000000,0.000000,0.029892,1.000000,0.000000,0.000000,-0.150850,-0.195340,0.055985,-0.141659,0.191815,0.042263,-0.011168,-0.014462,0.001932,-9.999896,7.999925,2.026936,1.184719
6.3800,-0.000000,0.000000,0.029892,1.000000,0.000000,-0.000000,-0.152489,-0.195864,0.058393,-0.139874,0.192511,0.044716,-0.011293,-0.014505,0.002111,-9.999897,7.999895,2.144607,1.183554
6.4000,-0.000000,0.000000,0.029892,1.000000,0.000000,0.000000,-0.154103,-0.196357,0.060793,-0.138066,0.193178,0.047162,-0.011416,-0.014547,0.002289,-9.999897,7.999875,2.261941,1.182368
6.4200,-0.000000,0.000000,0.029892,1.000000,0.000000,-0.000000,-0.155692,-0.196819,0.063182,-0.136237,0.193813,0.049601,-0.011538,-0.014586,0.002467,-9.999897,7.999892,2.378920,1.181162
6.4400,-0.000000,0.000000,0.029892,1.000000,0.000000,0.000000,-0.157258,-0.197250,0.065562,-0.134386,0.194418,0.052032,-0.011658,-0.014622,0.002644,-9.999897,7.999908,2.495526,1.179936
6.4600,-0.000000,0.000000,0.029892,1.000000,0.000000,-0.000000,-0.158798,-0.197650,0.067931,-0.132514,0.194992,0.054454,-0.011776,-0.014657,0.002821,-9.999897,7.999923,2.611740,1.178688
6.4800,-0.000000,0.000000,0.029892,1.000000,0.000000,0.000000,-0.160313,-0.198018,0.070289,-0.130622,0.195536,0.056868,-0.011892,-0.014689,0.002997,-9.999897,7.999938,2.727544,1.177420
6.5000,-0.000000,0.000000,0.029892,1.000000,0.000000,0.000000,-0.161803,-0.198356,0.072637,-0.128708,0.196048,0.059273,-0.012007,-0.014719,0.003172,-9.999898,7.999952,2.842919,1.176130
6.5200,-0.000000,0.000000,0.029892,1.000000,0.000000,-0.000000,-0.163268,-0.198662,0.074972,-0.126774,0.196530,0.061669,-0.012120,-0.014747,0.003346,-9.999898,7.999965,2.957848,1.174820
6.5400,-0.000000,0.000000,0.029892,1.000000,0.000000,0.000000,-0.164707,-0.198936,0.077296,-0.124820,0.196981,0.064055,-0.012231,-0.014773,0.003520,-9.999898,7.999978,3.072312,1.173489
6.5600,-0.000000,0.000000,0.029892,1.000000,0.000000,-0.000000,-0.166119,-0.199179,0.079608,-0.122847,0.197400,0.066430,-0.012340,-0.014796,0.003693,-9.999898,7.999990,3.186292,1.172137
6.5800,-0.000000,0.000000,0.029892,1.000000,0.000000,0.000000,-0.167506,-0.199391,0.081907,-0.120854,0.197788,0.068796,-0.012448,-0.014817,0.003865,-9.999898,8.000001,3.299772,1.170764
6.6000,-0.000000,0.000000,0.029892,1.000000,0.000000,0.000000,-0.168866,-0.199571,0.084194,-0.118842,0.198146,0.071150,-0.012553,-0.014836,0.004037,-9.999898,8.000012,3.412732,1.169369
6.6200,-0.000000,0.000000,0.029892,1.000000,0.000000,-0.000000,-0.170199,-0.199720,0.086467,-0.116811,0.198471,0.073493,-0.012657,-0.014852,0.004207,-9.999899,8.000021,3.525156,1.167954
6.6400,-0.000000,0.000000,0.029892,1.000000,0.000000,0.000000,-0.171505,-0.199837,0.088726,-0.114762,0.198766,0.075825,-0.012759,-0.014866,0.004377,-9.999899,8.000031,3.637025,1.166517
6.6600,-0.000000,0.000000,0.029892,1.000000,0.000000,0.000000,-0.172785,-0.199923,0.090972,-0.112695,0.199029,0.078144,-0.012859,-0.014878,0.004546,-9.999899,8.000039,3.748322,1.165059
6.6800,-0.000000,0.000000,0.029892,1.000000,0.000000,-0.000000,-0.174037,-0.199977,0.093203,-0.110609,0.199261,0.080452,-0.012957,-0.014888,0.004713,-9.999899,8.000047,3.859029,1.163580
6.7000,-0.000000,0.000000,0.029892,1.000000,0.000000,-0.000000,-0.175261,-0.199999,0.095419,-0.108507,0.199461,0.082746,-0.013053,-0.014895,0.004880,-9.999899,8.000054,3.969129,1.162080
6.7200,-0.000000,0.000000,0.029892,1.000000,0.000000,0.000000,-0.176458,-0.199990,0.097620,-0.106387,0.199629,0.085028,-0.013147,-0.014900,0.005046,-9.999900,8.000060,4.078603,1.160558
6.7400,-0.000000,0.000000,0.029892,1.000000,0.000000,0.000000,-0.177627,-0.199949,0.099806,-0.104251,0.199767,0.087296,-0.013239,-0.014902,0.005211,-9.999900,8.000066,4.187436,1.159015
6.7600,-0.000000,0.000000,0.029892,1.000000,0.000000,0.000000,-0.178768,-0.199877,0.101976,-0.102098,0.199872,0.089550,-0.013329,-0.014903,0.005374,-9.999900,8.000071,4.295609,1.157451
6.7800,-0.000000,0.000000,0.029892,1.000000,0.000000,-0.000000,-0.179881,-0.199773,0.104130,-0.099928,0.199946,0.091790,-0.013417,-0.014901,0.005537,-9.999900,8.000075,4.403106,1.155865
6.8000,-0.000000,0.000000,0.029892,1.000000,0.000000,-0.000000,-0.180965,-0.199638,0.106267,-0.097744,0.199989,0.094016,-0.013503,-0.014896,0.005699,-9.999900,8.000079,4.509910,1.154258
6.8200,-0.000000,0.000000,0.029892,1.000000,0.000000,0.000000,-0.182021,-0.199471,0.108388,-0.095543,0.200000,0.096227,-0.013587,-0.014890,0.005859,-9.999901,8.000082,4.616003,1.152630
6.8400,-0.000000,0.000000,0.029892,1.000000,0.000000,-0.000000,-0.183048,-0.199273,0.110492,-0.093328,0.199979,0.098422,-0.013669,-0.014880,0.006019,-9.999901,8.000084,4.721368,1.150981
6.8600,-0.000000,0.000000,0.029892,1.000000,0.000000,0.000000,-0.184046,-0.199043,0.112578,-0.091098,0.199927,0.100602,-0.013749,-0.014869,0.006177,-9.999901,8.000086,4.825990,1.149310
6.8800,-0.000000,0.000000,0.029892,1.000000,0.000000,-0.000000,-0.185015,-0.198781,0.114646,-0.088853,0.199843,0.102766,-0.013827,-0.014855,0.006334,-9.999901,8.000087,4.929852,1.147618
6.9000,-0.000000,0.000000,0.029892,1.000000,0.000000,-0.000000,-0.185955,-0.198489,0.116696,-0.086594,0.199727,0.104914,-0.013902,-0.014839,0.006490,-9.999901,8.000087,5.032937,1.145905
6.9200,-0.000000,0.000000,0.029892,1.000000,0.000000,-0.000000,-0.186866,-0.198165,0.118728,-0.084322,0.199581,0.107046,-0.013976,-0.014821,0.006644,-9.999902,8.000086,5.135228,1.144170
6.9400,-0.000000,0.000000,0.029892,1.000000,0.000000,0.000000,-0.187747,-0.197809,0.120741,-0.082037,0.199402,0.109160,-0.014047,-0.014800,0.006797,-9.999902,8.000085,5.236711,1.142415
6.9600,-0.000000,0.000000,0.029892,1.000000,0.000000,-0.000000,-0.188598,-0.197423,0.122735,-0.079738,0.199192,0.111258,-0.014117,-0.014777,0.006949,-9.999902,8.000084,5.337367,1.140638
6.9800,-0.000000,0.000000,0.029892,1.000000,0.000000,0.000000,-0.189420,-0.197005,0.124710,-0.077427,0.198951,0.113337,-0.014184,-0.014752,0.007100,-9.999902,8.000081,5.437183,1.138840
7.0000,-0.000000,0.000000,0.029892,1.000000,0.000000,-0.000000,-0.190211,-0.196556,0.126665,-0.075104,0.198678,0.115399,-0.014249,-0.014724,0.007249,-9.999902,8.000078,5.536141,1.137021
7.0200,-0.000000,0.000000,0.029892,1.000000,0.000000,-0.000000,-0.190973,-0.196076,0.128600,-0.072768,0.198374,0.117443,-0.014312,-0.014694,0.007397,-9.999903,8.000074,5.634227,1.135181
7.0400,-0.000000,0.000000,0.029892,1.000000,0.000000,0.000000,-0.191704,-0.195566,0.130514,-0.070422,0.198038,0.119468,-0.014372,-0.014662,0.007544,-9.999903,8.000070,5.731424,1.133321
7.0600,-0.000000,0.000000,0.029892,1.000000,0.000000,0.000000,-0.192406,-0.195024,0.132408,-0.068064,0.197671,0.121474,-0.014431,-0.014627,0.007689,-9.999903,8.000065,5.827717,1.131439
7.0800,-0.000000,0.000000,0.029892,1.000000,0.000000,0.000000,-0.193076,-0.194451,0.134281,-0.065695,0.197273,0.123461,-0.014487,-0.014590,0.007832,-9.999903,8.000059,5.923092,1.129536
7.1000,-0.000000,0.000000,0.029892,1.000000,0.000000,-0.000000,-0.193717,-0.193848,0.136133,-0.063316,0.196844,0.125428,-0.014541,-0.014551,0.007975,-9.999904,8.000053,5.999590,1.127613
7.1200,-0.000000,0.000000,0.029892,1.000000,0.000000,-0.000000,-0.194326,-0.193214,0.137964,-0.060927,0.196384,0.127376,-0.014592,-0.014509,0.008115,-9.999904,8.000046,5.999792,1.125670
7.1400,-0.000000,0.000000,0.029892,1.000000,0.000000,0.000000,-0.194905,-0.192550,0.139772,-0.058529,0.195893,0.129303,-0.014642,-0.014465,0.008254,-9.999904,8.000039,5.999893,1.123705
7.1600,-0.000000,0.000000,0.029892,1.000000,0.000000,-0.000000,-0.195454,-0.191855,0.141559,-0.056121,0.195371,0.131210,-0.014689,-0.014419,0.008392,-9.999904,8.000031,6.000132,1.121721
7.1800,-0.000000,0.000000,0.029892,1.000000,0.000000,0.000000,-0.195971,-0.191130,0.143323,-0.053704,0.194818,0.133097,-0.014734,-0.014370,0.008528,-9.999904,8.000022,5.999923,1.119716
7.2000,-0.000000,0.000000,0.029892,1.000000,0.000000,0.000000,-0.196457,-0.190375,0.145065,-0.051279,0.194234,0.134962,-0.014776,-0.014319,0.008663,-9.999905,8.000012,5.999986,1.117691
7.2200,-0.000000,0.000000,0.029892,1.000000,0.000000,-0.000000,-0.196913,-0.189589,0.146783,-0.048846,0.193619,0.136806,-0.014817,-0.014266,0.008796,-9.999905,8.000002,6.000087,1.115645
7.2400,-0.000000,0.000000,0.029892,1.000000,0.000000,-0.000000,-0.197337,-0.188774,0.148479,-0.046405,0.192974,0.138629,-0.014855,-0.014210,0.008927,-9.999905,7.999992,6.000017,1.113580
7.2600,-0.000000,0.000000,0.029892,1.000000,0.000000,-0.000000,-0.197730,-0.187929,0.150151,-0.043957,0.192299,0.140429,-0.014891,-0.014152,0.009056,-9.999905,7.999980,5.999949,1.111495
7.2800,-0.000000,0.000000,0.029892,1.000000,0.000000,-0.000000,-0.198092,-0.187054,0.151799,-0.041502,0.191593,0.142208,-0.014924,-0.014092,0.009184,-9.999905,7.999969,5.999945,1.109391
7.3000,-0.000000,0.000000,0.029892,1.000000,0.000000,0.000000,-0.198423,-0.186150,0.153424,-0.039040,0.190857,0.143964,-0.014955,-0.014030,0.009310,-9.999906,7.999956,5.999984,1.107266
7.3200,-0.000000,0.000000,0.029892,1.000000,0.000000,-0.000000,-0.198722,-0.185216,0.155024,-0.036572,0.190091,0.145697,-0.014984,-0.013965,0.009435,-9.999906,7.999943,6.000023,1.105123
7.3400,-0.000000,0.000000,0.029892,1.000000,0.000000,0.000000,-0.198990,-0.184254,0.156599,-0.034098,0.189294,0.147407,-0.015010,-0.013898,0.009558,-9.999906,7.999930,6.000061,1.102960
7.3600,-0.000000,0.000000,0.029892,1.000000,0.000000,0.000000,-0.199227,-0.183262,0.158150,-0.031619,0.188468,0.149094,-0.015034,-0.013829,0.009679,-9.999906,7.999915,6.000048,1.100778
7.3800,-0.000000,0.000000,0.029892,1.000000,0.000000,-0.000000,-0.199432,-0.182241,0.159676,-0.029135,0.187612,0.150757,-0.015056,-0.013758,0.009798,-9.999907,7.999901,6.000026,1.098578
7.4000,-0.000000,0.000000,0.029892,1.000000,0.000000,0.000000,-0.199605,-0.181191,0.161177,-0.026646,0.186727,0.152397,-0.015075,-0.013684,0.009915,-9.999907,7.999923,6.000005,1.096359
7.4200,-0.000000,0.000000,0.029892,1.000000,0.000000,-0.000000,-0.199747,-0.180113,0.162652,-0.024153,0.185812,0.154012,-0.015092,-0.013608,0.010031,-9.999907,7.999952,5.999985,1.094121
7.4400,-0.000000,0.000000,0.029892,1.000000,0.000000,0.000000,-0.199858,-0.179006,0.164102,-0.021657,0.184867,0.155604,-0.015106,-0.013530,0.010144,-9.999907,7.999982,5.999964,1.091865
7.4600,-0.000000,0.000000,0.029892,1.000000,0.000000,-0.000000,-0.199937,-0.177871,0.165525,-0.019156,0.183894,0.157170,-0.015118,-0.013450,0.010256,-9.999908,8.000013,5.999945,1.089591
7.4800,-0.000000,0.000000,0.029892,1.000000,0.000000,0.000000,-0.199984,-0.176708,0.166923,-0.016653,0.182891,0.158712,-0.015128,-0.013367,0.010366,-9.999908,8.000045,5.999954,1.087299
7.5000,-0.000000,0.000000,0.029892,1.000000,0.000000,-0.000000,-0.200000,-0.175517,0.168294,-0.014147,0.181859,0.160229,-0.015136,-0.013283,0.010474,-9.999908,8.000078,5.999965,1.084990
7.5200,-0.000000,0.000000,0.029892,1.000000,0.000000,0.000000,-0.199984,-0.174298,0.169639,-0.011639,0.180799,0.161720,-0.015141,-0.013196,0.010580,-9.999908,8.000112,5.999976,1.082663
7.5400,-0.000000,0.000000,0.029892,1.000000,0.000000,-0.000000,-0.199937,-0.173051,0.170957,-0.009130,0.179710,0.163186,-0.015143,-0.013107,0.010684,-9.999908,8.000057,5.999987,1.080319
7.5600,-0.000000,0.000000,0.029892,1.000000,0.000000,0.000000,-0.199858,-0.171778,0.172247,-0.006618,0.178593,0.164626,-0.015143,-0.013016,0.010786,-9.999909,7.999994,5.999997,1.077958
7.5800,-0.000000,0.000000,0.029892,1.000000,0.000000,-0.000000,-0.199747,-0.170477,0.173511,-0.004106,0.177448,0.166040,-0.015141,-0.012922,0.010886,-9.999909,7.999929,6.000007,1.075581
7.6000,-0.000000,0.000000,0.029892,1.000000,0.000000,-0.000000,-0.199605,-0.169149,0.174747,-0.001593,0.176275,0.167428,-0.015136,-0.012827,0.010985,-9.999909,7.999878,6.000017,1.073187
7.6200,-0.000000,0.000000,0.029892,1.000000,0.000000,-0.000000,-0.199432,-0.167795,0.175956,0.000920,0.175073,0.168790,-0.015129,-0.012729,0.011081,-9.999909,7.999995,6.000027,1.070777
7.6400,-0.000000,0.000000,0.029892,1.000000,0.000000,0.000000,-0.199227,-0.166414,0.177137,0.003433,0.173845,0.170125,-0.015120,-0.012630,0.011175,-9.999910,8.000115,6.000037,1.068352
7.6600,-0.000000,0.000000,0.029892,1.000000,0.000000,0.000000,-0.198990,-0.165007,0.178290,0.005946,0.172588,0.171432,-0.015108,-0.012528,0.011267,-9.999910,8.000009,6.000046,1.065911
7.6800,-0.000000,0.000000,0.029892,1.000000,0.000000,-0.000000,-0.198722,-0.163574,0.179414,0.008458,0.171305,0.172713,-0.015094,-0.012424,0.011357,-9.999910,7.999861,6.000046,1.063454
7.7000,-0.000000,0.000000,0.029892,1.000000,0.000000,0.000000,-0.198423,-0.162115,0.180511,0.010968,0.169994,0.173967,-0.015077,-0.012318,0.011444,-9.999910,8.000182,6.000041,1.060983
7.7200,-0.000000,0.000000,0.029892,1.000000,0.000000,0.000000,-0.198092,-0.160630,0.181579,0.013477,0.168657,0.175193,-0.015058,-0.012210,0.011530,-9.999910,8.000088,6.000036,1.058498
7.7400,-0.000000,0.000000,0.029892,1.000000,0.000000,-0.000000,-0.197730,-0.159120,0.182618,0.015983,0.167293,0.176392,-0.015036,-0.012100,0.011614,-9.999911,7.999548,6.000031,1.055998
7.7600,-0.000000,0.000000,0.029892,1.000000,0.000000,0.000000,-0.197337,-0.157585,0.183628,0.018487,0.165902,0.177562,-0.015012,-0.011988,0.011695,-9.999911,7.961148,6.000026,1.053485
7.7800,-0.000000,0.000000,0.029892,1.000000,0.000000,-0.000000,-0.196913,-0.156025,0.184610,0.020988,0.164485,0.178705,-0.014986,-0.011874,0.011774,-9.999911,7.893207,6.000021,1.050957
7.8000,-0.000000,0.000000,0.029892,1.000000,0.000000,-0.000000,-0.196457,-0.154441,0.185562,0.023486,0.163043,0.179819,-0.014957,-0.011758,0.011851,-9.999911,7.824019,6.000017,1.048417
7.8200,-0.000000,0.000000,0.029892,1.000000,0.000000,-0.000000,-0.195971,-0.152832,0.186485,0.025979,0.161574,0.180905,-0.014925,-0.011640,0.011926,-9.999912,7.753594,6.000012,1.045864
7.8400,-0.000000,0.000000,0.029892,1.000000,0.000000,0.000000,-0.195454,-0.151198,0.187378,0.028469,0.160080,0.181962,-0.014892,-0.011520,0.011999,-9.999912,7.681943,6.000008,1.043299
7.8600,-0.000000,0.000000,0.029892,1.000000,0.000000,-0.000000,-0.194905,-0.149541,0.188242,0.030955,0.158561,0.182991,-0.014856,-0.011398,0.012069,-9.999912,7.609078,6.000004,1.040722
7.8800,-0.000000,0.000000,0.029892,1.000000,0.000000,0.000000,-0.194326,-0.147861,0.189076,0.033435,0.157017,0.183991,-0.014817,-0.011274,0.012138,-9.999912,7.535009,5.999999,1.038133
7.9000,-0.000000,0.000000,0.029892,1.000000,0.000000,-0.000000,-0.193717,-0.146157,0.189880,0.035910,0.155448,0.184962,-0.014776,-0.011149,0.012204,-9.999913,7.459750,5.999995,1.035533
7.9200,-0.000000,0.000000,0.029892,1.000000,0.000000,-0.000000,-0.193076,-0.144430,0.190655,0.038380,0.153854,0.185903,-0.014733,-0.011021,0.012267,-9.999913,7.383310,5.999991,1.032922
7.9400,-0.000000,0.000000,0.029892,1.000000,0.000000,0.000000,-0.192406,-0.142680,0.191399,0.040843,0.152236,0.186815,-0.014687,-0.010892,0.012329,-9.999913,7.305704,5.999988,1.030300
7.9600,-0.000000,0.000000,0.029892,1.000000,0.000000,-0.000000,-0.191704,-0.140907,0.192113,0.043300,0.150594,0.187698,-0.014639,-0.010760,0.012388,-9.999913,7.226943,5.999984,1.027669
7.9800,-0.000000,0.000000,0.029892,1.000000,0.000000,-0.000000,-0.190973,-0.139113,0.192797,0.045751,0.148929,0.188551,-0.014589,-0.010627,0.012445,-9.999913,7.147039,5.999980,1.025029
8.0000,-0.000000,0.000000,0.029892,1.000000,0.000000,0.000000,-0.190211,-0.137296,0.193450,0.048194,0.147239,0.189374,-0.014536,-0.010492,0.012499,-9.999914,7.066005,5.999977,1.022379
8.0200,-0.000000,0.000000,0.029892,1.000000,0.000000,0.000000,-0.189420,-0.135458,0.194072,0.050629,0.145527,0.190168,-0.014481,-0.010356,0.012551,-9.999914,6.983853,5.999973,1.019721
8.0400,-0.000000,0.000000,0.029892,1.000000,0.000000,-0.000000,-0.188598,-0.133598,0.194664,0.053056,0.143791,0.190931,-0.014423,-0.010217,0.012601,-9.999914,6.900598,5.999970,1.017055
8.0600,-0.000000,0.000000,0.029892,1.000000,0.000000,0.000000,-0.187747,-0.131717,0.195226,0.055475,0.142033,0.191664,-0.014363,-0.010077,0.012649,-9.999914,6.816252,5.999967,1.014381
8.0800,-0.000000,0.000000,0.029892,1.000000,0.000000,-0.000000,-0.186866,-0.129816,0.195756,0.057885,0.140253,0.192367,-0.014301,-0.009935,0.012694,-9.999914,6.730828,5.999964,1.011700
8.1000,-0.000000,0.000000,0.029892,1.000000,0.000000,0.000000,-0.185955,-0.127893,0.196256,0.060287,0.138450,0.193039,-0.014237,-0.009791,0.012737,-9.999915,6.644340,5.999961,1.009013
8.1200,-0.000000,0.000000,0.029892,1.000000,0.000000,-0.000000,-0.185015,-0.125951,0.196724,0.062678,0.136625,0.193681,-0.014170,-0.009646,0.012777,-9.999915,6.556802,5.999958,1.006319
8.1400,-0.000000,0.000000,0.029892,1.000000,0.000000,0.000000,-0.184046,-0.123989,0.197162,0.065060,0.134779,0.194293,-0.014100,-0.009499,0.012815,-9.999915,6.468226,5.999957,1.003620
8.1600,-0.000000,0.000000,0.029892,1.000000,0.000000,0.000000,-0.183048,-0.122007,0.197568,0.067431,0.132912,0.194874,-0.014029,-0.009351,0.012851,-9.999915,6.378629,5.999959,1.000916
8.1800,-0.000000,0.000000,0.029892,1.000000,0.000000,-0.000000,-0.182021,-0.120006,0.197943,0.069792,0.131023,0.195424,-0.013955,-0.009201,0.012884,-9.999916,6.288022,5.999960,0.998208
8.2000,-0.000000,0.000000,0.029892,1.000000,0.000000,-0.000000,-0.180965,-0.117986,0.198287,0.072142,0.129114,0.195943,-0.013879,-0.009049,0.012915,-9.999916,6.196422,5.999961,0.995496
8.2200,-0.000000,0.000000,0.029892,1.000000,0.000000,0.000000,-0.179881,-0.115948,0.198600,0.074480,0.127185,0.196431,-0.013800,-0.008895,0.012943,-9.999916,6.103842,5.999963,0.992780
8.2400,-0.000000,0.000000,0.029892,1.000000,0.000000,-0.000000,-0.178768,-0.113891,0.198881,0.076806,0.125235,0.196888,-0.013720,-0.008741,0.012969,-9.999916,6.010297,5.999964,0.990061
8.2600,-0.000000,0.000000,0.029892,1.000000,0.000000,-0.000000,-0.177627,-0.111816,0.199131,0.079121,0.123265,0.197314,-0.013637,-0.008584,0.012993,-9.999916,5.915802,5.999965,0.987341
8.2800,-0.000000,0.000000,0.029892,1.000000,0.000000,-0.000000,-0.176458,-0.109723,0.199349,0.081423,0.121277,0.197709,-0.013551,-0.008426,0.013014,-9.999917,5.820372,5.999967,0.984618
8.3000,-0.000000,0.000000,0.029892,1.000000,0.000000,0.000000,-0.175261,-0.107613,0.199536,0.083712,0.119269,0.198073,-0.013464,-0.008267,0.013032,-9.999917,5.724021,5.999968,0.981895
8.3200,-0.000000,0.000000,0.029892,1.000000,0.000000,-0.000000,-0.174037,-0.105486,0.199691,0.085988,0.117242,0.198405,-0.013374,-0.008106,0.013049,-9.999917,5.626766,5.999969,0.979171
8.3400,-0.000000,0.000000,0.029892,1.000000,0.000000,0.000000,-0.172785,-0.103343,0.199815,0.088250,0.115196,0.198706,-0.013282,-0.007944,0.013062,-9.999917,5.528621,5.999970,0.976448
8.3600,-0.000000,0.000000,0.029892,1.000000,0.000000,0.000000,-0.171505,-0.101183,0.199907,0.090498,0.113133,0.198976,-0.013188,-0.007781,0.013074,-9.999917,5.429601,5.999971,0.973725
8.3800,-0.000000,0.000000,0.029892,1.000000,0.000000,-0.000000,-0.170199,-0.099007,0.199968,0.092732,0.111051,0.199214,-0.013092,-0.007616,0.013082,-9.999918,5.329724,5.999972,0.971004
8.4000,-0.000000,0.000000,0.029892,1.000000,0.000000,0.000000,-0.168866,-0.096816,0.199997,0.094952,0.108953,0.199421,-0.012993,-0.007449,0.013089,-9.999918,5.229004,5.999973,0.968285
8.4200,-0.000000,0.000000,0.029892,1.000000,0.000000,0.000000,-0.167506,-0.094609,0.199995,0.097156,0.106836,0.199596,-0.012893,-0.007282,0.013093,-9.999918,5.127457,5.999974,0.965569
8.4400,-0.000000,0.000000,0.029892,1.000000,0.000000,0.000000,-0.166119,-0.092387,0.199961,0.099345,0.104703,0.199740,-0.012790,-0.007113,0.013094,-9.999918,5.025100,5.999974,0.962856
8.4600,-0.000000,0.000000,0.029892,1.000000,0.000000,0.000000,-0.164707,-0.090151,0.199895,0.101519,0.102554,0.199853,-0.012685,-0.006943,0.013093,-9.999918,4.921948,5.999975,0.960148
8.4800,-0.000000,0.000000,0.029892,1.000000,0.000000,-0.000000,-0.163268,-0.087900,0.199798,0.103676,0.100388,0.199933,-0.012578,-0.006772,0.013089,-9.999919,4.818018,5.999976,0.957444
8.5000,-0.000000,0.000000,0.029892,1.000000,0.000000,0.000000,-0.161803,-0.085636,0.199669,0.105817,0.098206,0.199982,-0.012469,-0.006599,0.013083,-9.999919,4.713327,5.999976,0.954745
8.5200,-0.000000,0.000000,0.029892,1.000000,0.000000,-0.000000,-0.160313,-0.083358,0.199509,0.107941,0.096009,0.200000,-0.012358,-0.006426,0.013075,-9.999919,4.607890,5.999977,0.952053
8.5400,-0.000000,0.000000,0.029892,1.000000,0.000000,-0.000000,-0.158798,-0.081067,0.199317,0.110049,0.093797,0.199986,-0.012245,-0.006251,0.013064,-9.999919,4.501725,5.999977,0.949368
8.5600,-0.000000,0.000000,0.029892,1.000000,0.000000,-0.000000,-0.157258,-0.078763,0.199094,0.112138,0.091570,0.199940,-0.012129,-0.006075,0.013050,-9.999919,4.394848,5.999978,0.946690
8.5800,-0.000000,0.000000,0.029892,1.000000,0.000000,0.000000,-0.155692,-0.076447,0.198839,0.114211,0.089328,0.199863,-0.012012,-0.005898,0.013035,-9.999920,4.287276,5.999978,0.944021
8.6000,-0.000000,0.000000,0.029892,1.000000,0.000000,0.000000,-0.154103,-0.074118,0.198553,0.116265,0.087073,0.199754,-0.011893,-0.005720,0.013016,-9.999920,4.179027,5.999979,0.941360
8.6200,-0.000000,0.000000,0.029892,1.000000,0.000000,-0.000000,-0.152489,-0.071778,0.198236,0.118300,0.084803,0.199614,-0.011771,-0.005541,0.012995,-9.999920,4.070117,5.999979,0.938710
8.6400,-0.000000,0.000000,0.029892,1.000000,0.000000,-0.000000,-0.150850,-0.069427,0.197887,0.120317,0.082521,0.199442,-0.011648,-0.005361,0.012972,-9.999920,3.960564,5.999979,0.936070
8.6600,-0.000000,0.000000,0.029892,1.000000,0.000000,0.000000,-0.149188,-0.067064,0.197507,0.122316,0.080225,0.199239,-0.011523,-0.005180,0.012946,-9.999920,3.850384,5.999979,0.933441
8.6800,-0.000000,0.000000,0.029892,1.000000,0.000000,-0.000000,-0.147503,-0.064691,0.197096,0.124294,0.077916,0.199004,-0.011396,-0.004998,0.012918,-9.999921,3.739596,5.999979,0.930824
8.7000,-0.000000,0.000000,0.029892,1.000000,0.000000,0.000000,-0.145794,-0.062308,0.196654,0.126253,0.075595,0.198738,-0.011267,-0.004815,0.012887,-9.999921,3.628217,5.999979,0.928220
8.7200,-0.000000,0.000000,0.029892,1.000000,0.000000,0.000000,-0.144062,-0.059915,0.196180,0.128193,0.073263,0.198441,-0.011136,-0.004631,0.012854,-9.999921,3.516263,5.999979,0.925629
8.7400,-0.000000,0.000000,0.029892,1.000000,0.000000,-0.000000,-0.142307,-0.057513,0.195676,0.130112,0.070918,0.198112,-0.011003,-0.004447,0.012818,-9.999921,3.403755,5.999979,0.923053
8.7600,-0.000000,0.000000,0.029892,1.000000,0.000000,-0.000000,-0.140530,-0.055101,0.195141,0.132010,0.068563,0.197752,-0.010868,-0.004261,0.012780,-9.999921,3.290708,5.999979,0.920492
8.7800,-0.000000,0.000000,0.029892,1.000000,0.000000,-0.000000,-0.138731,-0.052681,0.194575,0.133888,0.066197,0.197360,-0.010732,-0.004075,0.012739,-9.999921,3.177140,5.999979,0.917946
8.8000,-0.000000,0.000000,0.029892,1.000000,0.000000,0.000000,-0.136909,-0.050252,0.193978,0.135744,0.063820,0.196938,-0.010593,-0.003888,0.012696,-9.999922,3.063071,5.999979,0.915418
8.8200,-0.000000,0.000000,0.029892,1.000000,0.000000,0.000000,-0.135067,-0.047816,0.193351,0.137579,0.061433,0.196484,-0.010453,-0.003701,0.012651,-9.999922,2.948517,5.999979,0.912906
8.8400,-0.000000,0.000000,0.029892,1.000000,0.000000,0.000000,-0.133202,-0.045371,0.192693,0.139392,0.059036,0.195999,-0.010312,-0.003512,0.012603,-9.999922,2.833497,5.999978,0.910413
8.8600,-0.000000,0.000000,0.029892,1.000000,0.000000,-0.000000,-0.131317,-0.042920,0.192004,0.141183,0.056630,0.195484,-0.010168,-0.003323,0.012553,-9.999922,2.718030,5.999978,0.907939
8.8800,-0.000000,0.000000,0.029892,1.000000,0.000000,-0.000000,-0.129411,-0.040462,0.191286,0.142952,0.054216,0.194937,-0.010023,-0.003134,0.012500,-9.999922,2.602132,5.999977,0.905485
8.9000,-0.000000,0.000000,0.029892,1.000000,0.000000,0.000000,-0.127485,-0.037998,0.190537,0.144699,0.051792,0.194360,-0.009876,-0.002944,0.012445,-9.999922,2.485823,5.999977,0.903051
8.9200,-0.000000,0.000000,0.029892,1.000000,0.000000,-0.000000,-0.125538,-0.035527,0.189758,0.146422,0.049361,0.193752,-0.009727,-0.002753,0.012387,-9.999923,2.369121,5.999976,0.900639
8.9400,-0.000000,0.000000,0.029892,1.000000,0.000000,0.000000,-0.123572,-0.033051,0.188949,0.148123,0.046921,0.193113,-0.009577,-0.002562,0.012327,-9.999923,2.252045,5.999976,0.898249
8.9600,-0.000000,0.000000,0.029892,1.000000,0.000000,-0.000000,-0.121586,-0.030570,0.188110,0.149800,0.044475,0.192444,-0.009425,-0.002370,0.012265,-9.999923,2.134612,5.999975,0.895882
8.9800,-0.000000,0.000000,0.029892,1.000000,0.000000,0.000000,-0.119581,-0.028084,0.187242,0.151453,0.042021,0.191745,-0.009272,-0.002177,0.012200,-9.999923,2.016842,5.999975,0.893538
9.0000,-0.000000,0.000000,0.029892,1.000000,0.000000,0.000000,-0.117557,-0.025593,0.186344,0.153082,0.039560,0.191015,-0.009117,-0.001985,0.012133,-9.999923,1.898753,5.999974,0.891220
9.0200,-0.000000,0.000000,0.029892,1.000000,0.000000,0.000000,-0.115515,-0.023099,0.185416,0.154688,0.037094,0.190255,-0.008960,-0.001792,0.012063,-9.999923,1.780364,5.999973,0.888927
9.0400,-0.000000,0.000000,0.029892,1.000000,0.000000,0.000000,-0.113454,-0.020601,0.184459,0.156269,0.034621,0.189465,-0.008802,-0.001598,0.011992,-9.999923,1.661694,5.999972,0.886660
9.0600,-0.000000,0.000000,0.029892,1.000000,0.000000,0.000000,-0.111375,-0.018099,0.183474,0.157825,0.032143,0.188645,-0.008642,-0.001404,0.011918,-9.999924,1.542760,5.999971,0.884420
9.0800,-0.000000,0.000000,0.029892,1.000000,0.000000,-0.000000,-0.109279,-0.015595,0.182459,0.159356,0.029660,0.187796,-0.008481,-0.001210,0.011841,-9.999924,1.423583,5.999970,0.882208
9.1000,-0.000000,0.000000,0.029892,1.000000,0.000000,0.000000,-0.107165,-0.013088,0.181415,0.160862,0.027172,0.186916,-0.008319,-0.001016,0.011762,-9.999924,1.304180,5.999969,0.880025
9.1200,-0.000000,0.000000,0.029892,1.000000,0.000000,0.000000,-0.105035,-0.010579,0.180343,0.162343,0.024680,0.186007,-0.008155,-0.000821,0.011681,-9.999924,1.184571,5.999968,0.877871
9.1400,-0.000000,0.000000,0.029892,1.000000,0.000000,-0.000000,-0.102888,-0.008069,0.179242,0.163798,0.022184,0.185069,-0.007990,-0.000627,0.011598,-9.999924,1.064775,5.999967,0.875747
9.1600,-0.000000,0.000000,0.029892,1.000000,0.000000,0.000000,-0.100725,-0.005557,0.178113,0.165227,0.019685,0.184102,-0.007823,-0.000432,0.011512,-9.999924,0.944811,5.999966,0.873655
9.1800,-0.000000,0.000000,0.029892,1.000000,0.000000,-0.000000,-0.098545,-0.003044,0.176956,0.166630,0.017182,0.183105,-0.007655,-0.000236,0.011424,-9.999924,0.824697,5.999965,0.871594
9.2000,-0.000000,0.000000,0.029892,1.000000,0.000000,0.000000,-0.096351,-0.000531,0.175770,0.168007,0.014677,0.182080,-0.007486,-0.000041,0.011334,-9.999924,0.704452,5.999964,0.869566
9.2200,-0.000000,0.000000,0.029892,1.000000,0.000000,-0.000000,-0.094141,0.001982,0.174558,0.169357,0.012169,0.181026,-0.007316,0.000154,0.011242,-9.999925,0.584096,5.999967,0.867572
9.2400,-0.000000,0.000000,0.029892,1.000000,0.000000,0.000000,-0.091916,0.004495,0.173317,0.170680,0.009660,0.179943,-0.007144,0.000349,0.011147,-9.999925,0.463647,5.999970,0.865611
9.2600,-0.000000,0.000000,0.029892,1.000000,0.000000,0.000000,-0.089677,0.007007,0.172049,0.171977,0.007149,0.178832,-0.006971,0.000545,0.011051,-9.999925,0.343125,5.999973,0.863686
9.2800,-0.000000,0.000000,0.029892,1.000000,0.000000,0.000000,-0.087423,0.009519,0.170754,0.173246,0.004637,0.177692,-0.006797,0.000740,0.010952,-9.999925,0.222549,5.999976,0.861796
9.3000,-0.000000,0.000000,0.029892,1.000000,0.000000,-0.000000,-0.085156,0.012028,0.169432,0.174488,0.002124,0.176525,-0.006622,0.000935,0.010851,-9.999925,0.101937,5.999979,0.859943
9.3200,-0.000000,0.000000,0.029892,1.000000,0.000000,-0.000000,-0.082875,0.014536,0.168083,0.175703,-0.000389,0.175329,-0.006445,0.001130,0.010747,-9.999925,-0.018691,5.999983,0.858127
9.3400,-0.000000,0.000000,0.029892,1.000000,0.000000,-0.000000,-0.080581,0.017041,0.166708,0.176890,-0.002903,0.174106,-0.006268,0.001326,0.010642,-9.999925,-0.139316,5.999986,0.856350
9.3600,-0.000000,0.000000,0.029892,1.000000,0.000000,0.000000,-0.078275,0.019544,0.165307,0.178048,-0.005415,0.172856,-0.006089,0.001520,0.010534,-9.999925,-0.259920,5.999990,0.854610
9.3800,-0.000000,0.000000,0.029892,1.000000,0.000000,0.000000,-0.075956,0.022044,0.163879,0.179179,-0.007927,0.171578,-0.005910,0.001715,0.010425,-9.999925,-0.380482,5.999993,0.852911
9.4000,-0.000000,0.000000,0.029892,1.000000,0.000000,0.000000,-0.073625,0.024540,0.162425,0.180281,-0.010438,0.170273,-0.005729,0.001910,0.010313,-9.999926,-0.500985,5.999997,0.851251
9.4200,-0.000000,0.000000,0.029892,1.000000,0.000000,-0.000000,-0.071282,0.027032,0.160946,0.181355,-0.012947,0.168941,-0.005548,0.002104,0.010199,-9.999926,-0.621409,6.000001,0.849632
9.4400,-0.000000,0.000000,0.029892,1.000000,0.000000,0.000000,-0.068929,0.029520,0.159441,0.182401,-0.015454,0.167583,-0.005365,0.002298,0.010083,-9.999926,-0.741735,6.000005,0.848055
9.4600,-0.000000,0.000000,0.029892,1.000000,0.000000,0.000000,-0.066564,0.032003,0.157912,0.183417,-0.017958,0.166198,-0.005182,0.002491,0.009966,-9.999926,-0.861943,6.000008,0.846520
9.4800,-0.000000,0.000000,0.029892,1.000000,0.000000,-0.000000,-0.064189,0.034482,0.156357,0.184405,-0.020460,0.164787,-0.004997,0.002685,0.009846,-9.999926,-0.982016,6.000012,0.845028
9.5000,-0.000000,0.000000,0.029892,1.000000,0.000000,0.000000,-0.061803,0.036955,0.154777,0.185363,-0.022958,0.163350,-0.004812,0.002877,0.009724,-9.999926,-1.101934,6.000017,0.843579
9.5200,-0.000000,0.000000,0.029892,1.000000,0.000000,0.000000,-0.059408,0.039422,0.153173,0.186292,-0.025453,0.161887,-0.004626,0.003070,0.009600,-9.999926,-1.221678,6.000021,0.842174
9.5400,-0.000000,0.000000,0.029892,1.000000,0.000000,0.000000,-0.057004,0.041882,0.151545,0.187192,-0.027944,0.160398,-0.004439,0.003262,0.009474,-9.999926,-1.341229,6.000025,0.840814
9.5600,-0.000000,0.000000,0.029892,1.000000,0.000000,-0.000000,-0.054590,0.044337,0.149893,0.188062,-0.030430,0.158884,-0.004252,0.003453,0.009347,-9.999926,-1.460569,6.000029,0.839500
9.5800,-0.000000,0.000000,0.029892,1.000000,0.000000,-0.000000,-0.052168,0.046784,0.148218,0.188902,-0.032912,0.157345,-0.004064,0.003644,0.009217,-9.999926,-1.579678,6.000034,0.838231
9.6000,-0.000000,0.000000,0.029892,1.000000,0.000000,-0.000000,-0.049738,0.049224,0.146519,0.189713,-0.035388,0.155781,-0.003875,0.003835,0.009086,-9.999926,-1.698537,6.000026,0.837009
9.6200,-0.000000,0.000000,0.029892,1.000000,0.000000,-0.000000,-0.047300,0.051656,0.144796,0.190494,-0.037859,0.154193,-0.003685,0.004024,0.008952,-9.999927,-1.817128,6.000017,0.835834
9.6400,-0.000000,0.000000,0.029892,1.000000,0.000000,0.000000,-0.044854,0.054079,0.143051,0.191244,-0.040323,0.152580,-0.003495,0.004214,0.008817,-9.999927,-1.935433,6.000008,0.834706
9.6600,-0.000000,0.000000,0.029892,1.000000,0.000000,0.000000,-0.042401,0.056495,0.141284,0.191965,-0.042782,0.150943,-0.003304,0.004402,0.008680,-9.999927,-2.053432,5.999999,0.833626
9.6800,-0.000000,0.000000,0.029892,1.000000,0.000000,-0.000000,-0.039942,0.058901,0.139494,0.192655,-0.045234,0.149282,-0.003113,0.004590,0.008541,-9.999927,-2.171107,5.999990,0.832595
9.7000,-0.000000,0.000000,0.029892,1.000000,0.000000,-0.000000,-0.037476,0.061298,0.137682,0.193314,-0.047678,0.147598,-0.002921,0.004777,0.008401,-9.999927,-2.288439,5.999981,0.831613
9.7200,-0.000000,0.000000,0.029892,1.000000,0.000000,0.000000,-0.035005,0.063686,0.135848,0.193943,-0.050115,0.145891,-0.002728,0.004964,0.008258,-9.999927,-2.405409,5.999972,0.830681
9.7400,-0.000000,0.000000,0.029892,1.000000,0.000000,-0.000000,-0.032527,0.066063,0.133993,0.194542,-0.052544,0.144160,-0.002535,0.005149,0.008114,-9.999927,-2.522000,5.999971,0.829798
9.7600,-0.000000,0.000000,0.029892,1.000000,0.000000,-0.000000,-0.030045,0.068430,0.132116,0.195110,-0.054965,0.142407,-0.002342,0.005334,0.007969,-9.999927,-2.638193,5.999988,0.828966
9.7800,-0.000000,0.000000,0.029892,1.000000,0.000000,-0.000000,-0.027558,0.070786,0.130219,0.195647,-0.057377,0.140631,-0.002148,0.005518,0.007821,-9.999927,-2.753969,6.000006,0.828184
9.8000,-0.000000,0.000000,0.029892,1.000000,0.000000,0.000000,-0.025067,0.073131,0.128301,0.196153,-0.059780,0.138833,-0.001954,0.005701,0.007672,-9.999927,-2.869310,6.000023,0.827454
9.8200,-0.000000,0.000000,0.029892,1.000000,0.000000,-0.000000,-0.022571,0.075464,0.126363,0.196628,-0.062174,0.137013,-0.001760,0.005884,0.007522,-9.999927,-2.984198,6.000028,0.826774
9.8400,-0.000000,0.000000,0.029892,1.000000,0.000000,0.000000,-0.020072,0.077786,0.124405,0.197072,-0.064557,0.135171,-0.001565,0.006065,0.007369,-9.999927,-3.098615,5.999996,0.826147
9.8600,-0.000000,0.000000,0.029892,1.000000,0.000000,0.000000,-0.017570,0.080095,0.122428,0.197485,-0.066931,0.133308,-0.001370,0.006245,0.007215,-9.999927,-3.212542,5.999964,0.825571
9.8800,-0.000000,0.000000,0.029892,1.000000,0.000000,-0.000000,-0.015065,0.082392,0.120431,0.197867,-0.069294,0.131424,-0.001175,0.006425,0.007060,-9.999927,-3.325963,6.000010,0.825048
9.9000,-0.000000,0.000000,0.029892,1.000000,0.000000,0.000000,-0.012558,0.084675,0.118415,0.198217,-0.071646,0.129519,-0.000979,0.006603,0.006903,-9.999927,-3.438858,6.000004,0.824578
9.9200,-0.000000,0.000000,0.029892,1.000000,0.000000,-0.000000,-0.010049,0.086945,0.116380,0.198536,-0.073987,0.127594,-0.000784,0.006780,0.006745,-9.999927,-3.551210,6.000029,0.824160
9.9400,-0.000000,0.000000,0.029892,1.000000,0.000000,0.000000,-0.007538,0.089202,0.114327,0.198824,-0.076316,0.125648,-0.000588,0.006957,0.006585,-9.999927,-3.663001,5.999954,0.823795
9.9600,-0.000000,0.000000,0.029892,1.000000,0.000000,-0.000000,-0.005026,0.091444,0.112256,0.199080,-0.078633,0.123683,-0.000392,0.007132,0.006423,-9.999927,-3.774213,5.936530,0.823483
9.9800,-0.000000,0.000000,0.029892,1.000000,0.000000,0.000000,-0.002513,0.093672,0.110167,0.199305,-0.080938,0.121698,-0.000196,0.007306,0.006261,-9.999927,-3.884830,5.841265,0.823224
10.0000,-0.000000,0.000000,0.029892,1.000000,0.000000,-0.000000,0.000000,0.095885,0.108060,0.199499,-0.083229,0.119694,0.000000,0.007478,0.006097,-9.999927,-3.994833,5.745079,0.823019
10.0200,-0.000000,0.000000,0.029892,1.000000,0.000000,0.000000,0.002513,0.098083,0.105937,0.199661,-0.085508,0.117672,0.000196,0.007650,0.005931,-9.999927,-4.104205,5.647985,0.822867
10.0400,-0.000000,0.000000,0.029892,1.000000,0.000000,-0.000000,0.005026,0.100266,0.103797,0.199792,-0.087773,0.115630,0.000392,0.007820,0.005764,-9.999927,-4.212930,5.549999,0.822769
10.0600,-0.000000,0.000000,0.029892,1.000000,0.000000,0.000000,0.007538,0.102432,0.101641,0.199890,-0.090025,0.113570,0.000588,0.007989,0.005596,-9.999927,-4.320988,5.451136,0.822724
10.0800,-0.000000,0.000000,0.029892,1.000000,0.000000,-0.000000,0.010049,0.104583,0.099468,0.199958,-0.092262,0.111493,0.000784,0.008157,0.005427,-9.999927,-4.428365,5.351413,0.822733
10.1000,-0.000000,0.000000,0.029892,1.000000,0.000000,-0.000000,0.012558,0.106717,0.097280,0.199994,-0.094484,0.109397,0.000979,0.008324,0.005256,-9.999927,-4.535042,5.250844,0.822796
10.1200,-0.000000,0.000000,0.029892,1.000000,0.000000,0.000000,0.015065,0.108834,0.095076,0.199998,-0.096692,0.107285,0.001175,0.008489,0.005084,-9.999927,-4.641003,5.149447,0.822912
10.1400,-0.000000,0.000000,0.029892,1.000000,0.000000,0.000000,0.017570,0.110934,0.092858,0.199971,-0.098884,0.105155,0.001370,0.008653,0.004911,-9.999927,-4.746230,5.047236,0.823081
10.1600,-0.000000,0.000000,0.029892,1.000000,0.000000,-0.000000,0.020072,0.113016,0.090625,0.199912,-0.101061,0.103009,0.001566,0.008815,0.004737,-9.999927,-4.850709,4.944227,0.823304
10.1800,-0.000000,0.000000,0.029892,1.000000,0.000000,0.000000,0.022571,0.115081,0.088377,0.199821,-0.103222,0.100847,0.001760,0.008976,0.004562,-9.999927,-4.954421,4.840438,0.823580
10.2000,-0.000000,0.000000,0.029892,1.000000,0.000000,-0.000000,0.025067,0.117127,0.086116,0.199699,-0.105366,0.098669,0.001955,0.009135,0.004385,-9.999927,-5.057351,4.735885,0.823910
10.2200,-0.000000,0.000000,0.029892,1.000000,0.000000,0.000000,0.027558,0.119155,0.083840,0.199545,-0.107494,0.096475,0.002149,0.009293,0.004208,-9.999927,-5.159482,4.630584,0.824292
10.2400,-0.000000,0.000000,0.029892,1.000000,0.000000,0.000000,0.030045,0.121164,0.081552,0.199360,-0.109605,0.094266,0.002343,0.009450,0.004029,-9.999927,-5.260798,4.524551,0.824727
10.2600,-0.000000,0.000000,0.029892,1.000000,0.000000,-0.000000,0.032527,0.123154,0.079251,0.199144,-0.111698,0.092042,0.002537,0.009605,0.003849,-9.999927,-5.361283,4.417804,0.825215
10.2800,-0.000000,0.000000,0.029892,1.000000,0.000000,0.000000,0.035005,0.125124,0.076937,0.198896,-0.113774,0.089803,0.002730,0.009758,0.003669,-9.999927,-5.460922,4.310359,0.825755
10.3000,-0.000000,0.000000,0.029892,1.000000,0.000000,0.000000,0.037476,0.127075,0.074611,0.198616,-0.115832,0.087550,0.002923,0.009910,0.003487,-9.999927,-5.559698,4.202234,0.826348
10.3200,-0.000000,0.000000,0.029892,1.000000,0.000000,-0.000000,0.039942,0.129006,0.072274,0.198305,-0.117872,0.085284,0.003115,0.010060,0.003305,-9.999927,-5.657596,4.093444,0.826992
10.3400,-0.000000,0.000000,0.029892,1.000000,0.000000,0.000000,0.042401,0.130916,0.069924,0.197963,-0.119893,0.083004,0.003306,0.010209,0.003122,-9.999927,-5.754601,3.984009,0.827687
10.3600,-0.000000,0.000000,0.029892,1.000000,0.000000,-0.000000,0.044854,0.132806,0.067564,0.197590,-0.121895,0.080711,0.003498,0.010356,0.002938,-9.999927,-5.850696,3.873944,0.828434
10.3800,-0.000000,0.000000,0.029892,1.000000,0.000000,0.000000,0.047300,0.134674,0.065194,0.197185,-0.123878,0.078405,0.003688,0.010501,0.002753,-9.999927,-5.945868,3.763268,0.829232
10.4000,-0.000000,0.000000,0.029892,1.000000,0.000000,-0.000000,0.049738,0.136522,0.062812,0.196750,-0.125841,0.076087,0.003878,0.010644,0.002567,-9.999927,-6.040101,3.651997,0.830080
10.4200,-0.000000,0.000000,0.029892,1.000000,0.000000,0.000000,0.052168,0.138348,0.060421,0.196283,-0.127785,0.073757,0.004067,0.010786,0.002380,-9.999927,-6.133379,3.540149,0.830978
10.4400,-0.000000,0.000000,0.029892,1.000000,0.000000,-0.000000,0.054590,0.140152,0.058021,0.195785,-0.129708,0.071415,0.004256,0.010926,0.002193,-9.999927,-6.225689,3.427743,0.831925
10.4600,-0.000000,0.000000,0.029892,1.000000,0.000000,0.000000,0.057004,0.141934,0.055611,0.195256,-0.131611,0.069061,0.004444,0.011064,0.002005,-9.999927,-6.317016,3.314795,0.832922
10.4800,-0.000000,0.000000,0.029892,1.000000,0.000000,-0.000000,0.059408,0.143693,0.053193,0.194697,-0.133493,0.066697,0.004631,0.011201,0.001816,-9.999927,-6.407345,3.201324,0.833968
10.5000,-0.000000,0.000000,0.029892,1.000000,0.000000,0.000000,0.061803,0.145430,0.050766,0.194107,-0.135354,0.064323,0.004817,0.011335,0.001627,-9.999927,-6.496662,3.087347,0.835061
10.5200,-0.000000,0.000000,0.029892,1.000000,0.000000,-0.000000,0.064189,0.147144,0.048331,0.193486,-0.137193,0.061938,0.005003,0.011468,0.001437,-9.999927,-6.584953,2.972883,0.836203
10.5400,-0.000000,0.000000,0.029892,1.000000,0.000000,0.000000,0.066564,0.148834,0.045888,0.192834,-0.139011,0.059543,0.005187,0.011599,0.001247,-9.999927,-6.672203,2.857949,0.837391
10.5600,-0.000000,0.000000,0.029892,1.000000,0.000000,-0.000000,0.068929,0.150501,0.043439,0.192152,-0.140807,0.057140,0.005371,0.011728,0.001056,-9.999927,-6.758400,2.742564,0.838627
10.5800,-0.000000,0.000000,0.029892,1.000000,0.000000,0.000000,0.071282,0.152144,0.040982,0.191440,-0.142580,0.054727,0.005554,0.011855,0.000864,-9.999927,-6.843530,2.626746,0.839908
10.6000,-0.000000,0.000000,0.029892,1.000000,0.000000,0.000000,0.073625,0.153764,0.038519,0.190697,-0.144332,0.052305,0.005736,0.011980,0.000672,-9.999927,-6.927579,2.510514,0.841235
10.6200,-0.000000,0.000000,0.029892,1.000000,0.000000,-0.000000,0.075956,0.155359,0.036050,0.189925,-0.146060,0.049875,0.005917,0.012103,0.000480,-9.999926,-7.010533,2.393885,0.842607
10.6400,-0.000000,0.000000,0.029892,1.000000,0.000000,-0.000000,0.078275,0.156929,0.033575,0.189122,-0.147765,0.047437,0.006097,0.012224,0.000287,-9.999926,-7.092381,2.276877,0.844023
10.6600,-0.000000,0.000000,0.029892,1.000000,0.000000,-0.000000,0.080581,0.158475,0.031095,0.188290,-0.149447,0.044992,0.006276,0.012344,0.000094,-9.999926,-7.173108,2.159511,0.845483
