alvinuday/Neuromorphic-Robot-Control/mpc_log.csv
t_sim,q1,q2,q3,q4,q5,q6,q1_ref,q2_ref,q3_ref,q4_ref,q5_ref,q6_ref,tau1,tau2,tau3,tau4,tau5,tau6,tracking_error
0.0000,0.200000,0.000000,0.520000,1.000000,0.000000,0.000000,0.000000,0.300000,0.000000,-0.300000,0.000000,0.000000,-0.014368,0.021552,-0.037363,-9.999882,0.000000,0.000000,1.445822
0.0200,0.200000,0.000000,0.517842,1.000000,0.000000,0.000000,0.000000,0.289000,0.012000,-0.302000,0.000000,0.000000,-0.014363,0.020754,-0.036303,-9.999882,0.000000,0.000000,1.440348
0.0400,0.200000,0.000000,0.511760,1.000000,0.000000,0.000000,0.000000,0.278000,0.024000,-0.304000,0.000000,0.000000,-0.014357,0.019956,-0.034963,-9.999882,0.000000,0.000000,1.433740
0.0600,0.200000,0.000000,0.501753,1.000000,0.000000,0.000000,0.000000,0.267000,0.036000,-0.306000,0.000000,0.000000,-0.014351,0.019159,-0.033342,-9.999882,0.000000,0.000000,1.426132
0.0800,0.200000,0.000000,0.487823,1.000000,0.000000,0.000000,0.000000,0.256000,0.048000,-0.308000,0.000000,0.000000,-0.014346,0.018362,-0.031441,-9.999881,0.000000,0.000000,1.417690
0.1000,0.200000,0.000000,0.475023,1.000000,0.000000,-0.000000,0.000000,0.245000,0.060000,-0.310000,0.000000,0.000000,-0.014340,0.017566,-0.029705,-9.999881,0.000000,-0.000000,1.410095
0.1200,0.200000,0.000000,0.475242,1.000000,0.000000,-0.000000,0.000000,0.234000,0.072000,-0.312000,0.000000,0.000000,-0.014334,0.016771,-0.028913,-9.999881,0.000000,0.000000,1.406664
0.1400,0.200000,0.000000,0.477207,1.000000,0.000000,-0.000000,0.000000,0.223000,0.084000,-0.314000,0.000000,0.000000,-0.014328,0.015976,-0.028184,-9.999881,0.000000,0.000000,1.403901
0.1600,0.200000,0.000000,0.478531,1.000000,0.000000,-0.000000,0.000000,0.212000,0.096000,-0.316000,0.000000,0.000000,-0.014323,0.015182,-0.027403,-9.999881,-0.000000,0.000000,1.401118
0.1800,0.200000,0.000000,0.479246,1.000000,0.000000,-0.000000,0.000000,0.201000,0.108000,-0.318000,0.000000,0.000000,-0.014317,0.014389,-0.026580,-9.999880,-0.000000,0.000000,1.398338
0.2000,0.200000,0.000000,0.479599,1.000000,0.000000,-0.000000,0.000000,0.190000,0.120000,-0.320000,0.000000,0.000000,-0.014311,0.013596,-0.025734,-9.999880,-0.000000,0.000000,1.395640
0.2200,0.200000,0.000000,0.479758,1.000000,0.000000,-0.000000,0.000000,0.179000,0.132000,-0.322000,0.000000,0.000000,-0.014306,0.012804,-0.024875,-9.999880,-0.000000,0.000000,1.393076
0.2400,0.200000,0.000000,0.479829,1.000000,0.000000,-0.000000,0.000000,0.168000,0.144000,-0.324000,0.000000,0.000000,-0.014300,0.012012,-0.024012,-9.999880,-0.000000,0.000000,1.390677
0.2600,0.200000,0.000000,0.479862,1.000000,0.000000,-0.000000,0.000000,0.157000,0.156000,-0.326000,0.000000,0.000000,-0.014294,0.011221,-0.023147,-9.999880,-0.000000,0.000000,1.388457
0.2800,0.200000,0.000000,0.479877,1.000000,0.000000,-0.000000,0.000000,0.146000,0.168000,-0.328000,0.000000,0.000000,-0.014289,0.010431,-0.022282,-9.999880,-0.000000,0.000000,1.386423
0.3000,0.200000,0.000000,0.479885,1.000000,0.000000,-0.000000,0.000000,0.135000,0.180000,-0.330000,0.000000,0.000000,-0.014283,0.009641,-0.021416,-9.999879,-0.000000,0.000000,1.384578
0.3200,0.200000,0.000000,0.479889,1.000000,0.000000,-0.000000,0.000000,0.124000,0.192000,-0.332000,0.000000,0.000000,-0.014277,0.008852,-0.020551,-9.999879,-0.000000,0.000000,1.382924
0.3400,0.200000,0.000000,0.479890,1.000000,0.000000,-0.000000,0.000000,0.113000,0.204000,-0.334000,0.000000,0.000000,-0.014271,0.008063,-0.019687,-9.999879,-0.000000,0.000000,1.381463
0.3600,0.200000,0.000000,0.479891,1.000000,0.000000,-0.000000,0.000000,0.102000,0.216000,-0.336000,0.000000,0.000000,-0.014266,0.007276,-0.018823,-9.999879,-0.000000,0.000000,1.380195
0.3800,0.200000,0.000000,0.479892,1.000000,0.000000,-0.000000,0.000000,0.091000,0.228000,-0.338000,0.000000,0.000000,-0.014260,0.006488,-0.017960,-9.999879,-0.000000,0.000000,1.379121
0.4000,0.200000,0.000000,0.479892,1.000000,0.000000,-0.000000,0.000000,0.080000,0.240000,-0.340000,0.000000,0.000000,-0.014254,0.005702,-0.017097,-9.999878,-0.000000,0.000000,1.378241
0.4200,0.200000,0.000000,0.479892,1.000000,0.000000,-0.000000,0.000000,0.069000,0.252000,-0.342000,0.000000,0.000000,-0.014249,0.004916,-0.016236,-9.999878,-0.000000,0.000000,1.377556
0.4400,0.200000,0.000000,0.479892,1.000000,0.000000,-0.000000,0.000000,0.058000,0.264000,-0.344000,0.000000,0.000000,-0.014243,0.004130,-0.015375,-9.999878,-0.000000,0.000000,1.377066
0.4600,0.200000,0.000000,0.479892,1.000000,0.000000,-0.000000,0.000000,0.047000,0.276000,-0.346000,0.000000,0.000000,-0.014237,0.003346,-0.014514,-9.999878,-0.000000,0.000000,1.376771
0.4800,0.200000,0.000000,0.479892,1.000000,0.000000,-0.000000,0.000000,0.036000,0.288000,-0.348000,0.000000,0.000000,-0.014231,0.002562,-0.013655,-9.999878,-0.000000,0.000000,1.376671
0.5000,0.200000,0.000000,0.479892,1.000000,0.000000,-0.000000,0.000000,0.025000,0.300000,-0.350000,0.000000,0.000000,-0.014226,0.001778,-0.012795,-9.999878,-0.000000,0.000000,1.376767
0.5200,0.200000,0.000000,0.479892,1.000000,0.000000,-0.000000,0.000000,0.014000,0.312000,-0.352000,0.000000,0.000000,-0.014220,0.000995,-0.011937,-9.999877,-0.000000,0.000000,1.377058
0.5400,0.200000,0.000000,0.479892,1.000000,0.000000,-0.000000,0.000000,0.003000,0.324000,-0.354000,0.000000,0.000000,-0.014214,0.000213,-0.011079,-9.999877,-0.000000,-0.000000,1.377544
0.5600,0.200000,0.000000,0.479892,1.000000,0.000000,-0.000000,0.000000,-0.008000,0.336000,-0.356000,0.000000,0.000000,-0.014209,-0.000568,-0.010222,-9.999877,0.000000,-0.000000,1.378225
0.5800,0.200000,0.000000,0.479892,1.000000,0.000000,-0.000000,0.000000,-0.019000,0.348000,-0.358000,0.000000,0.000000,-0.014203,-0.001349,-0.009366,-9.999877,-0.000000,-0.000000,1.379101
0.6000,0.200000,0.000000,0.479892,1.000000,0.000000,-0.000000,0.000000,-0.030000,0.360000,-0.360000,0.000000,0.000000,-0.014197,-0.002130,-0.008511,-9.999877,-0.000000,-0.000000,1.380172
0.6200,0.200000,0.000000,0.479892,1.000000,0.000000,-0.000000,0.000000,-0.041000,0.372000,-0.362000,0.000000,0.000000,-0.014191,-0.002909,-0.007656,-9.999876,0.000000,0.000000,1.381436
0.6400,0.200000,0.000000,0.479892,1.000000,0.000000,-0.000000,0.000000,-0.052000,0.384000,-0.364000,0.000000,0.000000,-0.014186,-0.003688,-0.006801,-9.999876,-0.000000,0.000000,1.382894
0.6600,0.200000,0.000000,0.479892,1.000000,0.000000,-0.000000,0.000000,-0.063000,0.396000,-0.366000,0.000000,0.000000,-0.014180,-0.004467,-0.005948,-9.999876,-0.000000,0.000000,1.384544
0.6800,0.199459,-0.000021,0.479617,0.999999,0.000555,-0.001250,0.000000,-0.074000,0.408000,-0.368000,0.000000,0.000000,-0.014043,-0.005212,-0.005040,-9.999873,5.671178,0.487893,1.386293
0.7000,0.198257,-0.000093,0.478979,0.999996,0.001737,-0.002171,0.000000,-0.085000,0.420000,-0.370000,0.000000,0.000000,-0.013678,-0.005860,-0.004068,-9.999864,8.000106,2.544250,1.388124
0.7200,0.198104,-0.000197,0.479060,0.999996,0.002388,-0.000235,0.000000,-0.096000,0.432000,-0.372000,0.000000,0.000000,-0.013091,-0.006330,-0.003111,-9.999846,-5.237158,5.999640,1.390330
0.7400,0.198072,-0.000250,0.479417,0.999995,0.002237,0.000042,0.000000,-0.107000,0.444000,-0.374000,0.000000,0.000000,-0.012528,-0.006751,-0.002242,-9.999828,-7.999992,6.000045,1.392749
0.7600,0.198067,-0.000197,0.479658,0.999997,0.001232,0.000044,0.000000,-0.118000,0.456000,-0.376000,0.000000,0.000000,-0.014101,-0.008387,-0.001686,-9.999878,-0.087121,0.120104,1.395363
0.7800,0.198066,-0.000160,0.479781,0.999997,0.000597,0.000025,0.000000,-0.129000,0.468000,-0.378000,0.000000,0.000000,-0.014070,-0.009152,-0.000838,-9.999877,0.000130,0.010790,1.398158
0.8000,0.198015,-0.000094,0.479812,0.999998,-0.000120,-0.000086,0.000000,-0.140000,0.480000,-0.380000,0.000000,0.000000,-0.012723,-0.008991,0.000012,-9.999834,-3.294601,6.000291,1.401135
0.8200,0.197434,0.000292,0.479525,0.999994,-0.003171,-0.000931,0.000000,-0.151000,0.492000,-0.382000,0.000000,0.000000,-0.014693,-0.011265,0.000931,-9.999899,8.000135,-0.947682,1.404259
0.8400,0.197061,0.000641,0.479487,0.999987,-0.004976,-0.000735,0.000000,-0.162000,0.504000,-0.384000,0.000000,0.000000,-0.015065,-0.012440,0.001875,-9.999914,0.451370,-4.843791,1.407598
0.8600,0.196967,0.000632,0.479620,0.999994,-0.003559,-0.000456,0.000000,-0.173000,0.516000,-0.386000,0.000000,0.000000,-0.014300,-0.012606,0.002640,-9.999887,-2.598151,-4.375865,1.411120
0.8800,0.196968,0.000539,0.479751,0.999998,-0.001877,-0.000239,0.000000,-0.184000,0.528000,-0.388000,0.000000,0.000000,-0.013753,-0.012885,0.003368,-9.999869,-0.233500,-0.033320,1.414822
0.9000,0.196974,0.000482,0.479823,1.000000,-0.000917,-0.000117,0.000000,-0.195000,0.540000,-0.390000,0.000000,0.000000,-0.013807,-0.013702,0.004218,-9.999871,-0.149112,0.001324,1.418708
0.9200,0.196820,0.000152,0.479841,0.999998,0.002113,-0.000268,0.000000,-0.206000,0.552000,-0.392000,0.000000,0.000000,-0.013669,-0.014314,0.005012,-9.999867,0.800254,0.233278,1.422711
0.9400,0.196453,-0.000301,0.479685,0.999990,0.004172,-0.000528,0.000000,-0.217000,0.564000,-0.394000,0.000000,0.000000,-0.013685,-0.015096,0.005876,-9.999868,1.092847,1.172769,1.426846
0.9600,0.196242,-0.000379,0.479624,0.999993,0.003377,-0.000518,0.000000,-0.228000,0.576000,-0.396000,0.000000,0.000000,-0.013408,-0.015553,0.006585,-9.999860,0.926409,4.150975,1.431229
0.9800,0.196073,-0.000423,0.479634,0.999993,0.002856,-0.000479,0.000000,-0.239000,0.588000,-0.398000,0.000000,0.000000,-0.012405,-0.015095,0.006857,-9.999828,3.430067,5.999946,1.435793
1.0000,0.195824,-0.000344,0.479585,0.999996,0.001570,-0.000693,0.000000,-0.250000,0.600000,-0.400000,0.000000,0.000000,-0.012492,-0.015929,0.007684,-9.999831,3.032520,5.999828,1.440544
1.0200,0.195590,-0.000273,0.479553,0.999997,0.000740,-0.000712,0.000000,-0.261000,0.612000,-0.402000,0.000000,0.000000,-0.013328,-0.017769,0.009027,-9.999859,-0.651382,4.880801,1.445466
1.0400,0.195539,-0.000261,0.479660,0.999997,0.000484,-0.000451,0.000000,-0.272000,0.624000,-0.404000,0.000000,0.000000,-0.013771,-0.019138,0.010165,-9.999873,-0.271970,0.212544,1.450558
1.0600,0.195545,-0.000247,0.479767,0.999997,0.000249,-0.000235,0.000000,-0.283000,0.636000,-0.406000,0.000000,0.000000,-0.013773,-0.019915,0.011003,-9.999873,-0.331308,0.029726,1.455824
1.0800,0.195374,-0.000141,0.479725,0.999997,-0.000494,-0.000512,0.000000,-0.294000,0.648000,-0.408000,0.000000,0.000000,-0.014016,-0.021085,0.012074,-9.999882,0.795213,-1.201724,1.461265
1.1000,0.195089,0.000005,0.479608,0.999997,-0.001148,-0.000793,0.000000,-0.305000,0.660000,-0.410000,0.000000,0.000000,-0.014198,-0.022201,0.013131,-9.999888,2.987160,-3.173017,1.466875
1.1200,0.194782,0.000201,0.479538,0.999996,-0.001927,-0.000906,0.000000,-0.316000,0.672000,-0.412000,0.000000,0.000000,-0.014339,-0.023285,0.014172,-9.999894,2.799259,-3.416434,1.472652
1.1400,0.194556,0.000354,0.479547,0.999997,-0.002189,-0.000796,0.000000,-0.327000,0.684000,-0.414000,0.000000,0.000000,-0.014132,-0.023783,0.014853,-9.999887,1.212921,-3.387793,1.478582
1.1600,0.194427,0.000382,0.479599,0.999998,-0.001506,-0.000530,0.000000,-0.338000,0.696000,-0.416000,0.000000,0.000000,-0.014608,-0.025426,0.016260,-9.999904,-7.999920,-6.000014,1.484650
1.1800,0.194392,0.000351,0.479701,0.999999,-0.000756,-0.000310,0.000000,-0.349000,0.708000,-0.418000,0.000000,0.000000,-0.013568,-0.024383,0.015934,-9.999869,-0.222702,0.021734,1.490865
1.2000,0.194396,0.000329,0.479791,0.999999,-0.000358,-0.000160,0.000000,-0.360000,0.720000,-0.420000,0.000000,0.000000,-0.013593,-0.025196,0.016796,-9.999870,-0.208665,0.008632,1.497239
1.2200,0.194364,0.000242,0.479848,0.999999,0.000608,-0.000175,0.000000,-0.371000,0.732000,-0.422000,0.000000,0.000000,-0.015548,-0.029698,0.020172,-9.999999,-0.939770,-5.999995,1.503749
1.2400,0.194054,0.000021,0.479759,0.999993,0.003055,-0.000772,0.000000,-0.382000,0.744000,-0.424000,0.000000,0.000000,-0.012779,-0.025165,0.017408,9.999844,7.999935,-6.000068,1.510359
1.2600,0.193650,-0.000068,0.479629,0.999987,0.003865,-0.001384,0.000000,-0.393000,0.756000,-0.426000,0.000000,0.000000,-0.013509,-0.027423,0.019289,9.999869,7.999988,-6.000071,1.517146
1.2800,0.193278,-0.000207,0.479594,0.999980,0.004681,-0.001635,0.000000,-0.404000,0.768000,-0.428000,0.000000,0.000000,-0.013463,-0.028138,0.020099,9.999868,7.999964,-6.000026,1.524051
1.3000,0.193042,-0.000323,0.479628,0.999974,0.004973,-0.001280,0.000000,-0.415000,0.780000,-0.430000,0.000000,0.000000,-0.015322,-0.032918,0.023845,9.999945,-7.999963,-5.999995,1.531110
1.3200,0.193036,-0.000268,0.479734,0.999980,0.003339,-0.000516,0.000000,-0.426000,0.792000,-0.432000,0.000000,0.000000,-0.013606,-0.030007,0.022008,-9.999874,-1.859551,0.677242,1.538375
1.3400,0.193050,-0.000177,0.479812,0.999984,0.001747,-0.000205,0.000000,-0.437000,0.804000,-0.434000,0.000000,0.000000,-0.013636,-0.030856,0.022899,-9.999874,-0.632083,0.074028,1.545799
1.3600,0.193057,-0.000123,0.479853,0.999985,0.000864,-0.000088,0.000000,-0.448000,0.816000,-0.436000,0.000000,0.000000,-0.013574,-0.031490,0.023634,-9.999872,-0.234575,0.010597,1.553355
1.3800,0.193060,-0.000096,0.479873,0.999985,0.000422,-0.000040,0.000000,-0.459000,0.828000,-0.438000,0.000000,0.000000,-0.013529,-0.032157,0.024394,-9.999871,-0.096048,0.002564,1.561044
1.4000,0.193062,-0.000083,0.479883,0.999985,0.000205,-0.000019,0.000000,-0.470000,0.840000,-0.440000,0.000000,0.000000,-0.013502,-0.032865,0.025186,-9.999870,-0.042418,0.000975,1.568865
1.4200,0.192510,-0.000209,0.479646,0.999966,0.004087,-0.001195,0.000000,-0.481000,0.852000,-0.442000,0.000000,0.000000,-0.012826,-0.032049,0.024825,-9.999850,7.145585,3.477614,1.576753
1.4400,0.191291,-0.000852,0.479627,0.999837,0.014870,-0.003080,0.000000,-0.492000,0.864000,-0.444000,0.000000,0.000000,-0.008000,-0.020549,0.016084,-9.999648,8.001142,6.000253,1.584442
1.4600,0.190652,-0.002021,0.480693,0.999398,0.032773,-0.003498,0.000000,-0.503000,0.876000,-0.446000,0.000000,0.000000,-0.009328,-0.024509,0.019338,-9.999718,4.224754,5.702902,1.591809
1.4800,0.190609,-0.002174,0.481240,0.999342,0.034490,-0.002406,0.000000,-0.514000,0.888000,-0.448000,0.000000,0.000000,-0.009775,-0.026248,0.020858,-9.999739,-2.200714,-0.002777,1.599921
1.5000,0.190692,-0.000932,0.480398,0.999843,0.013858,-0.001166,0.000000,-0.525000,0.900000,-0.450000,0.000000,0.000000,-0.009656,-0.026544,0.021253,-9.999733,-2.138342,0.131545,1.609134
1.5200,0.190836,0.000493,0.479295,0.999894,-0.009469,0.000948,0.000000,-0.536000,0.912000,-0.452000,0.000000,0.000000,-0.015268,-0.042925,0.034620,3.841604,-8.000000,-0.072165,1.618506
1.5400,0.190838,0.000450,0.479430,0.999904,-0.008325,0.000959,0.000000,-0.547000,0.924000,-0.454000,0.000000,0.000000,-0.013510,-0.038754,0.031471,-9.999875,-0.284645,-0.063280,1.627166
1.5600,0.190813,0.000232,0.479648,0.999928,-0.004609,0.000563,0.000000,-0.558000,0.936000,-0.456000,0.000000,0.000000,-0.012989,-0.037999,0.031064,-9.999858,0.615465,-0.029526,1.635860
1.5800,0.190794,0.000090,0.479777,0.999936,-0.002246,0.000281,0.000000,-0.569000,0.948000,-0.458000,0.000000,0.000000,-0.013055,-0.038938,0.032037,-9.999861,0.512558,-0.013784,1.644713
1.6000,0.190784,0.000018,0.479838,0.999938,-0.001066,0.000135,0.000000,-0.580000,0.960000,-0.460000,0.000000,0.000000,-0.013158,-0.040002,0.033115,-9.999864,0.267078,-0.006475,1.653722
1.6200,0.190780,-0.000016,0.479867,0.999939,-0.000509,0.000064,0.000000,-0.591000,0.972000,-0.462000,0.000000,0.000000,-0.012697,-0.039320,0.032742,-9.999849,-7.999869,-2.195260,1.662865
1.6400,0.190490,0.000477,0.479745,0.999940,-0.003474,0.000010,0.000000,-0.602000,0.984000,-0.464000,0.000000,0.000000,-0.015195,-0.048068,0.040226,-9.999955,-6.694630,-5.999970,1.672325
1.6600,0.190308,0.001053,0.479798,0.999953,-0.005301,-0.000732,0.000000,-0.613000,0.996000,-0.466000,0.000000,0.000000,-0.007439,-0.023999,0.020170,9.999617,7.971201,-5.999821,1.681901
1.6800,0.189319,0.000628,0.479492,0.999926,0.008052,-0.001064,0.000000,-0.624000,1.008000,-0.468000,0.000000,0.000000,-0.011515,-0.038012,0.032169,-9.999812,8.003457,2.851404,1.691211
1.7000,0.188984,-0.000625,0.480316,0.999647,0.024269,-0.000162,0.000000,-0.635000,1.020000,-0.470000,0.000000,0.000000,-0.007936,-0.026635,0.022660,-9.999650,-0.601676,5.999885,1.699958
1.7200,0.188915,-0.000984,0.480865,0.999543,0.027983,0.000128,0.000000,-0.646000,1.032000,-0.472000,0.000000,0.000000,-0.008281,-0.028272,0.024155,-9.999669,-2.315357,6.002991,1.709301
1.7400,0.188917,-0.000022,0.480236,0.999868,0.011454,0.000096,0.000000,-0.657000,1.044000,-0.474000,0.000000,0.000000,-0.009500,-0.033045,0.028356,-9.999730,-0.172205,0.275580,1.719755
1.7600,0.188897,0.001156,0.479266,0.999901,-0.007861,0.000078,0.000000,-0.668000,1.056000,-0.476000,0.000000,0.000000,-0.015111,-0.053536,0.046142,-9.999998,0.770856,-0.452385,1.730440
1.7800,0.188688,0.001077,0.479283,0.999909,-0.005485,-0.000279,0.000000,-0.679000,1.068000,-0.478000,0.000000,0.000000,-0.012343,-0.044491,0.038515,-9.999842,0.957951,5.735458,1.740385
1.8000,0.188431,0.000822,0.479444,0.999912,-0.001130,-0.000769,0.000000,-0.690000,1.080000,-0.480000,0.000000,0.000000,-0.011158,-0.040912,0.035568,-9.999800,4.209964,5.999674,1.750300
1.8200,0.188165,0.000061,0.479958,0.999854,0.008504,-0.001359,0.000000,-0.701000,1.092000,-0.482000,0.000000,0.000000,-0.007392,-0.027536,0.024040,-9.999619,1.458284,5.999713,1.759959
1.8400,0.187804,-0.000394,0.480271,0.999788,0.012552,-0.002453,0.000000,-0.712000,1.104000,-0.484000,0.000000,0.000000,-0.006672,-0.025285,0.022163,-9.999573,4.704367,6.000238,1.769882
1.8600,0.187129,0.000272,0.479495,0.999850,-0.001557,-0.003204,0.000000,-0.723000,1.116000,-0.486000,0.000000,0.000000,-0.014482,-0.056002,0.049288,-9.999922,7.999952,5.999987,1.780742
1.8800,0.186671,0.000457,0.479371,0.999837,-0.003334,-0.002662,0.000000,-0.734000,1.128000,-0.488000,0.000000,0.000000,-0.012067,-0.047484,0.041937,-9.999837,-8.000047,6.000022,1.791276
1.9000,0.186626,0.000444,0.479564,0.999842,-0.002252,-0.001573,0.000000,-0.745000,1.140000,-0.490000,0.000000,0.000000,-0.012857,-0.051355,0.045498,-9.999864,-1.145573,0.142920,1.801757
1.9200,0.186661,0.000383,0.479724,0.999844,-0.001152,-0.000777,0.000000,-0.756000,1.152000,-0.492000,0.000000,0.000000,-0.012801,-0.051869,0.046101,-9.999862,-1.248123,0.044921,1.812323
1.9400,0.186685,0.000346,0.479810,0.999845,-0.000551,-0.000367,0.000000,-0.767000,1.164000,-0.494000,0.000000,0.000000,-0.012838,-0.052767,0.047049,-9.999863,-0.662118,0.018325,1.823009
1.9600,0.186696,0.000329,0.479852,0.999845,-0.000262,-0.000173,0.000000,-0.778000,1.176000,-0.496000,0.000000,0.000000,-0.012861,-0.053618,0.047956,-9.999864,-0.309522,0.008363,1.833801
1.9800,0.186701,0.000320,0.479873,0.999845,-0.000126,-0.000083,0.000000,-0.789000,1.188000,-0.498000,0.000000,0.000000,-0.012870,-0.054411,0.048814,-9.999864,-0.142981,0.003966,1.844687
2.0000,0.186223,0.000452,0.479547,0.999847,-0.001050,-0.000767,0.000000,-0.800000,1.200000,-0.500000,0.000000,0.000000,-0.013006,-0.055924,0.050337,-9.999870,8.001242,0.221553,1.855801
2.0200,0.185780,0.000079,0.479246,0.999823,0.002088,0.000090,0.000000,-0.801000,1.201000,-0.501000,0.000000,0.000000,-0.011833,-0.051032,0.045982,-9.999831,8.000562,0.996325,1.857322
2.0400,0.185807,0.000451,0.479540,0.999846,-0.002368,0.001259,0.000000,-0.802000,1.202000,-0.502000,0.000000,0.000000,-0.014428,-0.062310,0.056087,-9.999924,-7.999968,-5.999988,1.859018
2.0600,0.185811,0.001527,0.480541,0.999766,-0.016244,-0.000088,0.000000,-0.803000,1.203000,-0.503000,0.000000,0.000000,-0.014865,-0.064371,0.057788,-0.758035,8.000000,-6.000000,1.860727
2.0800,0.184728,0.000746,0.479467,0.999853,0.006256,-0.001356,0.000000,-0.804000,1.204000,-0.504000,0.000000,0.000000,-0.005120,-0.022324,0.020113,-9.999462,-1.255348,5.999556,1.862338
2.1000,0.184198,0.000342,0.479094,0.999746,0.014840,-0.000701,0.000000,-0.805000,1.205000,-0.505000,0.000000,0.000000,-0.010996,-0.048082,0.043338,-9.999804,-1.123053,1.900404,1.863847
2.1200,0.184174,0.000681,0.479392,0.999813,0.009177,-0.000218,0.000000,-0.806000,1.206000,-0.506000,0.000000,0.000000,-0.013021,-0.057034,0.051368,-9.999875,-1.387772,0.142883,1.865522
2.1400,0.184181,0.000953,0.479641,0.999845,0.004638,-0.000074,0.000000,-0.807000,1.207000,-0.507000,0.000000,0.000000,-0.013069,-0.057330,0.051608,-9.999876,-0.375702,0.014803,1.867181
2.1600,0.184186,0.001102,0.479776,0.999853,0.002175,-0.000028,0.000000,-0.808000,1.208000,-0.508000,0.000000,0.000000,-0.012910,-0.056711,0.051041,-9.999871,-0.120112,0.002417,1.868825
2.1800,0.184009,0.001224,0.479703,0.999859,0.000435,-0.000321,0.000000,-0.809000,1.209000,-0.509000,0.000000,0.000000,-0.012517,-0.055129,0.049623,-9.999858,7.507491,2.084722,1.870522
2.2000,0.183662,0.001521,0.479406,0.999873,-0.002615,0.000382,0.000000,-0.810000,1.210000,-0.510000,0.000000,0.000000,-0.009469,-0.041847,0.037674,-9.999741,8.000721,5.999891,1.872375
2.2200,0.183755,0.001749,0.479631,0.999880,-0.004243,0.001732,0.000000,-0.811000,1.211000,-0.511000,0.000000,0.000000,-0.013575,-0.060041,0.054025,-9.999895,-3.990279,-5.034556,1.874035
2.2400,0.183504,0.001655,0.479630,0.999892,-0.002185,-0.000042,0.000000,-0.812000,1.212000,-0.512000,0.000000,0.000000,-0.011877,-0.052682,0.047423,-9.999837,7.999893,0.748596,1.875605
2.2600,0.183376,0.001550,0.479619,0.999893,-0.000693,-0.000207,0.000000,-0.813000,1.213000,-0.513000,0.000000,0.000000,-0.014242,-0.063251,0.056943,-9.999924,-7.999998,-5.999997,1.877182
2.2800,0.182646,0.000779,0.479391,0.999865,0.004361,-0.001069,0.000000,-0.814000,1.214000,-0.514000,0.000000,0.000000,-0.010673,-0.047629,0.042948,-9.999795,7.840913,5.694709,1.878478
2.3000,0.182458,0.000653,0.479569,0.999862,0.003937,-0.001053,0.000000,-0.815000,1.215000,-0.515000,0.000000,0.000000,-0.012430,-0.055567,0.050100,-9.999859,0.640916,0.537892,1.879963
2.3200,0.182466,0.000741,0.479727,0.999867,0.002180,-0.000607,0.000000,-0.816000,1.216000,-0.516000,0.000000,0.000000,-0.012680,-0.056757,0.051164,-9.999867,-0.648683,0.070845,1.881573
2.3400,0.182484,0.000805,0.479813,0.999869,0.001079,-0.000306,0.000000,-0.817000,1.217000,-0.517000,0.000000,0.000000,-0.012637,-0.056633,0.051050,-9.999866,-0.491693,0.018438,1.883201
2.3600,0.182493,0.000839,0.479854,0.999870,0.000521,-0.000149,0.000000,-0.818000,1.218000,-0.518000,0.000000,0.000000,-0.012588,-0.056483,0.050917,-9.999864,-0.258928,0.007471,1.884832
2.3800,0.182498,0.000856,0.479874,0.999870,0.000252,-0.000072,0.000000,-0.819000,1.219000,-0.519000,0.000000,0.000000,-0.012561,-0.056427,0.050871,-9.999863,-0.126569,0.003478,1.886463
2.4000,0.182097,0.001067,0.479602,0.999886,-0.003347,-0.000530,0.000000,-0.820000,1.220000,-0.520000,0.000000,0.000000,-0.013233,-0.059690,0.053827,-9.999888,8.000051,-3.618333,1.888270
2.4200,0.182210,0.002169,0.480460,0.999713,-0.020154,0.001805,0.000000,-0.821000,1.221000,-0.521000,0.000000,0.000000,-0.012115,-0.054719,0.049202,9.999848,-8.000110,-4.195495,1.890023
2.4400,0.181430,0.001628,0.479310,0.999887,-0.007525,0.000700,0.000000,-0.822000,1.222000,-0.522000,0.000000,0.000000,-0.009101,-0.041332,0.037282,-9.999729,7.410760,-1.834774,1.891842
2.4600,0.181178,0.001268,0.479213,0.999916,-0.000793,-0.000088,0.000000,-0.823000,1.223000,-0.523000,0.000000,0.000000,-0.011638,-0.052949,0.047779,-9.999834,1.779669,-0.107896,1.893340
2.4800,0.181153,0.001209,0.479501,0.999916,0.000226,-0.000139,0.000000,-0.824000,1.224000,-0.524000,0.000000,0.000000,-0.012293,-0.055997,0.050518,-9.999857,0.191619,-0.002992,1.894831
2.5000,0.181155,0.001208,0.479698,0.999916,0.000229,-0.000083,0.000000,-0.825000,1.225000,-0.525000,0.000000,0.000000,-0.012420,-0.056643,0.051095,-9.999861,-0.081870,0.003083,1.896386
2.5200,0.181157,0.001213,0.479798,0.999916,0.000132,-0.000042,0.000000,-0.826000,1.226000,-0.526000,0.000000,0.000000,-0.012433,-0.056773,0.051213,-9.999862,-0.067615,0.001930,1.897982
2.5400,0.181158,0.001217,0.479847,0.999916,0.000068,-0.000021,0.000000,-0.827000,1.227000,-0.527000,0.000000,0.000000,-0.012429,-0.056823,0.051261,-9.999862,-0.036180,0.000973,1.899598
2.5600,0.180852,0.001215,0.479564,0.999925,-0.001623,-0.000157,0.000000,-0.828000,1.228000,-0.528000,0.000000,0.000000,-0.012481,-0.057240,0.051667,-9.999864,8.000122,-1.788551,1.901321
2.5800,0.181111,0.001241,0.479796,0.999904,-0.002074,0.005487,0.000000,-0.829000,1.229000,-0.529000,0.000000,0.000000,-0.012360,-0.056633,0.051098,-9.999859,-7.999911,6.000033,1.902890
2.6000,0.180413,0.001473,0.479100,0.999924,-0.005909,0.000285,0.000000,-0.830000,1.230000,-0.530000,0.000000,0.000000,-0.014149,-0.065249,0.058930,-9.999932,7.999960,-5.999948,1.904849
2.6200,0.180219,0.001444,0.479256,0.999933,-0.004992,-0.000233,0.000000,-0.831000,1.231000,-0.531000,0.000000,0.000000,-0.012455,-0.057533,0.051954,-9.999865,1.498318,-0.640244,1.906394
2.6400,0.180203,0.001311,0.479548,0.999942,-0.002697,-0.000188,0.000000,-0.832000,1.232000,-0.532000,0.000000,0.000000,-0.012170,-0.056276,0.050814,-9.999855,0.147854,-0.046716,1.907857
2.6600,0.180206,0.001225,0.479725,0.999945,-0.001269,-0.000102,0.000000,-0.833000,1.233000,-0.533000,0.000000,0.000000,-0.012213,-0.056537,0.051050,-9.999857,-0.088432,0.000167,1.909385
2.6800,0.180208,0.001183,0.479812,0.999945,-0.000584,-0.000050,0.000000,-0.834000,1.234000,-0.534000,0.000000,0.000000,-0.012278,-0.056904,0.051385,-9.999859,-0.066216,0.001976,1.910967
2.7000,0.179963,0.001059,0.479547,0.999946,-0.000431,0.000183,0.000000,-0.835000,1.235000,-0.535000,0.000000,0.000000,-0.012067,-0.056072,0.050671,-9.999852,6.403049,0.727255,1.912629
2.7200,0.179856,0.001027,0.479345,0.999946,-0.001197,0.001809,0.000000,-0.836000,1.236000,-0.536000,0.000000,0.000000,-0.012537,-0.058346,0.052744,-9.999869,-0.331809,-1.753346,1.914321
2.7400,0.179998,0.000832,0.479439,0.999935,0.000059,0.003900,0.000000,-0.837000,1.237000,-0.537000,0.000000,0.000000,-0.010922,-0.050830,0.045961,-9.999810,-7.999323,5.999110,1.915841
2.7600,0.179628,0.001500,0.479344,0.999928,-0.006584,0.003208,0.000000,-0.838000,1.238000,-0.538000,0.000000,0.000000,-0.013618,-0.063681,0.057544,0.837547,7.999955,-5.999986,1.917775
2.7800,0.179658,0.001622,0.479649,0.999923,-0.006174,0.005461,0.000000,-0.839000,1.239000,-0.539000,0.000000,0.000000,-0.012589,-0.058903,0.053207,-9.999871,-7.999979,-0.445328,1.919346
2.8000,0.179510,0.001454,0.479764,0.999948,-0.003032,0.003089,0.000000,-0.840000,1.240000,-0.540000,0.000000,0.000000,-0.012175,-0.057073,0.051565,-9.999857,0.127910,-0.184539,1.920855
2.8200,0.179374,0.001319,0.479801,0.999956,-0.000760,0.000859,0.000000,-0.841000,1.241000,-0.541000,0.000000,0.000000,-0.011953,-0.056131,0.050726,-9.999849,5.545958,-0.044813,1.922407
2.8400,0.179333,0.001282,0.479841,0.999957,-0.000158,0.000220,0.000000,-0.842000,1.242000,-0.542000,0.000000,0.000000,-0.012191,-0.057326,0.051811,-9.999858,1.291275,-0.010985,1.924007
2.8600,0.179323,0.001274,0.479866,0.999957,-0.000030,0.000063,0.000000,-0.843000,1.243000,-0.543000,0.000000,0.000000,-0.012242,-0.057635,0.052096,-9.999860,0.309610,-0.003061,1.925628
2.8800,0.179307,0.001266,0.479866,0.999957,0.000059,0.000004,0.000000,-0.844000,1.244000,-0.544000,0.000000,0.000000,-0.013127,-0.061878,0.055938,-9.999891,0.498598,-5.999955,1.927259
2.9000,0.179282,-0.000475,0.480152,0.999750,0.017113,0.002443,0.000000,-0.845000,1.245000,-0.545000,0.000000,0.000000,-0.004207,-0.019806,0.017941,-9.999390,-8.001114,5.999688,1.927928
2.9200,0.178198,0.001081,0.478800,0.999733,-0.019798,0.004354,0.000000,-0.846000,1.246000,-0.546000,0.000000,0.000000,-0.008214,-0.039078,0.035384,9.999692,7.746189,-6.000182,1.930699
2.9400,0.178975,0.001102,0.479726,0.999776,-0.015168,0.009486,0.000000,-0.847000,1.247000,-0.547000,0.000000,0.000000,-0.014061,-0.066580,0.060228,-10.000054,-7.999966,6.000005,1.932059
2.9600,0.179082,0.000610,0.479609,0.999933,-0.001378,0.002639,0.000000,-0.848000,1.248000,-0.548000,0.000000,0.000000,-0.010327,-0.048973,0.044351,-9.999755,7.999895,-5.999783,1.933582
2.9800,0.179741,-0.001238,0.480759,0.999408,0.027514,0.003066,0.000000,-0.849000,1.249000,-0.549000,0.000000,0.000000,-0.004436,-0.020891,0.018930,-9.999410,-7.998848,5.999835,1.933788
3.0000,0.178919,0.000554,0.479238,0.999717,-0.012485,0.003312,0.000000,-0.850000,1.250000,-0.550000,0.000000,0.000000,-0.005937,-0.028260,0.025605,9.999542,7.999613,-5.999757,1.936832
3.0200,0.178644,0.001051,0.478857,0.999638,-0.018565,0.003269,0.000000,-0.851000,1.251000,-0.551000,0.000000,0.000000,-0.013071,-0.062347,0.056502,-9.999891,-5.017148,-0.267378,1.938799
3.0400,0.178515,0.000592,0.479217,0.999761,-0.010351,0.001726,0.000000,-0.852000,1.252000,-0.552000,0.000000,0.000000,-0.011538,-0.055108,0.049949,-9.999837,3.438608,-0.177252,1.940116
3.0600,0.178451,0.000276,0.479542,0.999804,-0.005012,0.000812,0.000000,-0.853000,1.253000,-0.553000,0.000000,0.000000,-0.011727,-0.056072,0.050826,-9.999844,1.478743,-0.041772,1.941491
3.0800,0.178345,0.000112,0.479636,0.999812,-0.001953,0.000377,0.000000,-0.854000,1.254000,-0.554000,0.000000,0.000000,-0.012031,-0.057627,0.052248,-9.999855,7.761196,0.264894,1.943011
3.1000,0.178166,0.000073,0.479412,0.999810,0.000123,0.001311,0.000000,-0.855000,1.255000,-0.555000,0.000000,0.000000,-0.012083,-0.057994,0.052604,-9.999857,0.502364,-0.885254,1.944702
3.1200,0.178155,-0.000085,0.479371,0.999796,0.002093,0.002765,0.000000,-0.856000,1.256000,-0.556000,0.000000,0.000000,-0.011185,-0.053732,0.048756,-9.999824,-0.953857,4.608176,1.946277
3.1400,0.178582,0.000809,0.479748,0.999859,-0.006189,0.004994,0.000000,-0.857000,1.257000,-0.557000,0.000000,0.000000,-0.013551,-0.065080,0.058951,9.999909,-7.999986,-5.999994,1.948261
3.1600,0.178957,-0.000845,0.480144,0.999581,0.018468,0.000578,0.000000,-0.858000,1.258000,-0.558000,0.000000,0.000000,-0.004620,-0.022116,0.020075,-9.999430,7.998185,6.000370,1.948897
3.1800,0.179020,-0.000864,0.479892,0.999837,0.005091,0.009619,0.000000,-0.859000,1.259000,-0.559000,0.000000,0.000000,-0.008550,-0.040987,0.037212,9.999873,-7.999854,-6.000055,1.950781
3.2000,0.178395,-0.000535,0.479304,0.999931,-0.003850,0.000559,0.000000,-0.860000,1.260000,-0.560000,0.000000,0.000000,-0.013394,-0.064549,0.058634,-9.999904,7.999896,-5.999890,1.952790
3.2200,0.178594,-0.001730,0.480344,0.999812,0.013777,0.000955,0.000000,-0.861000,1.261000,-0.561000,0.000000,0.000000,-0.003936,-0.018919,0.017188,-9.999364,-7.998709,5.999519,1.953456
3.2400,0.178024,-0.000087,0.478614,0.999838,-0.013742,0.001163,0.000000,-0.862000,1.262000,-0.562000,0.000000,0.000000,-0.010179,-0.049316,0.044819,9.999786,5.057704,-6.000033,1.956478
3.2600,0.178280,-0.000776,0.479452,0.999890,-0.000610,0.003753,0.000000,-0.863000,1.263000,-0.563000,0.000000,0.000000,-0.008451,-0.040855,0.037126,-9.999704,-7.999870,6.000377,1.957499
3.2800,0.178187,-0.000906,0.479720,0.999883,0.002436,0.001964,0.000000,-0.864000,1.264000,-0.564000,0.000000,0.000000,-0.013833,-0.067045,0.060921,-0.105982,7.999962,-5.999942,1.958958
3.3000,0.178494,-0.002021,0.480709,0.999597,0.021086,0.003235,0.000000,-0.865000,1.265000,-0.565000,0.000000,0.000000,-0.007018,-0.033909,0.030817,-9.999620,7.997213,6.000135,1.959623
3.3200,0.178589,-0.002410,0.481120,0.999529,0.024316,0.003524,0.000000,-0.866000,1.266000,-0.566000,0.000000,0.000000,-0.008874,-0.042917,0.039007,-9.999725,7.999989,-2.499753,1.960919
3.3400,0.178483,-0.001349,0.480078,0.999824,0.005089,0.001114,0.000000,-0.867000,1.267000,-0.567000,0.000000,0.000000,-0.008724,-0.042322,0.038473,-9.999718,4.869027,-0.675725,1.963521
3.3600,0.178331,-0.000503,0.479293,0.999797,-0.008578,-0.000626,0.000000,-0.868000,1.268000,-0.568000,0.000000,0.000000,-0.014177,-0.068973,0.062711,-9.999948,8.000002,-2.496014,1.965826
3.3800,0.178030,-0.001001,0.479089,0.999794,-0.000661,0.000370,0.000000,-0.869000,1.269000,-0.569000,0.000000,0.000000,-0.009715,-0.047367,0.043110,-9.999766,2.993739,6.000068,1.967280
3.4000,0.178778,0.000027,0.479781,0.999879,-0.008922,0.004447,0.000000,-0.870000,1.270000,-0.570000,0.000000,0.000000,-0.009392,-0.045679,0.041470,9.999749,-6.089831,-5.999945,1.969258
3.4200,0.179056,-0.001209,0.480208,0.999507,0.021919,0.002681,0.000000,-0.871000,1.271000,-0.571000,0.000000,0.000000,-0.004344,-0.021088,0.019176,-9.999404,8.000231,6.000286,1.970008
3.4400,0.179164,-0.001325,0.480301,0.999673,0.015794,0.009392,0.000000,-0.872000,1.272000,-0.572000,0.000000,0.000000,-0.009534,-0.046335,0.042131,-9.999755,-8.000146,-5.999845,1.971664
3.4600,0.178502,-0.001048,0.479539,0.999879,0.004798,0.002363,0.000000,-0.873000,1.273000,-0.573000,0.000000,0.000000,-0.007391,-0.036120,0.032876,-9.999644,8.000253,3.625812,1.973758
3.4800,0.178571,-0.001351,0.479877,0.999877,0.006120,0.005753,0.000000,-0.874000,1.274000,-0.574000,0.000000,0.000000,-0.012400,-0.060577,0.055122,-9.999867,-7.999853,-6.000030,1.975144
3.5000,0.178455,-0.002088,0.480229,0.999784,0.014420,0.001589,0.000000,-0.875000,1.275000,-0.575000,0.000000,0.000000,-0.005272,-0.025790,0.023486,-9.999490,7.999889,5.999846,1.976269
3.5200,0.178195,-0.001529,0.479505,0.999945,-0.002231,0.003481,0.000000,-0.876000,1.276000,-0.576000,0.000000,0.000000,-0.014238,-0.069884,0.063651,9.999979,-8.000019,-6.000000,1.978503
3.5400,0.178052,-0.001418,0.479507,0.999948,-0.004900,0.002258,0.000000,-0.877000,1.277000,-0.577000,0.000000,0.000000,-0.011799,-0.058028,0.052855,-9.999847,7.997990,4.104768,1.980185
3.5600,0.178417,-0.000987,0.479865,0.999958,-0.006958,0.004248,0.000000,-0.878000,1.278000,-0.578000,0.000000,0.000000,-0.007627,-0.037467,0.034090,9.999658,-7.999751,-5.999995,1.981923
3.5800,0.177762,-0.002339,0.479795,0.999794,0.019300,0.001098,0.000000,-0.879000,1.279000,-0.579000,0.000000,0.000000,-0.004458,-0.021985,0.020047,-9.999418,7.999329,5.999545,1.982884
3.6000,0.177632,-0.001873,0.479513,0.999943,0.000805,0.009865,0.000000,-0.880000,1.280000,-0.580000,0.000000,0.000000,-0.008730,-0.043156,0.039334,9.999797,-7.999860,-6.000129,1.984882
3.6200,0.177038,-0.002139,0.479265,0.999971,0.000954,0.001667,0.000000,-0.881000,1.281000,-0.581000,0.000000,0.000000,-0.007968,-0.039571,0.036107,-9.999681,8.000174,6.001549,1.986452
3.6400,0.177326,-0.001933,0.479698,0.999927,-0.001395,0.003685,0.000000,-0.882000,1.282000,-0.582000,0.000000,0.000000,-0.013412,-0.066547,0.060660,-9.999907,-7.999925,-5.999964,1.988004
3.6600,0.177183,-0.002175,0.479717,0.999926,0.002479,0.000897,0.000000,-0.883000,1.283000,-0.583000,0.000000,0.000000,-0.007261,-0.036108,0.032939,-9.999639,8.000155,6.000541,1.989515
3.6800,0.177498,-0.001886,0.479854,0.999873,0.000228,0.003105,0.000000,-0.884000,1.284000,-0.584000,0.000000,0.000000,-0.013748,-0.068296,0.062249,-9.999901,-7.999961,-5.999969,1.991217
3.7000,0.177539,-0.001948,0.479839,0.999894,0.002678,0.000903,0.000000,-0.885000,1.285000,-0.585000,0.000000,0.000000,-0.008205,-0.040816,0.037222,-9.999693,5.211710,6.000255,1.992858
3.7200,0.178075,-0.000962,0.480110,0.999702,-0.006912,0.002587,0.000000,-0.886000,1.286000,-0.586000,0.000000,0.000000,-0.012003,-0.059629,0.054278,9.999880,-8.000107,-6.000000,1.994735
3.7400,0.177635,-0.001748,0.479727,0.999595,0.016712,0.001391,0.000000,-0.887000,1.287000,-0.587000,0.000000,0.000000,-0.004557,-0.022713,0.020717,-9.999428,7.998291,6.000504,1.996116
3.7600,0.177323,-0.001315,0.479323,0.999565,0.002243,0.005183,0.000000,-0.888000,1.288000,-0.588000,0.000000,0.000000,-0.014167,-0.070861,0.064624,0.912495,-7.999971,-6.000000,1.998000
3.7800,0.176944,-0.001564,0.479404,0.999552,0.002042,0.002968,0.000000,-0.889000,1.289000,-0.589000,0.000000,0.000000,-0.008246,-0.041368,0.037747,-9.999697,8.000145,5.996055,1.999452
3.8000,0.177388,-0.001221,0.479999,0.999356,-0.002724,0.007310,0.000000,-0.890000,1.290000,-0.590000,0.000000,0.000000,-0.013842,-0.069324,0.063165,-10.000001,-7.999959,-6.000000,2.000902
3.8200,0.177281,-0.001451,0.479736,0.999484,0.003853,-0.002128,0.000000,-0.891000,1.291000,-0.591000,0.000000,0.000000,-0.007503,-0.037663,0.034358,-9.999654,7.999611,5.999949,2.002631
3.8400,0.177769,-0.000510,0.479800,0.999305,-0.007365,0.002417,0.000000,-0.892000,1.292000,-0.592000,0.000000,0.000000,-0.011505,-0.057674,0.052526,9.999837,-8.000003,-5.999943,2.004579
3.8600,0.177379,-0.001218,0.479605,0.999282,0.008912,0.001079,0.000000,-0.893000,1.293000,-0.593000,0.000000,0.000000,-0.004793,-0.024099,0.021985,-9.999450,7.986421,5.999754,2.005940
3.8800,0.177425,-0.000815,0.479626,0.999035,-0.001321,0.004463,0.000000,-0.894000,1.294000,-0.594000,0.000000,0.000000,-0.014106,-0.071008,0.064736,-9.999947,-7.999954,-5.999997,2.007547
3.9000,0.177124,-0.001295,0.479600,0.999012,0.003491,0.001388,0.000000,-0.895000,1.295000,-0.595000,0.000000,0.000000,-0.007302,-0.036855,0.033635,-9.999642,7.999708,5.999677,2.008942
3.9200,0.177634,-0.000703,0.480053,0.998658,-0.003927,0.004966,0.000000,-0.896000,1.296000,-0.596000,0.000000,0.000000,-0.013214,-0.066567,0.060651,2.144900,-7.999903,-6.000000,2.010436
3.9400,0.177546,-0.000769,0.479651,0.998719,0.001056,-0.001522,0.000000,-0.897000,1.297000,-0.597000,0.000000,0.000000,-0.008580,-0.043329,0.039526,-9.999713,7.999656,5.999936,2.012246
3.9600,0.177941,0.000242,0.479917,0.998252,-0.007523,-0.001515,0.000000,-0.898000,1.298000,-0.598000,0.000000,0.000000,-0.011541,-0.058238,0.053020,9.999838,-7.999858,-5.999982,2.013912
3.9800,0.177558,-0.000351,0.479580,0.998099,0.015138,0.002170,0.000000,-0.899000,1.299000,-0.599000,0.000000,0.000000,-0.004536,-0.022954,0.020934,-9.999426,-1.386222,6.000054,2.015318
4.0000,0.177061,0.001012,0.478879,0.997975,-0.005202,0.003584,0.000000,-0.900000,1.300000,-0.600000,0.000000,0.000000,-0.012610,-0.064189,0.058484,9.999878,-7.999939,-5.999909,2.017666
4.0200,0.177272,-0.000265,0.480008,0.998037,0.013085,0.005976,0.000000,-0.900000,1.300000,-0.600000,0.000000,0.000000,-0.004235,-0.021482,0.019580,-9.999397,8.000056,6.000096,2.016746
4.0400,0.177176,-0.000330,0.480052,0.997253,-0.000971,0.013131,0.000000,-0.900000,1.300000,-0.600000,0.000000,0.000000,-0.010421,-0.052923,0.048232,-6.756226,-7.999899,-5.999839,2.016061
4.0600,0.176411,-0.000421,0.479554,0.997075,-0.003107,0.000098,0.000000,-0.900000,1.300000,-0.600000,0.000000,0.000000,-0.011922,-0.060815,0.055469,-9.999855,7.999870,-5.999747,2.015975
4.0800,0.176363,-0.000855,0.479788,0.997135,0.002476,-0.001923,0.000000,-0.900000,1.300000,-0.600000,0.000000,0.000000,-0.010403,-0.053031,0.048376,-9.999798,8.005233,4.640992,2.015729
4.1000,0.176439,-0.000871,0.479860,0.997159,0.002251,-0.000884,0.000000,-0.900000,1.300000,-0.600000,0.000000,0.000000,-0.011777,-0.060012,0.054739,-9.999850,-0.299109,0.624567,2.015717
4.1200,0.176482,-0.000795,0.479860,0.997164,0.000949,-0.000103,0.000000,-0.900000,1.300000,-0.600000,0.000000,0.000000,-0.012045,-0.061373,0.055976,-9.999860,-2.058135,0.075491,2.015758
4.1400,0.176469,-0.000754,0.479853,0.997163,0.000367,0.000022,0.000000,-0.900000,1.300000,-0.600000,0.000000,0.000000,-0.011085,-0.056482,0.051513,-9.999825,5.230910,5.999738,2.015776
4.1600,0.176082,0.000596,0.479537,0.996915,-0.009324,0.002864,0.000000,-0.900000,1.300000,-0.600000,0.000000,0.000000,-0.011642,-0.059565,0.054250,9.999846,-7.999825,-5.999869,2.016301
4.1800,0.176015,-0.000698,0.479388,0.997284,0.007143,0.002162,0.000000,-0.900000,1.300000,-0.600000,0.000000,0.000000,-0.006277,-0.032060,0.029262,-9.999575,8.000264,6.000277,2.016061
4.2000,0.177091,-0.000127,0.480367,0.996739,-0.002568,0.010458,0.000000,-0.900000,1.300000,-0.600000,0.000000,0.000000,-0.011119,-0.056453,0.051399,9.999848,-7.999994,-6.000000,2.015595
4.2200,0.177986,-0.000598,0.480379,0.997646,0.014443,0.004063,0.000000,-0.900000,1.300000,-0.600000,0.000000,0.000000,-0.004820,-0.024343,0.022189,-9.999451,8.000444,5.999613,2.016204
4.2400,0.177935,0.000221,0.479215,0.998036,0.000115,-0.000998,0.000000,-0.900000,1.300000,-0.600000,0.000000,0.000000,-0.014234,-0.072025,0.065669,-1.525691,7.999995,5.999994,2.017292
4.2600,0.177941,0.000424,0.479298,0.998054,-0.003172,-0.001122,0.000000,-0.900000,1.300000,-0.600000,0.000000,0.000000,-0.012567,-0.063589,0.057957,-9.999874,0.696407,0.739265,2.017366
4.2800,0.177857,0.000142,0.479318,0.998109,-0.000691,0.000180,0.000000,-0.900000,1.300000,-0.600000,0.000000,0.000000,-0.011539,-0.058402,0.053250,-9.999838,3.804215,1.181532,2.017266
4.3000,0.177883,-0.000172,0.479294,0.998176,0.001235,0.002408,0.000000,-0.900000,1.300000,-0.600000,0.000000,0.000000,-0.011747,-0.059418,0.054195,-9.999846,3.906594,1.684026,2.017193
4.3200,0.178193,0.000241,0.479646,0.998044,-0.004692,0.005098,0.000000,-0.900000,1.300000,-0.600000,0.000000,0.000000,-0.012766,-0.064487,0.058753,-9.999881,8.000023,6.000072,2.017166
4.3400,0.178570,0.001546,0.480356,0.997503,-0.019990,0.007126,0.000000,-0.900000,1.300000,-0.600000,0.000000,0.000000,-0.011869,-0.059922,0.054464,9.999848,7.999964,-5.999968,2.017166
4.3600,0.178634,0.001442,0.480205,0.997814,-0.010334,0.009182,0.000000,-0.900000,1.300000,-0.600000,0.000000,0.000000,-0.012485,-0.063002,0.057303,-10.001412,-7.999935,-3.446942,2.017367
4.3800,0.178080,0.000799,0.479334,0.998084,0.005259,-0.001572,0.000000,-0.900000,1.300000,-0.600000,0.000000,0.000000,-0.009806,-0.049614,0.045204,-9.999770,8.000079,5.986151,2.017559
4.4000,0.178066,0.001610,0.479846,0.997965,-0.004996,-0.001590,0.000000,-0.900000,1.300000,-0.600000,0.000000,0.000000,-0.007924,-0.040124,0.036478,9.999676,-7.999016,-5.999981,2.017618
4.4200,0.177926,0.000881,0.479422,0.998196,0.006553,0.003203,0.000000,-0.900000,1.300000,-0.600000,0.000000,0.000000,-0.006824,-0.034544,0.031473,-9.999608,1.522412,6.000076,2.017641
4.4400,0.178014,0.002373,0.480055,0.997856,-0.013741,0.004748,0.000000,-0.900000,1.300000,-0.600000,0.000000,0.000000,-0.008052,-0.040822,0.037075,9.999683,8.000271,-5.999839,2.017828
4.4600,0.178053,0.003127,0.480576,0.998051,-0.015815,0.008616,0.000000,-0.900000,1.300000,-0.600000,0.000000,0.000000,-0.012340,-0.062597,0.056792,-9.719028,-7.999933,-5.016738,2.018140
4.4800,0.177523,0.002654,0.479609,0.998504,0.002832,-0.001046,0.000000,-0.900000,1.300000,-0.600000,0.000000,0.000000,-0.007843,-0.039890,0.036262,-9.999673,8.000292,6.000157,2.018555
4.5000,0.177432,0.002559,0.479499,0.998530,0.005915,-0.002476,0.000000,-0.900000,1.300000,-0.600000,0.000000,0.000000,-0.011320,-0.057585,0.052348,-9.999831,6.557793,1.566092,2.018578
4.5200,0.177311,0.002588,0.479429,0.998554,0.003519,-0.001124,0.000000,-0.900000,1.300000,-0.600000,0.000000,0.000000,-0.012621,-0.064258,0.058422,-9.999878,5.139488,-5.824128,2.018621
4.5400,0.177986,0.000772,0.480174,0.998833,0.019994,0.003578,0.000000,-0.900000,1.300000,-0.600000,0.000000,0.000000,-0.004688,-0.023693,0.021567,-9.999439,-8.001413,6.000189,2.017886
4.5600,0.177140,0.002472,0.479577,0.998360,-0.024219,0.007011,0.000000,-0.900000,1.300000,-0.600000,0.000000,0.000000,-0.008806,-0.044903,0.040803,9.999725,7.999794,-5.999800,2.018495
4.5800,0.177059,0.003747,0.480521,0.998259,-0.032911,0.017418,0.000000,-0.900000,1.300000,-0.600000,0.000000,0.000000,-0.013202,-0.067395,0.061101,-10.000004,-7.999950,6.000009,2.018780
4.6000,0.176375,0.003473,0.480068,0.998962,-0.018600,0.010329,0.000000,-0.900000,1.300000,-0.600000,0.000000,0.000000,-0.008313,-0.042620,0.038688,-9.671560,7.999851,-6.000017,2.019106
4.6200,0.176265,0.002750,0.479236,0.999133,-0.003337,0.005077,0.000000,-0.900000,1.300000,-0.600000,0.000000,0.000000,-0.009475,-0.048504,0.044101,-9.999759,-8.000168,1.701048,2.019144
4.6400,0.176189,0.002652,0.479392,0.999122,-0.001294,0.004417,0.000000,-0.900000,1.300000,-0.600000,0.000000,0.000000,-0.012569,-0.064415,0.058559,-9.999879,7.999925,-6.000008,2.019018
4.6600,0.176474,0.002412,0.479790,0.999172,0.001358,0.007527,0.000000,-0.900000,1.300000,-0.600000,0.000000,0.000000,-0.010838,-0.055401,0.050352,-9.999815,-7.999844,6.000108,2.018822
4.6800,0.176107,0.002524,0.479698,0.999204,-0.000449,0.001169,0.000000,-0.900000,1.300000,-0.600000,0.000000,0.000000,-0.013888,-0.071216,0.064716,-10.000043,7.999969,-6.000010,2.018889
4.7000,0.176399,0.002194,0.479970,0.999354,0.002590,0.002775,0.000000,-0.900000,1.300000,-0.600000,0.000000,0.000000,-0.008171,-0.041764,0.037963,-9.999694,-7.999774,5.999940,2.018779
4.7200,0.176139,0.003572,0.480237,0.999103,-0.016698,-0.002465,0.000000,-0.900000,1.300000,-0.600000,0.000000,0.000000,-0.008569,-0.043991,0.039888,9.999716,8.000756,-6.000075,2.019132
4.7400,0.176033,0.004434,0.480725,0.999138,-0.021764,0.003400,0.000000,-0.900000,1.300000,-0.600000,0.000000,0.000000,-0.013950,-0.071677,0.064924,-10.000028,-7.999971,5.999958,2.019388
4.7600,0.175964,0.003522,0.479961,0.999417,-0.004303,0.003540,0.000000,-0.900000,1.300000,-0.600000,0.000000,0.000000,-0.008263,-0.042416,0.038514,-9.999700,-7.999741,3.560233,2.019392
4.7800,0.175322,0.003235,0.478981,0.999363,0.000148,0.001005,0.000000,-0.900000,1.300000,-0.600000,0.000000,0.000000,-0.013787,-0.071071,0.064605,-9.999935,7.999957,-5.999984,2.019556
4.8000,0.176070,0.003022,0.479806,0.999312,0.000739,0.013833,0.000000,-0.900000,1.300000,-0.600000,0.000000,0.000000,-0.011562,-0.059253,0.053809,-9.999839,-7.999921,4.928526,2.019197
4.8200,0.176233,0.003024,0.480312,0.999291,0.000354,0.015822,0.000000,-0.900000,1.300000,-0.600000,0.000000,0.000000,-0.011897,-0.060966,0.055338,-9.999855,-7.999919,-0.426785,2.019005
4.8400,0.175189,0.002986,0.478975,0.999413,-0.002620,-0.001563,0.000000,-0.900000,1.300000,-0.600000,0.000000,0.000000,-0.010996,-0.056712,0.051575,-9.999760,7.999912,-1.188043,2.019478
4.8600,0.175430,0.002992,0.479310,0.999435,-0.003034,0.002597,0.000000,-0.900000,1.300000,-0.600000,0.000000,0.000000,-0.012058,-0.062051,0.056390,-9.999862,-7.999851,3.645910,2.019384
4.8800,0.175482,0.002929,0.479664,0.999443,-0.001847,0.003171,0.000000,-0.900000,1.300000,-0.600000,0.000000,0.000000,-0.011774,-0.060584,0.055041,-9.999852,-3.467192,0.188710,2.019222
4.9000,0.175266,0.002971,0.479559,0.999415,-0.003545,0.002483,0.000000,-0.900000,1.300000,-0.600000,0.000000,0.000000,-0.012036,-0.062024,0.056357,-9.999862,7.999951,-6.000292,2.019243
4.9200,0.175669,0.003017,0.480016,0.999388,-0.003620,0.009682,0.000000,-0.900000,1.300000,-0.600000,0.000000,0.000000,-0.011642,-0.059832,0.054327,-9.999827,-7.999923,2.368440,2.019114
4.9400,0.175155,0.002864,0.479682,0.999442,-0.001254,0.000325,0.000000,-0.900000,1.300000,-0.600000,0.000000,0.000000,-0.010992,-0.056686,0.051508,-9.999825,7.999837,-0.181848,2.019154
4.9600,0.174966,0.002772,0.479648,0.999439,0.000165,-0.002775,0.000000,-0.900000,1.300000,-0.600000,0.000000,0.000000,-0.011654,-0.060130,0.054641,-9.999849,8.000442,0.137296,2.019109
4.9800,0.175015,0.002768,0.479749,0.999441,0.000242,-0.001899,0.000000,-0.900000,1.300000,-0.600000,0.000000,0.000000,-0.011801,-0.060868,0.055303,-9.999854,-0.641383,0.093448,2.019071
5.0000,0.175067,0.002775,0.479819,0.999443,0.000149,-0.001014,0.000000,-0.900000,1.300000,-0.600000,0.000000,0.000000,-0.011827,-0.060985,0.055405,-9.999855,-1.290685,0.048822,2.019051
5.0200,0.175098,0.002780,0.479856,0.999443,0.000078,-0.000506,0.000000,-0.900000,1.300000,-0.600000,0.000000,0.000000,-0.011829,-0.060990,0.055407,-9.999855,-0.789830,0.024215,2.019041
5.0400,0.174995,0.002819,0.479787,0.999425,-0.001380,-0.000271,0.000000,-0.900000,1.300000,-0.600000,0.000000,0.000000,-0.010172,-0.052495,0.047693,-9.999792,7.999970,6.000176,2.019063
5.0600,0.174416,0.005453,0.481706,0.998286,-0.045195,-0.001353,0.000000,-0.900000,1.300000,-0.600000,0.000000,0.000000,-0.004860,-0.025253,0.022795,9.999464,8.000785,-6.000400,2.019018
5.0800,0.174444,0.004334,0.480624,0.998921,-0.029931,0.004416,0.000000,-0.900000,1.300000,-0.600000,0.000000,0.000000,-0.005228,-0.027080,0.024555,-9.999496,-8.000982,5.999778,2.019181
5.1000,0.174076,0.005381,0.481332,0.998144,-0.048140,0.004811,0.000000,-0.900000,1.300000,-0.600000,0.000000,0.000000,-0.007891,-0.041078,0.037116,9.999685,7.999963,-5.999721,2.019069
5.1200,0.173810,0.006089,0.482367,0.998799,-0.039914,0.023730,0.000000,-0.900000,1.300000,-0.600000,0.000000,0.000000,-0.005129,-0.026739,0.024131,-9.999489,-7.999679,5.999621,2.019417
5.1400,0.173038,0.007589,0.482542,0.997434,-0.068518,0.006790,0.000000,-0.900000,1.300000,-0.600000,0.000000,0.000000,-0.006433,-0.033784,0.030416,9.999595,7.999648,-5.999772,2.019513
5.1600,0.172756,0.008692,0.483485,0.996796,-0.078522,0.009638,0.000000,-0.900000,1.300000,-0.600000,0.000000,0.000000,-0.013215,-0.069519,0.062455,-9.999891,-7.999957,5.999956,2.019475
5.1800,0.172246,0.008345,0.483325,0.997631,-0.068253,0.005754,0.000000,-0.900000,1.300000,-0.600000,0.000000,0.000000,-0.013696,-0.072255,0.064973,-10.000033,7.999974,5.999981,2.019612
5.2000,0.171887,0.006573,0.481956,0.999211,-0.039442,0.001808,0.000000,-0.900000,1.300000,-0.600000,0.000000,0.000000,-0.013749,-0.072509,0.065457,-7.169758,7.999992,4.329333,2.019815
5.2200,0.171786,0.003658,0.479436,0.999965,0.007440,0.000711,0.000000,-0.900000,1.300000,-0.600000,0.000000,0.000000,-0.004796,-0.025223,0.022920,-9.999465,1.592138,0.985780,2.019747
5.2400,0.171752,0.003075,0.479043,0.999870,0.015680,0.000256,0.000000,-0.900000,1.300000,-0.600000,0.000000,0.000000,-0.010043,-0.052810,0.048007,-9.999795,-0.757796,0.001734,2.019615
5.2600,0.171420,0.003147,0.479381,0.999954,0.008901,-0.000341,0.000000,-0.900000,1.300000,-0.600000,0.000000,0.000000,-0.012430,-0.065514,0.059526,-9.999887,8.000334,-2.494525,2.019506
5.2800,0.171285,0.003203,0.479603,0.999986,0.004037,0.000126,0.000000,-0.900000,1.300000,-0.600000,0.000000,0.000000,-0.011905,-0.062777,0.057020,-9.999867,-2.311965,1.942318,2.019440
5.3000,0.171282,0.003299,0.479742,0.999993,0.001822,0.000293,0.000000,-0.900000,1.300000,-0.600000,0.000000,0.000000,-0.011762,-0.062031,0.056327,-9.999862,-0.774766,0.350834,2.019429
5.3200,0.171274,0.003355,0.479818,0.999995,0.000828,0.000191,0.000000,-0.900000,1.300000,-0.600000,0.000000,0.000000,-0.011651,-0.061454,0.055795,-9.999858,0.052082,0.027042,2.019423
5.3400,0.171269,0.003382,0.479856,0.999995,0.000385,0.000102,0.000000,-0.900000,1.300000,-0.600000,0.000000,0.000000,-0.011603,-0.061200,0.055561,-9.999856,0.107144,-0.001267,2.019419
5.3600,0.171266,0.003395,0.479875,0.999995,0.000183,0.000051,0.000000,-0.900000,1.300000,-0.600000,0.000000,0.000000,-0.011582,-0.061092,0.055461,-9.999856,0.067403,-0.002091,2.019417
5.3800,0.171264,0.003401,0.479884,0.999995,0.000088,0.000025,0.000000,-0.900000,1.300000,-0.600000,0.000000,0.000000,-0.011573,-0.061045,0.055417,-9.999855,0.035627,-0.001174,2.019416
5.4000,0.171263,0.003403,0.479888,0.999995,0.000043,0.000012,0.000000,-0.900000,1.300000,-0.600000,0.000000,0.000000,-0.011569,-0.061023,0.055397,-9.999855,0.017878,-0.000591,2.019415
5.4200,0.171263,0.003405,0.479890,0.999995,0.000021,0.000006,0.000000,-0.900000,1.300000,-0.600000,0.000000,0.000000,-0.011567,-0.061013,0.055388,-9.999855,0.008819,-0.000291,2.019415
5.4400,0.171263,0.003405,0.479891,0.999995,0.000010,0.000003,0.000000,-0.900000,1.300000,-0.600000,0.000000,0.000000,-0.011566,-0.061008,0.055383,-9.999855,0.004327,-0.000143,2.019415
5.4600,0.171263,0.003406,0.479892,0.999995,0.000005,0.000001,0.000000,-0.900000,1.300000,-0.600000,0.000000,0.000000,-0.011565,-0.061006,0.055381,-9.999855,0.002120,-0.000070,2.019415
5.4800,0.171263,0.003406,0.479892,0.999995,0.000002,0.000001,0.000000,-0.900000,1.300000,-0.600000,0.000000,0.000000,-0.011565,-0.061005,0.055380,-9.999855,0.001039,-0.000034,2.019414
5.5000,0.171263,0.003406,0.479892,0.999995,0.000001,0.000000,0.000000,-0.900000,1.300000,-0.600000,0.000000,0.000000,-0.011565,-0.061004,0.055380,-9.999855,0.000509,-0.000017,2.019414
5.5200,0.171263,0.003406,0.479892,0.999995,0.000001,0.000000,0.000000,-0.900000,1.300000,-0.600000,0.000000,0.000000,-0.011565,-0.061004,0.055379,-9.999855,0.000249,-0.000008,2.019414
5.5400,0.171263,0.003406,0.479892,0.999995,0.000000,0.000000,0.000000,-0.900000,1.300000,-0.600000,0.000000,0.000000,-0.011565,-0.061004,0.055379,-9.999855,0.000122,-0.000004,2.019414
5.5600,0.171263,0.003406,0.479892,0.999995,0.000000,0.000000,0.000000,-0.900000,1.300000,-0.600000,0.000000,0.000000,-0.011565,-0.061004,0.055379,-9.999855,0.000060,-0.000002,2.019414
5.5800,0.171263,0.003406,0.479892,0.999995,0.000000,0.000000,0.000000,-0.900000,1.300000,-0.600000,0.000000,0.000000,-0.011565,-0.061004,0.055379,-9.999855,0.000029,-0.000001,2.019414
5.6000,0.171263,0.003406,0.479892,0.999995,0.000000,0.000000,0.000000,-0.900000,1.300000,-0.600000,0.000000,0.000000,-0.011565,-0.061004,0.055379,-9.999855,0.000014,-0.000000,2.019414
5.6200,0.171263,0.003406,0.479892,0.999995,0.000000,0.000000,0.000000,-0.900000,1.300000,-0.600000,0.000000,0.000000,-0.011565,-0.061004,0.055379,-9.999855,0.000007,-0.000000,2.019414
5.6400,0.171263,0.003406,0.479892,0.999995,0.000000,0.000000,0.000000,-0.900000,1.300000,-0.600000,0.000000,0.000000,-0.011565,-0.061004,0.055379,-9.999855,0.000003,-0.000000,2.019414
5.6600,0.171263,0.003406,0.479892,0.999995,0.000000,0.000000,0.000000,-0.900000,1.300000,-0.600000,0.000000,0.000000,-0.011565,-0.061004,0.055379,-9.999855,0.000002,-0.000000,2.019414
5.6800,0.171263,0.003406,0.479892,0.999995,0.000000,0.000000,0.000000,-0.900000,1.300000,-0.600000,0.000000,0.000000,-0.011565,-0.061004,0.055379,-9.999855,0.000001,-0.000000,2.019414
5.7000,0.171263,0.003406,0.479892,0.999995,0.000000,0.000000,0.000000,-0.900000,1.300000,-0.600000,0.000000,0.000000,-0.011565,-0.061004,0.055379,-9.999855,0.000000,-0.000000,2.019414
5.7200,0.171263,0.003406,0.479892,0.999995,0.000000,0.000000,0.000000,-0.900000,1.300000,-0.600000,0.000000,0.000000,-0.011565,-0.061004,0.055379,-9.999855,0.000000,-0.000000,2.019414
5.7400,0.171263,0.003406,0.479892,0.999995,0.000000,0.000000,0.000000,-0.900000,1.300000,-0.600000,0.000000,0.000000,-0.011565,-0.061004,0.055379,-9.999855,0.000000,-0.000000,2.019414
5.7600,0.171263,0.003406,0.479892,0.999995,0.000000,0.000000,0.000000,-0.900000,1.300000,-0.600000,0.000000,0.000000,-0.011565,-0.061004,0.055379,-9.999855,0.000000,-0.000000,2.019414
5.7800,0.171263,0.003406,0.479892,0.999995,0.000000,0.000000,0.000000,-0.900000,1.300000,-0.600000,0.000000,0.000000,-0.011565,-0.061004,0.055379,-9.999855,0.000000,-0.000000,2.019414
5.8000,0.171263,0.003406,0.479892,0.999995,0.000000,0.000000,0.000000,-0.900000,1.300000,-0.600000,0.000000,0.000000,-0.011565,-0.061004,0.055379,-9.999855,0.000000,-0.000000,2.019414
5.8200,0.171263,0.003406,0.479892,0.999995,0.000000,0.000000,0.000000,-0.900000,1.300000,-0.600000,0.000000,0.000000,-0.011565,-0.061004,0.055379,-9.999855,0.000000,-0.000000,2.019414
5.8400,0.171263,0.003406,0.479892,0.999995,0.000000,0.000000,0.000000,-0.900000,1.300000,-0.600000,0.000000,0.000000,-0.011565,-0.061004,0.055379,-9.999855,0.000000,-0.000000,2.019414
5.8600,0.171263,0.003406,0.479892,0.999995,0.000000,0.000000,0.000000,-0.900000,1.300000,-0.600000,0.000000,0.000000,-0.011565,-0.061004,0.055379,-9.999855,0.000000,-0.000000,2.019414
5.8800,0.171263,0.003406,0.479892,0.999995,0.000000,0.000000,0.000000,-0.900000,1.300000,-0.600000,0.000000,0.000000,-0.011565,-0.061004,0.055379,-9.999855,0.000000,-0.000000,2.019414
5.9000,0.171263,0.003406,0.479892,0.999995,0.000000,0.000000,0.000000,-0.900000,1.300000,-0.600000,0.000000,0.000000,-0.011565,-0.061004,0.055379,-9.999855,0.000000,-0.000000,2.019414
5.9200,0.171263,0.003406,0.479892,0.999995,0.000000,0.000000,0.000000,-0.900000,1.300000,-0.600000,0.000000,0.000000,-0.011565,-0.061004,0.055379,-9.999855,0.000000,-0.000000,2.019414
5.9400,0.171263,0.003406,0.479892,0.999995,0.000000,0.000000,0.000000,-0.900000,1.300000,-0.600000,0.000000,0.000000,-0.011565,-0.061004,0.055379,-9.999855,0.000000,-0.000000,2.019414
5.9600,0.171263,0.003406,0.479892,0.999995,0.000000,0.000000,0.000000,-0.900000,1.300000,-0.600000,0.000000,0.000000,-0.011565,-0.061004,0.055379,-9.999855,0.000000,-0.000000,2.019414
5.9800,0.171263,0.003406,0.479892,0.999995,0.000000,0.000000,0.000000,-0.900000,1.300000,-0.600000,0.000000,0.000000,-0.011565,-0.061004,0.055379,-9.999855,0.000000,-0.000000,2.019414
6.0000,0.171263,0.003406,0.479892,0.999995,0.000000,0.000000,0.000000,-0.900000,1.300000,-0.600000,0.000000,0.000000,-0.011565,-0.061004,0.055379,-9.999855,0.000000,-0.000000,2.019414
6.0200,0.171263,0.003406,0.479892,0.999995,0.000000,0.000000,0.010000,-0.899000,1.299000,-0.599000,0.000000,0.000000,-0.010892,-0.060949,0.055323,-9.999855,0.000000,-0.000000,2.016945
6.0400,0.171263,0.003406,0.479892,0.999995,0.000000,0.000000,0.020000,-0.898000,1.298000,-0.598000,0.000000,0.000000,-0.010219,-0.060895,0.055268,-9.999855,0.000000,-0.000000,2.014523
6.0600,0.171263,0.003406,0.479892,0.999995,0.000000,0.000000,0.030000,-0.897000,1.297000,-0.597000,0.000000,0.000000,-0.009545,-0.060840,0.055212,-9.999855,0.000000,-0.000000,2.012149
6.0800,0.171263,0.003406,0.479892,0.999995,0.000000,0.000000,0.040000,-0.896000,1.296000,-0.596000,0.000000,0.000000,-0.008871,-0.060785,0.055156,-9.999855,0.000000,-0.000000,2.009824
6.1000,0.171263,0.003406,0.479892,0.999995,0.000000,0.000000,0.050000,-0.895000,1.295000,-0.595000,0.000000,0.000000,-0.008197,-0.060731,0.055100,-9.999855,0.000000,-0.000000,2.007548
6.1200,0.171263,0.003406,0.479892,0.999995,0.000000,0.000000,0.060000,-0.894000,1.294000,-0.594000,0.000000,0.000000,-0.007523,-0.060676,0.055044,-9.999856,0.000000,-0.000000,2.005320
6.1400,0.171263,0.003406,0.479892,0.999995,0.000000,0.000000,0.070000,-0.893000,1.293000,-0.593000,0.000000,0.000000,-0.006848,-0.060621,0.054988,-9.999856,0.000000,-0.000000,2.003141
6.1600,0.171263,0.003406,0.479892,0.999995,0.000000,0.000000,0.080000,-0.892000,1.292000,-0.592000,0.000000,0.000000,-0.006173,-0.060567,0.054932,-9.999856,0.000000,0.000000,2.001012
6.1800,0.171263,0.003406,0.479892,0.999995,0.000000,0.000000,0.090000,-0.891000,1.291000,-0.591000,0.000000,0.000000,-0.005498,-0.060512,0.054876,-9.999856,0.000000,0.000000,1.998932
6.2000,0.171263,0.003406,0.479892,0.999995,0.000000,0.000000,0.100000,-0.890000,1.290000,-0.590000,0.000000,0.000000,-0.004822,-0.060457,0.054820,-9.999856,0.000000,0.000000,1.996901
6.2200,0.171263,0.003406,0.479892,0.999995,0.000000,0.000000,0.110000,-0.889000,1.289000,-0.589000,0.000000,0.000000,-0.004147,-0.060402,0.054764,-9.999856,0.000000,-0.000000,1.994919
6.2400,0.171263,0.003406,0.479892,0.999995,0.000000,0.000000,0.120000,-0.888000,1.288000,-0.588000,0.000000,0.000000,-0.003470,-0.060347,0.054708,-9.999856,0.000000,0.000000,1.992988
6.2600,0.171263,0.003406,0.479892,0.999995,0.000000,0.000000,0.130000,-0.887000,1.287000,-0.587000,0.000000,0.000000,-0.002794,-0.060292,0.054652,-9.999856,-0.000000,-0.000000,1.991106
6.2800,0.171263,0.003406,0.479892,0.999995,0.000000,0.000000,0.140000,-0.886000,1.286000,-0.586000,0.000000,0.000000,-0.002117,-0.060238,0.054596,-9.999856,0.000000,-0.000000,1.989274
6.3000,0.171263,0.003406,0.479892,0.999995,0.000000,0.000000,0.150000,-0.885000,1.285000,-0.585000,0.000000,0.000000,-0.001440,-0.060183,0.054540,-9.999856,0.000000,-0.000000,1.987492
6.3200,0.171263,0.003406,0.479892,0.999995,0.000000,0.000000,0.160000,-0.884000,1.284000,-0.584000,0.000000,0.000000,-0.000763,-0.060128,0.054484,-9.999856,-0.000000,0.000000,1.985761
6.3400,0.171263,0.003406,0.479892,0.999995,0.000000,0.000000,0.170000,-0.883000,1.283000,-0.583000,0.000000,0.000000,-0.000086,-0.060073,0.054427,-9.999857,0.000000,0.000000,1.984080
6.3600,0.171263,0.003406,0.479892,0.999995,0.000000,0.000000,0.180000,-0.882000,1.282000,-0.582000,0.000000,0.000000,0.000592,-0.060018,0.054371,-9.999857,0.000000,-0.000000,1.982449
6.3800,0.171263,0.003406,0.479892,0.999995,0.000000,-0.000000,0.190000,-0.881000,1.281000,-0.581000,0.000000,0.000000,0.001270,-0.059963,0.054315,-9.999857,0.000000,-0.000000,1.980870
6.4000,0.171263,0.003406,0.479892,0.999995,0.000000,-0.000000,0.200000,-0.880000,1.280000,-0.580000,0.000000,0.000000,0.001949,-0.059907,0.054259,-9.999857,-0.000000,0.000000,1.979341
6.4200,0.171263,0.003406,0.479892,0.999995,0.000000,0.000000,0.210000,-0.879000,1.279000,-0.579000,0.000000,0.000000,0.002628,-0.059852,0.054202,-9.999857,-0.000000,-0.000000,1.977862
6.4400,0.171263,0.003406,0.479892,0.999995,0.000000,-0.000000,0.220000,-0.878000,1.278000,-0.578000,0.000000,0.000000,0.003306,-0.059797,0.054146,-9.999857,-0.000000,0.000000,1.976435
6.4600,0.171263,0.003406,0.479892,0.999995,0.000000,-0.000000,0.230000,-0.877000,1.277000,-0.577000,0.000000,0.000000,0.003986,-0.059742,0.054090,-9.999857,-0.000000,-0.000000,1.975059
6.4800,0.171263,0.003406,0.479892,0.999995,0.000000,-0.000000,0.240000,-0.876000,1.276000,-0.576000,0.000000,0.000000,0.004665,-0.059687,0.054033,-9.999857,0.000000,-0.000000,1.973735
6.5000,0.171263,0.003406,0.479892,0.999995,0.000000,-0.000000,0.250000,-0.875000,1.275000,-0.575000,0.000000,0.000000,0.005345,-0.059632,0.053977,-9.999857,0.000000,-0.000000,1.972461
6.5200,0.171263,0.003406,0.479892,0.999995,0.000000,-0.000000,0.260000,-0.874000,1.274000,-0.574000,0.000000,0.000000,0.006025,-0.059576,0.053920,-9.999857,0.000000,0.000000,1.971239
6.5400,0.171263,0.003406,0.479892,0.999995,0.000000,-0.000000,0.270000,-0.873000,1.273000,-0.573000,0.000000,0.000000,0.006706,-0.059521,0.053864,-9.999857,-0.000000,0.000000,1.970069
6.5600,0.171263,0.003406,0.479892,0.999995,0.000000,-0.000000,0.280000,-0.872000,1.272000,-0.572000,0.000000,0.000000,0.007386,-0.059466,0.053807,-9.999858,-0.000000,0.000000,1.968950
6.5800,0.171263,0.003406,0.479892,0.999995,0.000000,-0.000000,0.290000,-0.871000,1.271000,-0.571000,0.000000,0.000000,0.008067,-0.059410,0.053751,-9.999858,-0.000000,0.000000,1.967883
6.6000,0.171263,0.003406,0.479892,0.999995,0.000000,-0.000000,0.300000,-0.870000,1.270000,-0.570000,0.000000,0.000000,0.008749,-0.059355,0.053694,-9.999858,-0.000000,0.000000,1.966867
6.6200,0.171263,0.003406,0.479892,0.999995,0.000000,-0.000000,0.310000,-0.869000,1.269000,-0.569000,0.000000,0.000000,0.009430,-0.059300,0.053638,-9.999858,0.000000,-0.000000,1.965904
6.6400,0.171263,0.003406,0.479892,0.999995,0.000000,-0.000000,0.320000,-0.868000,1.268000,-0.568000,0.000000,0.000000,0.010112,-0.059244,0.053581,-9.999858,0.000000,0.000000,1.964992
6.6600,0.171263,0.003406,0.479892,0.999995,0.000000,-0.000000,0.330000,-0.867000,1.267000,-0.567000,0.000000,0.000000,0.010794,-0.059189,0.053524,-9.999858,0.000000,-0.000000,1.964133
6.6800,0.171263,0.003406,0.479892,0.999995,0.000000,-0.000000,0.340000,-0.866000,1.266000,-0.566000,0.000000,0.000000,0.011477,-0.059133,0.053468,-9.999858,0.000000,0.000000,1.963325
6.7000,0.171263,0.003406,0.479892,0.999995,0.000000,-0.000000,0.350000,-0.865000,1.265000,-0.565000,0.000000,0.000000,0.012160,-0.059078,0.053411,-9.999858,-0.000000,0.000000,1.962570
6.7200,0.171263,0.003406,0.479892,0.999995,0.000000,-0.000000,0.360000,-0.864000,1.264000,-0.564000,0.000000,0.000000,0.012843,-0.059022,0.053354,-9.999858,-0.000000,0.000000,1.961867
6.7400,0.171263,0.003406,0.479892,0.999995,0.000000,-0.000000,0.370000,-0.863000,1.263000,-0.563000,0.000000,0.000000,0.013526,-0.058967,0.053297,-9.999858,0.000000,-0.000000,1.961216
6.7600,0.171263,0.003406,0.479892,0.999995,0.000000,-0.000000,0.380000,-0.862000,1.262000,-0.562000,0.000000,0.000000,0.014209,-0.058911,0.053241,-9.999858,0.000000,0.000000,1.960617
6.7800,0.171263,0.003406,0.479892,0.999995,0.000000,-0.000000,0.390000,-0.861000,1.261000,-0.561000,0.000000,0.000000,0.014893,-0.058855,0.053184,-9.999859,0.000000,-0.000000,1.960071
6.8000,0.171263,0.003406,0.479892,0.999995,0.000000,-0.000000,0.400000,-0.860000,1.260000,-0.560000,0.000000,0.000000,0.015578,-0.058800,0.053127,-9.999859,0.000000,-0.000000,1.959577
6.8200,0.171263,0.003406,0.479892,0.999995,0.000000,-0.000000,0.410000,-0.859000,1.259000,-0.559000,0.000000,0.000000,0.016262,-0.058744,0.053070,-9.999859,0.000000,-0.000000,1.959136
6.8400,0.171263,0.003406,0.479892,0.999995,0.000000,-0.000000,0.420000,-0.858000,1.258000,-0.558000,0.000000,0.000000,0.016947,-0.058688,0.053013,-9.999859,0.000000,-0.000000,1.958747
6.8600,0.171263,0.003406,0.479892,0.999995,0.000000,-0.000000,0.430000,-0.857000,1.257000,-0.557000,0.000000,0.000000,0.017632,-0.058633,0.052956,-9.999859,-0.000000,0.000000,1.958411
6.8800,0.171263,0.003406,0.479892,0.999995,0.000000,-0.000000,0.440000,-0.856000,1.256000,-0.556000,0.000000,0.000000,0.018317,-0.058577,0.052899,-9.999859,0.000000,0.000000,1.958127
6.9000,0.171263,0.003406,0.479892,0.999995,0.000000,-0.000000,0.450000,-0.855000,1.255000,-0.555000,0.000000,0.000000,0.019003,-0.058521,0.052842,-9.999859,0.000000,-0.000000,1.957896
6.9200,0.171263,0.003406,0.479892,0.999995,0.000000,-0.000000,0.460000,-0.854000,1.254000,-0.554000,0.000000,0.000000,0.019689,-0.058465,0.052785,-9.999859,-0.000000,-0.000000,1.957718
6.9400,0.171263,0.003406,0.479892,0.999995,0.000000,-0.000000,0.470000,-0.853000,1.253000,-0.553000,0.000000,0.000000,0.020375,-0.058409,0.052728,-9.999859,0.000000,-0.000000,1.957592
6.9600,0.171263,0.003406,0.479892,0.999995,0.000000,-0.000000,0.480000,-0.852000,1.252000,-0.552000,0.000000,0.000000,0.021061,-0.058354,0.052671,-9.999859,0.000000,-0.000000,1.957518
6.9800,0.171263,0.003406,0.479892,0.999995,0.000000,-0.000000,0.490000,-0.851000,1.251000,-0.551000,0.000000,0.000000,0.021748,-0.058298,0.052614,-9.999859,0.000000,-0.000000,1.957498
7.0000,0.171263,0.003406,0.479892,0.999995,0.000000,-0.000000,0.500000,-0.850000,1.250000,-0.550000,0.000000,0.000000,0.022435,-0.058242,0.052557,-9.999860,0.000000,0.000000,1.957529
7.0200,0.171263,0.003406,0.479892,0.999995,0.000000,-0.000000,0.510000,-0.849000,1.249000,-0.549000,0.000000,0.000000,0.023122,-0.058186,0.052500,-9.999860,0.000000,0.000000,1.957614
7.0400,0.171263,0.003406,0.479892,0.999995,0.000000,-0.000000,0.520000,-0.848000,1.248000,-0.548000,0.000000,0.000000,0.023810,-0.058130,0.052443,-9.999860,0.000000,-0.000000,1.957751
7.0600,0.171263,0.003406,0.479892,0.999995,0.000000,-0.000000,0.530000,-0.847000,1.247000,-0.547000,0.000000,0.000000,0.024498,-0.058074,0.052385,-9.999860,-0.000000,-0.000000,1.957941
7.0800,0.171263,0.003406,0.479892,0.999995,0.000000,-0.000000,0.540000,-0.846000,1.246000,-0.546000,0.000000,0.000000,0.025186,-0.058018,0.052328,-9.999860,-0.000000,-0.000000,1.958183
7.1000,0.171263,0.003406,0.479892,0.999995,0.000000,-0.000000,0.550000,-0.845000,1.245000,-0.545000,0.000000,0.000000,0.025875,-0.057962,0.052271,-9.999860,-0.000000,-0.000000,1.958478
7.1200,0.171263,0.003406,0.479892,0.999995,0.000000,-0.000000,0.560000,-0.844000,1.244000,-0.544000,0.000000,0.000000,0.026564,-0.057906,0.052214,-9.999860,-0.000000,0.000000,1.958825
7.1400,0.171263,0.003406,0.479892,0.999995,0.000000,-0.000000,0.570000,-0.843000,1.243000,-0.543000,0.000000,0.000000,0.027253,-0.057850,0.052156,-9.999860,0.000000,0.000000,1.959225
7.1600,0.171263,0.003406,0.479892,0.999995,0.000000,-0.000000,0.580000,-0.842000,1.242000,-0.542000,0.000000,0.000000,0.027942,-0.057793,0.052099,-9.999860,0.000000,-0.000000,1.959677
7.1800,0.171263,0.003406,0.479892,0.999995,0.000000,-0.000000,0.590000,-0.841000,1.241000,-0.541000,0.000000,0.000000,0.028632,-0.057737,0.052042,-9.999860,0.000000,-0.000000,1.960182
7.2000,0.171263,0.003406,0.479892,0.999995,0.000000,-0.000000,0.600000,-0.840000,1.240000,-0.540000,0.000000,0.000000,0.029322,-0.057681,0.051984,-9.999860,-0.000000,-0.000000,1.960739
7.2200,0.171263,0.003406,0.479892,0.999995,0.000000,-0.000000,0.610000,-0.839000,1.239000,-0.539000,0.000000,0.000000,0.030012,-0.057625,0.051927,-9.999860,-0.000000,-0.000000,1.961349
7.2400,0.171263,0.003406,0.479892,0.999995,0.000000,-0.000000,0.620000,-0.838000,1.238000,-0.538000,0.000000,0.000000,0.030702,-0.057568,0.051869,-9.999861,0.000000,0.000000,1.962011
7.2600,0.171263,0.003406,0.479892,0.999995,0.000000,-0.000000,0.630000,-0.837000,1.237000,-0.537000,0.000000,0.000000,0.031393,-0.057512,0.051812,-9.999861,0.000000,-0.000000,1.962725
7.2800,0.171263,0.003406,0.479892,0.999995,0.000000,-0.000000,0.640000,-0.836000,1.236000,-0.536000,0.000000,0.000000,0.032084,-0.057456,0.051754,-9.999861,-0.000000,-0.000000,1.963491
7.3000,0.171263,0.003406,0.479892,0.999995,0.000000,-0.000000,0.650000,-0.835000,1.235000,-0.535000,0.000000,0.000000,0.032776,-0.057399,0.051697,-9.999861,0.000000,-0.000000,1.964310
7.3200,0.171263,0.003406,0.479892,0.999995,0.000000,-0.000000,0.660000,-0.834000,1.234000,-0.534000,0.000000,0.000000,0.033467,-0.057343,0.051639,-9.999861,0.000000,0.000000,1.965180
7.3400,0.171263,0.003406,0.479892,0.999995,0.000000,-0.000000,0.670000,-0.833000,1.233000,-0.533000,0.000000,0.000000,0.034159,-0.057287,0.051581,-9.999861,0.000000,0.000000,1.966103
7.3600,0.171263,0.003406,0.479892,0.999995,0.000000,-0.000000,0.680000,-0.832000,1.232000,-0.532000,0.000000,0.000000,0.034852,-0.057230,0.051524,-9.999861,0.000000,-0.000000,1.967077
7.3800,0.171263,0.003406,0.479892,0.999995,0.000000,-0.000000,0.690000,-0.831000,1.231000,-0.531000,0.000000,0.000000,0.035544,-0.057174,0.051466,-9.999861,-0.000000,0.000000,1.968103
7.4000,0.171263,0.003406,0.479892,0.999995,0.000000,-0.000000,0.700000,-0.830000,1.230000,-0.530000,0.000000,0.000000,0.036237,-0.057117,0.051408,-9.999861,0.000000,0.000000,1.969182
7.4200,0.171263,0.003406,0.479892,0.999995,0.000000,-0.000000,0.710000,-0.829000,1.229000,-0.529000,0.000000,0.000000,0.036930,-0.057061,0.051351,-9.999861,-0.000000,0.000000,1.970311
7.4400,0.171263,0.003406,0.479892,0.999995,0.000000,-0.000000,0.720000,-0.828000,1.228000,-0.528000,0.000000,0.000000,0.037623,-0.057004,0.051293,-9.999861,0.000000,-0.000000,1.971493
7.4600,0.171263,0.003406,0.479892,0.999995,0.000000,-0.000000,0.730000,-0.827000,1.227000,-0.527000,0.000000,0.000000,0.038317,-0.056948,0.051235,-9.999862,-0.000000,-0.000000,1.972726
7.4800,0.171263,0.003406,0.479892,0.999995,0.000000,-0.000000,0.740000,-0.826000,1.226000,-0.526000,0.000000,0.000000,0.039011,-0.056891,0.051177,-9.999862,-0.000000,-0.000000,1.974010
7.5000,0.171263,0.003406,0.479892,0.999995,0.000000,-0.000000,0.750000,-0.825000,1.225000,-0.525000,0.000000,0.000000,0.039705,-0.056834,0.051120,-9.999862,0.000000,-0.000000,1.975345
7.5200,0.171263,0.003406,0.479892,0.999995,0.000000,-0.000000,0.760000,-0.824000,1.224000,-0.524000,0.000000,0.000000,0.040400,-0.056778,0.051062,-9.999862,-0.000000,-0.000000,1.976732
7.5400,0.171263,0.003406,0.479892,0.999995,0.000000,0.000000,0.770000,-0.823000,1.223000,-0.523000,0.000000,0.000000,0.041095,-0.056721,0.051004,-9.999862,-0.000000,-0.000000,1.978170
7.5600,0.171263,0.003406,0.479892,0.999995,0.000000,0.000000,0.780000,-0.822000,1.222000,-0.522000,0.000000,0.000000,0.041790,-0.056664,0.050946,-9.999862,-0.000000,-0.000000,1.979659
7.5800,0.171263,0.003406,0.479892,0.999995,0.000000,0.000000,0.790000,-0.821000,1.221000,-0.521000,0.000000,0.000000,0.042485,-0.056608,0.050888,-9.999862,0.000000,-0.000000,1.981199
7.6000,0.171263,0.003406,0.479892,0.999995,0.000000,-0.000000,0.800000,-0.820000,1.220000,-0.520000,0.000000,0.000000,0.043181,-0.056551,0.050830,-9.999862,0.000000,0.000000,1.982789
7.6200,0.171263,0.003406,0.479892,0.999995,0.000000,-0.000000,0.810000,-0.819000,1.219000,-0.519000,0.000000,0.000000,0.043877,-0.056494,0.050772,-9.999862,-0.000000,0.000000,1.984430
7.6400,0.171263,0.003406,0.479892,0.999995,0.000000,-0.000000,0.820000,-0.818000,1.218000,-0.518000,0.000000,0.000000,0.044573,-0.056437,0.050714,-9.999862,-0.000000,0.000000,1.986122
7.6600,0.171263,0.003406,0.479892,0.999995,0.000000,-0.000000,0.830000,-0.817000,1.217000,-0.517000,0.000000,0.000000,0.045270,-0.056380,0.050656,-9.999862,-0.000000,0.000000,1.987864
7.6800,0.171263,0.003406,0.479892,0.999995,0.000000,-0.000000,0.840000,-0.816000,1.216000,-0.516000,0.000000,0.000000,0.045967,-0.056323,0.050598,-9.999863,-0.000000,0.000000,1.989656
7.7000,0.171263,0.003406,0.479892,0.999995,0.000000,-0.000000,0.850000,-0.815000,1.215000,-0.515000,0.000000,0.000000,0.046664,-0.056266,0.050540,-9.999863,0.000000,0.000000,1.991499
7.7200,0.171263,0.003406,0.479892,0.999995,0.000000,-0.000000,0.860000,-0.814000,1.214000,-0.514000,0.000000,0.000000,0.047362,-0.056210,0.050481,-9.999863,-0.000000,0.000000,1.993391
7.7400,0.171263,0.003406,0.479892,0.999995,0.000000,-0.000000,0.870000,-0.813000,1.213000,-0.513000,0.000000,0.000000,0.048059,-0.056153,0.050423,-9.999863,-0.000000,0.000000,1.995333
7.7600,0.171263,0.003406,0.479892,0.999995,0.000000,-0.000000,0.880000,-0.812000,1.212000,-0.512000,0.000000,0.000000,0.048757,-0.056096,0.050365,-9.999863,0.000000,0.000000,1.997325
7.7800,0.171263,0.003406,0.479892,0.999995,0.000000,0.000000,0.890000,-0.811000,1.211000,-0.511000,0.000000,0.000000,0.049456,-0.056039,0.050307,-9.999863,-0.000000,0.000000,1.999366
7.8000,0.171263,0.003406,0.479892,0.999995,0.000000,0.000000,0.900000,-0.810000,1.210000,-0.510000,0.000000,0.000000,0.050154,-0.055981,0.050249,-9.999863,0.000000,0.000000,2.001457
7.8200,0.171263,0.003406,0.479892,0.999995,0.000000,-0.000000,0.910000,-0.809000,1.209000,-0.509000,0.000000,0.000000,0.050853,-0.055924,0.050190,-9.999863,-0.000000,-0.000000,2.003597
7.8400,0.171263,0.003406,0.479892,0.999995,0.000000,0.000000,0.920000,-0.808000,1.208000,-0.508000,0.000000,0.000000,0.051552,-0.055867,0.050132,-9.999863,-0.000000,-0.000000,2.005786
7.8600,0.171263,0.003406,0.479892,0.999995,0.000000,0.000000,0.930000,-0.807000,1.207000,-0.507000,0.000000,0.000000,0.052252,-0.055810,0.050074,-9.999863,-0.000000,-0.000000,2.008024
7.8800,0.171263,0.003406,0.479892,0.999995,0.000000,-0.000000,0.940000,-0.806000,1.206000,-0.506000,0.000000,0.000000,0.052952,-0.055753,0.050015,-9.999863,-0.000000,-0.000000,2.010311
7.9000,0.171263,0.003406,0.479892,0.999995,0.000000,0.000000,0.950000,-0.805000,1.205000,-0.505000,0.000000,0.000000,0.053652,-0.055696,0.049957,-9.999864,-0.000000,-0.000000,2.012646
7.9200,0.171263,0.003406,0.479892,0.999995,0.000000,0.000000,0.960000,-0.804000,1.204000,-0.504000,0.000000,0.000000,0.054352,-0.055638,0.049898,-9.999864,0.000000,-0.000000,2.015030
7.9400,0.171263,0.003406,0.479892,0.999995,0.000000,0.000000,0.970000,-0.803000,1.203000,-0.503000,0.000000,0.000000,0.055053,-0.055581,0.049840,-9.999864,-0.000000,-0.000000,2.017462
7.9600,0.171263,0.003406,0.479892,0.999995,0.000000,0.000000,0.980000,-0.802000,1.202000,-0.502000,0.000000,0.000000,0.055754,-0.055524,0.049781,-9.999864,-0.000000,0.000000,2.019942
7.9800,0.171263,0.003406,0.479892,0.999995,0.000000,0.000000,0.990000,-0.801000,1.201000,-0.501000,0.000000,0.000000,0.056455,-0.055467,0.049723,-9.999864,0.000000,0.000000,2.022470
8.0000,0.171263,0.003406,0.479892,0.999995,0.000000,0.000000,1.000000,-0.800000,1.200000,-0.500000,0.000000,0.000000,0.057156,-0.055409,0.049664,-9.999864,-0.000000,-0.000000,2.025045
8.0200,0.171263,0.003406,0.479892,0.999995,0.000000,0.000000,1.000000,-0.802000,1.202000,-0.501000,0.000000,0.000000,0.057144,-0.055536,0.049792,-9.999864,-0.000000,-0.000000,2.027292
8.0400,0.171263,0.003406,0.479892,0.999995,0.000000,0.000000,1.000000,-0.804000,1.204000,-0.502000,0.000000,0.000000,0.057132,-0.055662,0.049919,-9.999864,0.000000,0.000000,2.029540
8.0600,0.171263,0.003406,0.479892,0.999995,0.000000,-0.000000,1.000000,-0.806000,1.206000,-0.503000,0.000000,0.000000,0.057120,-0.055788,0.050047,-9.999864,0.000000,0.000000,2.031790
8.0800,0.171263,0.003406,0.479892,0.999995,0.000000,-0.000000,1.000000,-0.808000,1.208000,-0.504000,0.000000,0.000000,0.057108,-0.055914,0.050174,-9.999864,0.000000,-0.000000,2.034042
8.1000,0.171263,0.003406,0.479892,0.999995,0.000000,-0.000000,1.000000,-0.810000,1.210000,-0.505000,0.000000,0.000000,0.057096,-0.056040,0.050301,-9.999864,-0.000000,-0.000000,2.036296
8.1200,0.171263,0.003406,0.479892,0.999995,0.000000,-0.000000,1.000000,-0.812000,1.212000,-0.506000,0.000000,0.000000,0.057084,-0.056166,0.050429,-9.999863,0.000000,0.000000,2.038552
8.1400,0.171263,0.003406,0.479892,0.999995,0.000000,-0.000000,1.000000,-0.814000,1.214000,-0.507000,0.000000,0.000000,0.057073,-0.056292,0.050556,-9.999863,-0.000000,-0.000000,2.040810
8.1600,0.171263,0.003406,0.479892,0.999995,0.000000,-0.000000,1.000000,-0.816000,1.216000,-0.508000,0.000000,0.000000,0.057061,-0.056418,0.050683,-9.999863,0.000000,0.000000,2.043070
8.1800,0.171263,0.003406,0.479892,0.999995,0.000000,-0.000000,1.000000,-0.818000,1.218000,-0.509000,0.000000,0.000000,0.057049,-0.056544,0.050810,-9.999863,0.000000,-0.000000,2.045332
8.2000,0.171263,0.003406,0.479892,0.999995,0.000000,-0.000000,1.000000,-0.820000,1.220000,-0.510000,0.000000,0.000000,0.057037,-0.056670,0.050937,-9.999863,0.000000,-0.000000,2.047596
8.2200,0.171263,0.003406,0.479892,0.999995,0.000000,-0.000000,1.000000,-0.822000,1.222000,-0.511000,0.000000,0.000000,0.057025,-0.056795,0.051064,-9.999863,-0.000000,-0.000000,2.049861
8.2400,0.171263,0.003406,0.479892,0.999995,0.000000,-0.000000,1.000000,-0.824000,1.224000,-0.512000,0.000000,0.000000,0.057013,-0.056921,0.051191,-9.999863,-0.000000,-0.000000,2.052129
8.2600,0.171263,0.003406,0.479892,0.999995,0.000000,-0.000000,1.000000,-0.826000,1.226000,-0.513000,0.000000,0.000000,0.057001,-0.057047,0.051317,-9.999863,-0.000000,-0.000000,2.054398
8.2800,0.171263,0.003406,0.479892,0.999995,0.000000,-0.000000,1.000000,-0.828000,1.228000,-0.514000,0.000000,0.000000,0.056989,-0.057172,0.051444,-9.999863,0.000000,0.000000,2.056669
8.3000,0.171263,0.003406,0.479892,0.999995,0.000000,-0.000000,1.000000,-0.830000,1.230000,-0.515000,0.000000,0.000000,0.056977,-0.057298,0.051571,-9.999863,0.000000,0.000000,2.058942
8.3200,0.171263,0.003406,0.479892,0.999995,0.000000,-0.000000,1.000000,-0.832000,1.232000,-0.516000,0.000000,0.000000,0.056965,-0.057423,0.051698,-9.999863,-0.000000,-0.000000,2.061217
8.3400,0.171263,0.003406,0.479892,0.999995,0.000000,-0.000000,1.000000,-0.834000,1.234000,-0.517000,0.000000,0.000000,0.056953,-0.057549,0.051824,-9.999862,-0.000000,-0.000000,2.063494
8.3600,0.171263,0.003406,0.479892,0.999995,0.000000,-0.000000,1.000000,-0.836000,1.236000,-0.518000,0.000000,0.000000,0.056941,-0.057674,0.051951,-9.999862,-0.000000,-0.000000,2.065773
8.3800,0.171263,0.003406,0.479892,0.999995,0.000000,-0.000000,1.000000,-0.838000,1.238000,-0.519000,0.000000,0.000000,0.056929,-0.057799,0.052077,-9.999862,0.000000,0.000000,2.068053
8.4000,0.171263,0.003406,0.479892,0.999995,0.000000,-0.000000,1.000000,-0.840000,1.240000,-0.520000,0.000000,0.000000,0.056917,-0.057924,0.052204,-9.999862,-0.000000,-0.000000,2.070335
8.4200,0.171263,0.003406,0.479892,0.999995,0.000000,-0.000000,1.000000,-0.842000,1.242000,-0.521000,0.000000,0.000000,0.056905,-0.058050,0.052330,-9.999862,-0.000000,0.000000,2.072620
8.4400,0.171263,0.003406,0.479892,0.999995,0.000000,-0.000000,1.000000,-0.844000,1.244000,-0.522000,0.000000,0.000000,0.056893,-0.058175,0.052456,-9.999862,0.000000,-0.000000,2.074906
8.4600,0.171263,0.003406,0.479892,0.999995,0.000000,0.000000,1.000000,-0.846000,1.246000,-0.523000,0.000000,0.000000,0.056881,-0.058300,0.052582,-9.999862,-0.000000,0.000000,2.077193
8.4800,0.171263,0.003406,0.479892,0.999995,0.000000,0.000000,1.000000,-0.848000,1.248000,-0.524000,0.000000,0.000000,0.056869,-0.058425,0.052709,-9.999862,0.000000,-0.000000,2.079483
8.5000,0.171263,0.003406,0.479892,0.999995,0.000000,0.000000,1.000000,-0.850000,1.250000,-0.525000,0.000000,0.000000,0.056857,-0.058550,0.052835,-9.999862,0.000000,0.000000,2.081774
8.5200,0.171263,0.003406,0.479892,0.999995,0.000000,0.000000,1.000000,-0.852000,1.252000,-0.526000,0.000000,0.000000,0.056845,-0.058674,0.052961,-9.999862,0.000000,-0.000000,2.084067
8.5400,0.171263,0.003406,0.479892,0.999995,0.000000,0.000000,1.000000,-0.854000,1.254000,-0.527000,0.000000,0.000000,0.056833,-0.058799,0.053087,-9.999862,0.000000,-0.000000,2.086362
8.5600,0.171263,0.003406,0.479892,0.999995,0.000000,0.000000,1.000000,-0.856000,1.256000,-0.528000,0.000000,0.000000,0.056821,-0.058924,0.053213,-9.999861,0.000000,-0.000000,2.088659
8.5800,0.171263,0.003406,0.479892,0.999995,0.000000,0.000000,1.000000,-0.858000,1.258000,-0.529000,0.000000,0.000000,0.056809,-0.059049,0.053339,-9.999861,0.000000,-0.000000,2.090958
8.6000,0.171263,0.003406,0.479892,0.999995,0.000000,-0.000000,1.000000,-0.860000,1.260000,-0.530000,0.000000,0.000000,0.056797,-0.059173,0.053465,-9.999861,-0.000000,-0.000000,2.093258
8.6200,0.171263,0.003406,0.479892,0.999995,0.000000,-0.000000,1.000000,-0.862000,1.262000,-0.531000,0.000000,0.000000,0.056785,-0.059298,0.053590,-9.999861,0.000000,-0.000000,2.095560
8.6400,0.171263,0.003406,0.479892,0.999995,0.000000,-0.000000,1.000000,-0.864000,1.264000,-0.532000,0.000000,0.000000,0.056773,-0.059422,0.053716,-9.999861,-0.000000,0.000000,2.097864
8.6600,0.171263,0.003406,0.479892,0.999995,0.000000,-0.000000,1.000000,-0.866000,1.266000,-0.533000,0.000000,0.000000,0.056761,-0.059547,0.053842,-9.999861,0.000000,-0.000000,2.100170
8.6800,0.171263,0.003406,0.479892,0.999995,0.000000,-0.000000,1.000000,-0.868000,1.268000,-0.534000,0.000000,0.000000,0.056750,-0.059671,0.053967,-9.999861,-0.000000,0.000000,2.102477
8.7000,0.171263,0.003406,0.479892,0.999995,0.000000,-0.000000,1.000000,-0.870000,1.270000,-0.535000,0.000000,0.000000,0.056738,-0.059796,0.054093,-9.999861,0.000000,-0.000000,2.104786
8.7200,0.171263,0.003406,0.479892,0.999995,0.000000,-0.000000,1.000000,-0.872000,1.272000,-0.536000,0.000000,0.000000,0.056726,-0.059920,0.054218,-9.999861,-0.000000,-0.000000,2.107097
8.7400,0.171263,0.003406,0.479892,0.999995,0.000000,-0.000000,1.000000,-0.874000,1.274000,-0.537000,0.000000,0.000000,0.056714,-0.060044,0.054344,-9.999861,-0.000000,-0.000000,2.109410
8.7600,0.171263,0.003406,0.479892,0.999995,0.000000,-0.000000,1.000000,-0.876000,1.276000,-0.538000,0.000000,0.000000,0.056702,-0.060168,0.054469,-9.999861,0.000000,-0.000000,2.111724
8.7800,0.171263,0.003406,0.479892,0.999995,0.000000,-0.000000,1.000000,-0.878000,1.278000,-0.539000,0.000000,0.000000,0.056690,-0.060293,0.054595,-9.999860,0.000000,-0.000000,2.114040
8.8000,0.171263,0.003406,0.479892,0.999995,0.000000,-0.000000,1.000000,-0.880000,1.280000,-0.540000,0.000000,0.000000,0.056678,-0.060417,0.054720,-9.999860,0.000000,0.000000,2.116358
8.8200,0.171263,0.003406,0.479892,0.999995,0.000000,-0.000000,1.000000,-0.882000,1.282000,-0.541000,0.000000,0.000000,0.056666,-0.060541,0.054845,-9.999860,0.000000,0.000000,2.118677
8.8400,0.171263,0.003406,0.479892,0.999995,0.000000,-0.000000,1.000000,-0.884000,1.284000,-0.542000,0.000000,0.000000,0.056654,-0.060665,0.054970,-9.999860,-0.000000,-0.000000,2.120998
8.8600,0.171263,0.003406,0.479892,0.999995,0.000000,-0.000000,1.000000,-0.886000,1.286000,-0.543000,0.000000,0.000000,0.056642,-0.060788,0.055095,-9.999860,0.000000,-0.000000,2.123321
8.8800,0.171263,0.003406,0.479892,0.999995,0.000000,-0.000000,1.000000,-0.888000,1.288000,-0.544000,0.000000,0.000000,0.056630,-0.060912,0.055220,-9.999860,0.000000,-0.000000,2.125646
8.9000,0.171263,0.003406,0.479892,0.999995,0.000000,-0.000000,1.000000,-0.890000,1.290000,-0.545000,0.000000,0.000000,0.056618,-0.061036,0.055345,-9.999860,0.000000,0.000000,2.127972
8.9200,0.171263,0.003406,0.479892,0.999995,0.000000,-0.000000,1.000000,-0.892000,1.292000,-0.546000,0.000000,0.000000,0.056606,-0.061160,0.055470,-9.999860,-0.000000,0.000000,2.130300
8.9400,0.171263,0.003406,0.479892,0.999995,0.000000,-0.000000,1.000000,-0.894000,1.294000,-0.547000,0.000000,0.000000,0.056594,-0.061283,0.055595,-9.999860,0.000000,-0.000000,2.132630
8.9600,0.171263,0.003406,0.479892,0.999995,0.000000,-0.000000,1.000000,-0.896000,1.296000,-0.548000,0.000000,0.000000,0.056582,-0.061407,0.055720,-9.999860,0.000000,-0.000000,2.134961
8.9800,0.171263,0.003406,0.479892,0.999995,0.000000,-0.000000,1.000000,-0.898000,1.298000,-0.549000,0.000000,0.000000,0.056570,-0.061531,0.055845,-9.999860,0.000000,-0.000000,2.137294
9.0000,0.171263,0.003406,0.479892,0.999995,0.000000,-0.000000,1.000000,-0.900000,1.300000,-0.550000,0.000000,0.000000,0.056558,-0.061654,0.055969,-9.999860,-0.000000,-0.000000,2.139628
9.0200,0.171263,0.003406,0.479892,0.999995,0.000000,-0.000000,1.000000,-0.902000,1.302000,-0.551000,0.000000,0.000000,0.056546,-0.061778,0.056094,-9.999859,0.000000,-0.000000,2.141965
9.0400,0.171263,0.003406,0.479892,0.999995,0.000000,-0.000000,1.000000,-0.904000,1.304000,-0.552000,0.000000,0.000000,0.056534,-0.061901,0.056219,-9.999859,-0.000000,-0.000000,2.144303
9.0600,0.171263,0.003406,0.479892,0.999995,0.000000,-0.000000,1.000000,-0.906000,1.306000,-0.553000,0.000000,0.000000,0.056522,-0.062024,0.056343,-9.999859,0.000000,-0.000000,2.146642
9.0800,0.171263,0.003406,0.479892,0.999995,0.000000,-0.000000,1.000000,-0.908000,1.308000,-0.554000,0.000000,0.000000,0.056510,-0.062148,0.056468,-9.999859,0.000000,-0.000000,2.148984
9.1000,0.171263,0.003406,0.479892,0.999995,0.000000,-0.000000,1.000000,-0.910000,1.310000,-0.555000,0.000000,0.000000,0.056499,-0.062271,0.056592,-9.999859,0.000000,-0.000000,2.151326
9.1200,0.171263,0.003406,0.479892,0.999995,0.000000,-0.000000,1.000000,-0.912000,1.312000,-0.556000,0.000000,0.000000,0.056487,-0.062394,0.056716,-9.999859,0.000000,0.000000,2.153671
9.1400,0.171263,0.003406,0.479892,0.999995,0.000000,-0.000000,1.000000,-0.914000,1.314000,-0.557000,0.000000,0.000000,0.056475,-0.062517,0.056841,-9.999859,-0.000000,-0.000000,2.156017
9.1600,0.171263,0.003406,0.479892,0.999995,0.000000,-0.000000,1.000000,-0.916000,1.316000,-0.558000,0.000000,0.000000,0.056463,-0.062640,0.056965,-9.999859,-0.000000,-0.000000,2.158365
9.1800,0.171263,0.003406,0.479892,0.999995,0.000000,-0.000000,1.000000,-0.918000,1.318000,-0.559000,0.000000,0.000000,0.056451,-0.062763,0.057089,-9.999859,-0.000000,-0.000000,2.160714
9.2000,0.171263,0.003406,0.479892,0.999995,0.000000,-0.000000,1.000000,-0.920000,1.320000,-0.560000,0.000000,0.000000,0.056439,-0.062886,0.057213,-9.999859,-0.000000,-0.000000,2.163065
9.2200,0.171263,0.003406,0.479892,0.999995,0.000000,0.000000,1.000000,-0.922000,1.322000,-0.561000,0.000000,0.000000,0.056427,-0.063009,0.057337,-9.999859,-0.000000,-0.000000,2.165418
9.2400,0.171263,0.003406,0.479892,0.999995,0.000000,0.000000,1.000000,-0.924000,1.324000,-0.562000,0.000000,0.000000,0.056415,-0.063132,0.057461,-9.999858,-0.000000,0.000000,2.167772
9.2600,0.171263,0.003406,0.479892,0.999995,0.000000,0.000000,1.000000,-0.926000,1.326000,-0.563000,0.000000,0.000000,0.056403,-0.063254,0.057585,-9.999858,0.000000,-0.000000,2.170128
9.2800,0.171263,0.003406,0.479892,0.999995,0.000000,-0.000000,1.000000,-0.928000,1.328000,-0.564000,0.000000,0.000000,0.056391,-0.063377,0.057709,-9.999858,-0.000000,0.000000,2.172485
9.3000,0.171263,0.003406,0.479892,0.999995,0.000000,-0.000000,1.000000,-0.930000,1.330000,-0.565000,0.000000,0.000000,0.056379,-0.063500,0.057833,-9.999858,-0.000000,-0.000000,2.174844
9.3200,0.171263,0.003406,0.479892,0.999995,0.000000,0.000000,1.000000,-0.932000,1.332000,-0.566000,0.000000,0.000000,0.056367,-0.063622,0.057957,-9.999858,-0.000000,-0.000000,2.177204
9.3400,0.171263,0.003406,0.479892,0.999995,0.000000,0.000000,1.000000,-0.934000,1.334000,-0.567000,0.000000,0.000000,0.056355,-0.063745,0.058080,-9.999858,-0.000000,0.000000,2.179566
9.3600,0.171263,0.003406,0.479892,0.999995,0.000000,-0.000000,1.000000,-0.936000,1.336000,-0.568000,0.000000,0.000000,0.056343,-0.063867,0.058204,-9.999858,0.000000,-0.000000,2.181930
9.3800,0.171263,0.003406,0.479892,0.999995,0.000000,-0.000000,1.000000,-0.938000,1.338000,-0.569000,0.000000,0.000000,0.056331,-0.063990,0.058328,-9.999858,0.000000,0.000000,2.184295
9.4000,0.171263,0.003406,0.479892,0.999995,0.000000,-0.000000,1.000000,-0.940000,1.340000,-0.570000,0.000000,0.000000,0.056319,-0.064112,0.058451,-9.999858,0.000000,-0.000000,2.186662
9.4200,0.171263,0.003406,0.479892,0.999995,0.000000,-0.000000,1.000000,-0.942000,1.342000,-0.571000,0.000000,0.000000,0.056307,-0.064234,0.058575,-9.999858,-0.000000,0.000000,2.189030
9.4400,0.171263,0.003406,0.479892,0.999995,0.000000,-0.000000,1.000000,-0.944000,1.344000,-0.572000,0.000000,0.000000,0.056296,-0.064357,0.058698,-9.999858,0.000000,0.000000,2.191400
9.4600,0.171263,0.003406,0.479892,0.999995,0.000000,-0.000000,1.000000,-0.946000,1.346000,-0.573000,0.000000,0.000000,0.056284,-0.064479,0.058822,-9.999857,-0.000000,0.000000,2.193772
9.4800,0.171263,0.003406,0.479892,0.999995,0.000000,-0.000000,1.000000,-0.948000,1.348000,-0.574000,0.000000,0.000000,0.056272,-0.064601,0.058945,-9.999857,0.000000,0.000000,2.196145
9.5000,0.171263,0.003406,0.479892,0.999995,0.000000,-0.000000,1.000000,-0.950000,1.350000,-0.575000,0.000000,0.000000,0.056260,-0.064723,0.059068,-9.999857,0.000000,-0.000000,2.198519
9.5200,0.171263,0.003406,0.479892,0.999995,0.000000,-0.000000,1.000000,-0.952000,1.352000,-0.576000,0.000000,0.000000,0.056248,-0.064845,0.059191,-9.999857,0.000000,-0.000000,2.200895
9.5400,0.171263,0.003406,0.479892,0.999995,0.000000,-0.000000,1.000000,-0.954000,1.354000,-0.577000,0.000000,0.000000,0.056236,-0.064967,0.059315,-9.999857,-0.000000,0.000000,2.203273
9.5600,0.171263,0.003406,0.479892,0.999995,0.000000,-0.000000,1.000000,-0.956000,1.356000,-0.578000,0.000000,0.000000,0.056224,-0.065089,0.059438,-9.999857,0.000000,0.000000,2.205652
9.5800,0.171263,0.003406,0.479892,0.999995,0.000000,-0.000000,1.000000,-0.958000,1.358000,-0.579000,0.000000,0.000000,0.056212,-0.065211,0.059561,-9.999857,-0.000000,0.000000,2.208032
9.6000,0.171263,0.003406,0.479892,0.999995,0.000000,-0.000000,1.000000,-0.960000,1.360000,-0.580000,0.000000,0.000000,0.056200,-0.065333,0.059684,-9.999857,-0.000000,-0.000000,2.210414
9.6200,0.171263,0.003406,0.479892,0.999995,0.000000,0.000000,1.000000,-0.962000,1.362000,-0.581000,0.000000,0.000000,0.056188,-0.065454,0.059807,-9.999857,-0.000000,-0.000000,2.212798
9.6400,0.171263,0.003406,0.479892,0.999995,0.000000,-0.000000,1.000000,-0.964000,1.364000,-0.582000,0.000000,0.000000,0.056176,-0.065576,0.059930,-9.999857,-0.000000,-0.000000,2.215183
9.6600,0.171263,0.003406,0.479892,0.999995,0.000000,0.000000,1.000000,-0.966000,1.366000,-0.583000,0.000000,0.000000,0.056164,-0.065698,0.060052,-9.999857,-0.000000,0.000000,2.217570
9.6800,0.171263,0.003406,0.479892,0.999995,0.000000,0.000000,1.000000,-0.968000,1.368000,-0.584000,0.000000,0.000000,0.056152,-0.065819,0.060175,-9.999856,-0.000000,-0.000000,2.219958
9.7000,0.171263,0.003406,0.479892,0.999995,0.000000,0.000000,1.000000,-0.970000,1.370000,-0.585000,0.000000,0.000000,0.056141,-0.065941,0.060298,-9.999856,-0.000000,-0.000000,2.222347
9.7200,0.171263,0.003406,0.479892,0.999995,0.000000,-0.000000,1.000000,-0.972000,1.372000,-0.586000,0.000000,0.000000,0.056129,-0.066062,0.060421,-9.999856,0.000000,-0.000000,2.224738
9.7400,0.171263,0.003406,0.479892,0.999995,0.000000,-0.000000,1.000000,-0.974000,1.374000,-0.587000,0.000000,0.000000,0.056117,-0.066184,0.060543,-9.999856,0.000000,-0.000000,2.227131
9.7600,0.171263,0.003406,0.479892,0.999995,0.000000,-0.000000,1.000000,-0.976000,1.376000,-0.588000,0.000000,0.000000,0.056105,-0.066305,0.060666,-9.999856,0.000000,-0.000000,2.229525
9.7800,0.171263,0.003406,0.479892,0.999995,0.000000,-0.000000,1.000000,-0.978000,1.378000,-0.589000,0.000000,0.000000,0.056093,-0.066426,0.060788,-9.999856,-0.000000,0.000000,2.231920
9.8000,0.171263,0.003406,0.479892,0.999995,0.000000,0.000000,1.000000,-0.980000,1.380000,-0.590000,0.000000,0.000000,0.056081,-0.066547,0.060911,-9.999856,-0.000000,-0.000000,2.234317
9.8200,0.171263,0.003406,0.479892,0.999995,0.000000,0.000000,1.000000,-0.982000,1.382000,-0.591000,0.000000,0.000000,0.056069,-0.066669,0.061033,-9.999856,0.000000,-0.000000,2.236715
9.8400,0.171263,0.003406,0.479892,0.999995,0.000000,0.000000,1.000000,-0.984000,1.384000,-0.592000,0.000000,0.000000,0.056057,-0.066790,0.061155,-9.999856,0.000000,0.000000,2.239115
9.8600,0.171263,0.003406,0.479892,0.999995,0.000000,0.000000,1.000000,-0.986000,1.386000,-0.593000,0.000000,0.000000,0.056045,-0.066911,0.061277,-9.999856,0.000000,-0.000000,2.241516
9.8800,0.171263,0.003406,0.479892,0.999995,0.000000,0.000000,1.000000,-0.988000,1.388000,-0.594000,0.000000,0.000000,0.056033,-0.067032,0.061400,-9.999856,-0.000000,0.000000,2.243919
9.9000,0.171263,0.003406,0.479892,0.999995,0.000000,0.000000,1.000000,-0.990000,1.390000,-0.595000,0.000000,0.000000,0.056021,-0.067153,0.061522,-9.999855,0.000000,-0.000000,2.246323
9.9200,0.171263,0.003406,0.479892,0.999995,0.000000,0.000000,1.000000,-0.992000,1.392000,-0.596000,0.000000,0.000000,0.056009,-0.067274,0.061644,-9.999855,-0.000000,-0.000000,2.248729
9.9400,0.171263,0.003406,0.479892,0.999995,0.000000,0.000000,1.000000,-0.994000,1.394000,-0.597000,0.000000,0.000000,0.055998,-0.067394,0.061766,-9.999855,0.000000,-0.000000,2.251136
9.9600,0.171263,0.003406,0.479892,0.999995,0.000000,-0.000000,1.000000,-0.996000,1.396000,-0.598000,0.000000,0.000000,0.055986,-0.067515,0.061888,-9.999855,0.000000,-0.000000,2.253544
9.9800,0.171263,0.003406,0.479892,0.999995,0.000000,-0.000000,1.000000,-0.998000,1.398000,-0.599000,0.000000,0.000000,0.055974,-0.067636,0.062010,-9.999855,0.000000,0.000000,2.255954
10.0000,0.171263,0.003406,0.479892,0.999995,0.000000,-0.000000,1.000000,-1.000000,1.400000,-0.600000,0.000000,0.000000,0.055962,-0.067757,0.062132,-9.999855,-0.000000,-0.000000,2.258365
10.0200,0.171263,0.003406,0.479892,0.999995,0.000000,-0.000000,1.000000,-1.000000,1.400000,-0.600000,0.000000,0.000000,0.055962,-0.067757,0.062132,-9.999855,0.000000,0.000000,2.258365
10.0400,0.171263,0.003406,0.479892,0.999995,0.000000,-0.000000,1.000000,-1.000000,1.400000,-0.600000,0.000000,0.000000,0.055962,-0.067757,0.062132,-9.999855,0.000000,0.000000,2.258365
10.0600,0.171263,0.003406,0.479892,0.999995,0.000000,0.000000,1.000000,-1.000000,1.400000,-0.600000,0.000000,0.000000,0.055962,-0.067757,0.062132,-9.999855,-0.000000,0.000000,2.258365
10.0800,0.171263,0.003406,0.479892,0.999995,0.000000,0.000000,1.000000,-1.000000,1.400000,-0.600000,0.000000,0.000000,0.055962,-0.067757,0.062132,-9.999855,-0.000000,-0.000000,2.258365
10.1000,0.171263,0.003406,0.479892,0.999995,0.000000,0.000000,1.000000,-1.000000,1.400000,-0.600000,0.000000,0.000000,0.055962,-0.067757,0.062132,-9.999855,0.000000,0.000000,2.258365
10.1200,0.171263,0.003406,0.479892,0.999995,0.000000,0.000000,1.000000,-1.000000,1.400000,-0.600000,0.000000,0.000000,0.055962,-0.067757,0.062132,-9.999855,0.000000,-0.000000,2.258365
10.1400,0.171263,0.003406,0.479892,0.999995,0.000000,0.000000,1.000000,-1.000000,1.400000,-0.600000,0.000000,0.000000,0.055962,-0.067757,0.062132,-9.999855,-0.000000,-0.000000,2.258365
10.1600,0.171263,0.003406,0.479892,0.999995,0.000000,0.000000,1.000000,-1.000000,1.400000,-0.600000,0.000000,0.000000,0.055962,-0.067757,0.062132,-9.999855,-0.000000,0.000000,2.258365
10.1800,0.171263,0.003406,0.479892,0.999995,0.000000,0.000000,1.000000,-1.000000,1.400000,-0.600000,0.000000,0.000000,0.055962,-0.067757,0.062132,-9.999855,0.000000,-0.000000,2.258365
10.2000,0.171263,0.003406,0.479892,0.999995,0.000000,0.000000,1.000000,-1.000000,1.400000,-0.600000,0.000000,0.000000,0.055962,-0.067757,0.062132,-9.999855,-0.000000,-0.000000,2.258365
10.2200,0.171263,0.003406,0.479892,0.999995,0.000000,0.000000,1.000000,-1.000000,1.400000,-0.600000,0.000000,0.000000,0.055962,-0.067757,0.062132,-9.999855,0.000000,-0.000000,2.258365
10.2400,0.171263,0.003406,0.479892,0.999995,0.000000,0.000000,1.000000,-1.000000,1.400000,-0.600000,0.000000,0.000000,0.055962,-0.067757,0.062132,-9.999855,-0.000000,0.000000,2.258365
10.2600,0.171263,0.003406,0.479892,0.999995,0.000000,-0.000000,1.000000,-1.000000,1.400000,-0.600000,0.000000,0.000000,0.055962,-0.067757,0.062132,-9.999855,-0.000000,-0.000000,2.258365
10.2800,0.171263,0.003406,0.479892,0.999995,0.000000,-0.000000,1.000000,-1.000000,1.400000,-0.600000,0.000000,0.000000,0.055962,-0.067757,0.062132,-9.999855,0.000000,0.000000,2.258365
10.3000,0.171263,0.003406,0.479892,0.999995,0.000000,-0.000000,1.000000,-1.000000,1.400000,-0.600000,0.000000,0.000000,0.055962,-0.067757,0.062132,-9.999855,0.000000,-0.000000,2.258365
10.3200,0.171263,0.003406,0.479892,0.999995,0.000000,-0.000000,1.000000,-1.000000,1.400000,-0.600000,0.000000,0.000000,0.055962,-0.067757,0.062132,-9.999855,-0.000000,-0.000000,2.258365
10.3400,0.171263,0.003406,0.479892,0.999995,0.000000,0.000000,1.000000,-1.000000,1.400000,-0.600000,0.000000,0.000000,0.055962,-0.067757,0.062132,-9.999855,0.000000,0.000000,2.258365
10.3600,0.171263,0.003406,0.479892,0.999995,0.000000,0.000000,1.000000,-1.000000,1.400000,-0.600000,0.000000,0.000000,0.055962,-0.067757,0.062132,-9.999855,0.000000,0.000000,2.258365
10.3800,0.171263,0.003406,0.479892,0.999995,0.000000,-0.000000,1.000000,-1.000000,1.400000,-0.600000,0.000000,0.000000,0.055962,-0.067757,0.062132,-9.999855,-0.000000,-0.000000,2.258365
10.4000,0.171263,0.003406,0.479892,0.999995,0.000000,0.000000,1.000000,-1.000000,1.400000,-0.600000,0.000000,0.000000,0.055962,-0.067757,0.062132,-9.999855,-0.000000,0.000000,2.258365
10.4200,0.171263,0.003406,0.479892,0.999995,0.000000,0.000000,1.000000,-1.000000,1.400000,-0.600000,0.000000,0.000000,0.055962,-0.067757,0.062132,-9.999855,0.000000,-0.000000,2.258365
10.4400,0.171263,0.003406,0.479892,0.999995,0.000000,-0.000000,1.000000,-1.000000,1.400000,-0.600000,0.000000,0.000000,0.055962,-0.067757,0.062132,-9.999855,0.000000,0.000000,2.258365
10.4600,0.171263,0.003406,0.479892,0.999995,0.000000,-0.000000,1.000000,-1.000000,1.400000,-0.600000,0.000000,0.000000,0.055962,-0.067757,0.062132,-9.999855,-0.000000,0.000000,2.258365
10.4800,0.171263,0.003406,0.479892,0.999995,0.000000,-0.000000,1.000000,-1.000000,1.400000,-0.600000,0.000000,0.000000,0.055962,-0.067757,0.062132,-9.999855,0.000000,0.000000,2.258365
10.5000,0.171263,0.003406,0.479892,0.999995,0.000000,-0.000000,1.000000,-1.000000,1.400000,-0.600000,0.000000,0.000000,0.055962,-0.067757,0.062132,-9.999855,0.000000,-0.000000,2.258365
10.5200,0.171263,0.003406,0.479892,0.999995,0.000000,-0.000000,1.000000,-1.000000,1.400000,-0.600000,0.000000,0.000000,0.055962,-0.067757,0.062132,-9.999855,-0.000000,0.000000,2.258365
10.5400,0.171263,0.003406,0.479892,0.999995,0.000000,-0.000000,1.000000,-1.000000,1.400000,-0.600000,0.000000,0.000000,0.055962,-0.067757,0.062132,-9.999855,0.000000,-0.000000,2.258365
10.5600,0.171263,0.003406,0.479892,0.999995,0.000000,-0.000000,1.000000,-1.000000,1.400000,-0.600000,0.000000,0.000000,0.055962,-0.067757,0.062132,-9.999855,-0.000000,0.000000,2.258365
10.5800,0.171263,0.003406,0.479892,0.999995,0.000000,-0.000000,1.000000,-1.000000,1.400000,-0.600000,0.000000,0.000000,0.055962,-0.067757,0.062132,-9.999855,0.000000,-0.000000,2.258365
10.6000,0.171263,0.003406,0.479892,0.999995,0.000000,-0.000000,1.000000,-1.000000,1.400000,-0.600000,0.000000,0.000000,0.055962,-0.067757,0.062132,-9.999855,-0.000000,0.000000,2.258365
10.6200,0.171263,0.003406,0.479892,0.999995,0.000000,-0.000000,1.000000,-1.000000,1.400000,-0.600000,0.000000,0.000000,0.055962,-0.067757,0.062132,-9.999855,0.000000,0.000000,2.258365
10.6400,0.171263,0.003406,0.479892,0.999995,0.000000,-0.000000,1.000000,-1.000000,1.400000,-0.600000,0.000000,0.000000,0.055962,-0.067757,0.062132,-9.999855,0.000000,0.000000,2.258365
10.6600,0.171263,0.003406,0.479892,0.999995,0.000000,-0.000000,1.000000,-1.000000,1.400000,-0.600000,0.000000,0.000000,0.055962,-0.067757,0.062132,-9.999855,0.000000,0.000000,2.258365
10.6800,0.171263,0.003406,0.479892,0.999995,0.000000,-0.000000,1.000000,-1.000000,1.400000,-0.600000,0.000000,0.000000,0.055962,-0.067757,0.062132,-9.999855,-0.000000,-0.000000,2.258365
10.7000,0.171263,0.003406,0.479892,0.999995,0.000000,-0.000000,1.000000,-1.000000,1.400000,-0.600000,0.000000,0.000000,0.055962,-0.067757,0.062132,-9.999855,0.000000,0.000000,2.258365
10.7200,0.171263,0.003406,0.479892,0.999995,0.000000,-0.000000,1.000000,-1.000000,1.400000,-0.600000,0.000000,0.000000,0.055962,-0.067757,0.062132,-9.999855,-0.000000,0.000000,2.258365
10.7400,0.171263,0.003406,0.479892,0.999995,0.000000,-0.000000,1.000000,-1.000000,1.400000,-0.600000,0.000000,0.000000,0.055962,-0.067757,0.062132,-9.999855,-0.000000,0.000000,2.258365
