alvinuday/Neuromorphic-Robot-Control/mjpc/arm_mpc_log.csv
t_sim,q1,q2,q3,q4,q5,q6,q7,q1_ref,q2_ref,q3_ref,q4_ref,q5_ref,q6_ref,q7_ref,tau1,tau2,tau3,tau4,tau5,tau6,tau7,gripper_cmd,tracking_error,ee_x,ee_y,ee_z
0.0000,0.000000,0.300000,0.000000,-1.570790,0.000000,2.000000,-0.785300,0.000000,0.300000,0.000000,-1.570790,0.000000,2.000000,-0.785300,0.000000,0.300000,0.000000,-1.570790,0.000000,2.000000,-0.785300,0.0400,0.000000,0.6778,0.0000,0.3783
0.3000,0.002822,0.293145,0.039947,-1.885071,-0.176338,2.310354,-1.372711,0.012220,0.237066,0.069419,-2.005767,-0.191526,2.343976,-1.427874,0.012220,0.237066,0.069419,-2.005767,-0.191526,2.343976,-1.427874,0.0400,0.151899,0.6521,0.0081,0.2702
0.6000,0.026514,0.229697,0.125606,-2.363772,-0.341347,2.595989,-1.918536,0.022188,0.191983,0.121464,-2.338040,-0.340229,2.609600,-1.917333,0.022188,0.191983,0.121464,-2.338040,-0.340229,2.609600,-1.917333,0.0400,0.048045,0.5090,0.0709,0.1285
0.9000,0.057769,0.405179,0.060817,-2.346254,-0.484105,2.762350,-1.807518,0.060599,0.377812,0.058521,-2.321968,-0.480324,2.772728,-1.808177,0.060599,0.377812,0.058521,-2.321968,-0.480324,2.772728,-1.808177,0.0400,0.038399,0.5104,0.0671,0.0604
1.2000,0.088307,0.489211,0.020345,-2.316018,-0.537534,2.834791,-1.751923,0.095370,0.476558,0.012020,-2.293616,-0.537020,2.843488,-1.750689,0.095370,0.476558,0.012020,-2.293616,-0.537020,2.843488,-1.750689,0.0400,0.029301,0.5137,0.0683,0.0311
1.5000,0.097674,0.518035,0.008121,-2.309239,-0.541996,2.840690,-1.747158,0.097510,0.482637,0.009157,-2.291871,-0.540510,2.847844,-1.747150,0.097510,0.482637,0.009157,-2.291871,-0.540510,2.847844,-1.747150,0.0312,0.040114,0.5091,0.0661,0.0167
1.8000,0.097783,0.518169,0.008222,-2.309329,-0.542073,2.840703,-1.747207,0.097510,0.482637,0.009157,-2.291871,-0.540510,2.847844,-1.747150,0.097510,0.482637,0.009157,-2.291871,-0.540510,2.847844,-1.747150,0.0029,0.040270,0.5090,0.0659,0.0166
2.1000,0.097857,0.518204,0.008357,-2.309261,-0.542141,2.840849,-1.747197,0.097510,0.482637,0.009157,-2.291871,-0.540510,2.847844,-1.747150,0.097510,0.482637,0.009157,-2.291871,-0.540510,2.847844,-1.747150,0.0010,0.040247,0.5090,0.0660,0.0166
2.4000,0.108910,0.517064,0.003225,-2.305328,-0.501692,2.818226,-1.653819,0.121723,0.480022,-0.007482,-2.281513,-0.484715,2.814362,-1.622227,0.121723,0.480022,-0.007482,-2.281513,-0.484715,2.814362,-1.622227,0.0010,0.059324,0.5078,0.0652,0.0166
2.7000,0.221602,0.505998,-0.076939,-2.257054,-0.224383,2.650620,-1.038234,0.235352,0.467754,-0.085570,-2.232903,-0.222876,2.657234,-1.035979,0.235352,0.467754,-0.085570,-2.232903,-0.222876,2.657234,-1.035979,0.0010,0.048585,0.5048,0.0619,0.0252
3.0000,0.198952,0.490056,-0.091301,-2.282488,-0.228245,2.689639,-1.107510,0.153575,0.440924,-0.114100,-2.291130,-0.226741,2.701395,-1.121671,0.153575,0.440924,-0.114100,-2.291130,-0.226741,2.701395,-1.121671,0.0010,0.073542,0.5063,0.0440,0.0288
3.3000,-0.073735,0.400943,-0.186595,-2.466828,-0.253007,2.844483,-1.424097,-0.119814,0.353783,-0.203407,-2.484125,-0.252886,2.853967,-1.432239,-0.119814,0.353783,-0.203407,-2.484125,-0.252886,2.853967,-1.432239,0.0010,0.071312,0.4489,-0.1291,0.0348
3.6000,-0.170042,0.358928,-0.209459,-2.536497,-0.254077,2.860213,-1.590161,-0.185865,0.288344,-0.196039,-2.530518,-0.251775,2.864597,-1.652243,-0.185865,0.288344,-0.196039,-2.530518,-0.251775,2.864597,-1.652243,0.0010,0.096576,0.4086,-0.1733,0.0373
3.9000,-0.306999,0.052675,-0.095084,-2.633242,-0.227210,2.794604,-2.545139,-0.313282,0.020445,-0.089203,-2.619240,-0.226019,2.801565,-2.540871,-0.313282,0.020445,-0.089203,-2.619240,-0.226019,2.801565,-2.540871,0.0010,0.037107,0.4168,-0.1759,0.1359
4.2000,-0.300519,0.256650,-0.119589,-2.618251,-0.308909,3.006471,-2.480391,-0.299313,0.249629,-0.123711,-2.599749,-0.305926,3.011897,-2.481260,-0.299313,0.249629,-0.123711,-2.599749,-0.305926,3.011897,-2.481260,0.0010,0.021193,0.4188,-0.1745,0.0714
4.5000,-0.274619,0.365609,-0.151244,-2.592153,-0.331951,3.092882,-2.448036,-0.266426,0.367939,-0.161283,-2.571473,-0.331748,3.103052,-2.446841,-0.266426,0.367939,-0.161283,-2.571473,-0.331748,3.103052,-2.446841,0.0010,0.026569,0.4190,-0.1750,0.0393
4.8000,-0.262691,0.412383,-0.164282,-2.582717,-0.335834,3.105681,-2.442880,-0.262629,0.381601,-0.165622,-2.568208,-0.334730,3.113578,-2.442867,-0.262629,0.381601,-0.165622,-2.568208,-0.334730,3.113578,-2.442867,0.0344,0.034978,0.4123,-0.1744,0.0224
5.1000,-0.295438,0.292787,-0.122972,-2.610014,-0.275825,2.940171,-2.509716,-0.317053,0.167586,-0.097061,-2.604391,-0.267933,2.934655,-2.516775,-0.317053,0.167586,-0.097061,-2.604391,-0.267933,2.934655,-2.516775,0.0400,0.130338,0.4001,-0.1731,0.0470
5.4000,-0.316568,0.146913,-0.080029,-2.583663,-0.227296,2.804919,-2.293339,-0.284729,0.195803,-0.091944,-2.488274,-0.220279,2.801674,-2.220641,-0.284729,0.195803,-0.091944,-2.488274,-0.220279,2.801674,-2.220641,0.0400,0.134126,0.4231,-0.1767,0.1129
5.7000,-0.166006,0.487492,-0.136911,-2.231258,-0.180911,2.669327,-1.516114,-0.162792,0.449775,-0.141343,-2.195319,-0.176034,2.668478,-1.504560,-0.162792,0.449775,-0.141343,-2.195319,-0.176034,2.668478,-1.504560,0.0400,0.053872,0.5044,-0.1720,0.0459
6.0000,-0.053628,0.391499,-0.046831,-1.825433,-0.024558,2.081551,-0.880474,-0.017126,0.315757,-0.014870,-1.636493,-0.018520,2.070327,-0.860969,-0.017126,0.315757,-0.014870,-1.636493,-0.018520,2.070327,-0.860969,0.0400,0.210551,0.6032,-0.0727,0.1974
6.3000,0.002831,0.331154,0.002648,-1.594938,-0.002203,1.991899,-0.785362,0.000000,0.300000,0.000000,-1.570790,0.000000,2.000000,-0.785300,0.000000,0.300000,0.000000,-1.570790,0.000000,2.000000,-0.785300,0.0400,0.040487,0.6715,0.0045,0.3464
6.6000,0.000318,0.340434,-0.000041,-1.600964,-0.001971,1.992386,-0.785315,0.000000,0.300000,0.000000,-1.570790,0.000000,2.000000,-0.785300,0.000000,0.300000,0.000000,-1.570790,0.000000,2.000000,-0.785300,0.0400,0.051062,0.6697,-0.0002,0.3350
6.9000,-0.000113,0.340828,-0.000541,-1.601328,-0.002090,1.991992,-0.785299,0.000000,0.300000,0.000000,-1.570790,0.000000,2.000000,-0.785300,0.000000,0.300000,0.000000,-1.570790,0.000000,2.000000,-0.785300,0.0400,0.051656,0.6695,-0.0007,0.3348
7.2000,0.000014,0.340634,-0.000401,-1.601183,-0.002076,1.992038,-0.785301,0.000000,0.300000,0.000000,-1.570790,0.000000,2.000000,-0.785300,0.000000,0.300000,0.000000,-1.570790,0.000000,2.000000,-0.785300,0.0400,0.051407,0.6696,-0.0006,0.3350
7.5000,-0.000000,0.340656,-0.000416,-1.601198,-0.002077,1.992037,-0.785301,0.000000,0.300000,0.000000,-1.570790,0.000000,2.000000,-0.785300,0.000000,0.300000,0.000000,-1.570790,0.000000,2.000000,-0.785300,0.0400,0.051434,0.6696,-0.0006,0.3350
7.8000,-0.000000,0.340656,-0.000416,-1.601198,-0.002077,1.992037,-0.785301,0.000000,0.300000,0.000000,-1.570790,0.000000,2.000000,-0.785300,0.000000,0.300000,0.000000,-1.570790,0.000000,2.000000,-0.785300,0.0400,0.051434,0.6696,-0.0006,0.3350
8.1000,0.000000,0.340655,-0.000416,-1.601198,-0.002077,1.992037,-0.785301,0.000000,0.300000,0.000000,-1.570790,0.000000,2.000000,-0.785300,0.000000,0.300000,0.000000,-1.570790,0.000000,2.000000,-0.785300,0.0400,0.051434,0.6696,-0.0006,0.3350
8.4000,-0.000000,0.340655,-0.000416,-1.601198,-0.002077,1.992037,-0.785301,0.000000,0.300000,0.000000,-1.570790,0.000000,2.000000,-0.785300,0.000000,0.300000,0.000000,-1.570790,0.000000,2.000000,-0.785300,0.0400,0.051434,0.6696,-0.0006,0.3350
8.7000,-0.000000,0.340655,-0.000416,-1.601198,-0.002077,1.992037,-0.785301,0.000000,0.300000,0.000000,-1.570790,0.000000,2.000000,-0.785300,0.000000,0.300000,0.000000,-1.570790,0.000000,2.000000,-0.785300,0.0400,0.051434,0.6696,-0.0006,0.3350
9.0000,0.000000,0.340655,-0.000416,-1.601198,-0.002077,1.992037,-0.785301,0.000000,0.300000,0.000000,-1.570790,0.000000,2.000000,-0.785300,0.000000,0.300000,0.000000,-1.570790,0.000000,2.000000,-0.785300,0.0400,0.051434,0.6696,-0.0006,0.3350
9.3000,-0.000000,0.340655,-0.000416,-1.601198,-0.002077,1.992037,-0.785301,0.000000,0.300000,0.000000,-1.570790,0.000000,2.000000,-0.785300,0.000000,0.300000,0.000000,-1.570790,0.000000,2.000000,-0.785300,0.0400,0.051434,0.6696,-0.0006,0.3350
9.6000,0.000000,0.340655,-0.000416,-1.601198,-0.002077,1.992037,-0.785301,0.000000,0.300000,0.000000,-1.570790,0.000000,2.000000,-0.785300,0.000000,0.300000,0.000000,-1.570790,0.000000,2.000000,-0.785300,0.0400,0.051434,0.6696,-0.0006,0.3350
9.9000,0.000000,0.340655,-0.000416,-1.601198,-0.002077,1.992037,-0.785301,0.000000,0.300000,0.000000,-1.570790,0.000000,2.000000,-0.785300,0.000000,0.300000,0.000000,-1.570790,0.000000,2.000000,-0.785300,0.0400,0.051434,0.6696,-0.0006,0.3350
10.2000,-0.000000,0.340655,-0.000416,-1.601198,-0.002077,1.992037,-0.785301,0.000000,0.300000,0.000000,-1.570790,0.000000,2.000000,-0.785300,0.000000,0.300000,0.000000,-1.570790,0.000000,2.000000,-0.785300,0.0400,0.051434,0.6696,-0.0006,0.3350
10.5000,0.000000,0.340655,-0.000416,-1.601198,-0.002077,1.992037,-0.785301,0.000000,0.300000,0.000000,-1.570790,0.000000,2.000000,-0.785300,0.000000,0.300000,0.000000,-1.570790,0.000000,2.000000,-0.785300,0.0400,0.051434,0.6696,-0.0006,0.3350
10.8000,0.000000,0.340655,-0.000416,-1.601198,-0.002077,1.992037,-0.785301,0.000000,0.300000,0.000000,-1.570790,0.000000,2.000000,-0.785300,0.000000,0.300000,0.000000,-1.570790,0.000000,2.000000,-0.785300,0.0400,0.051434,0.6696,-0.0006,0.3350
11.1000,-0.000000,0.340655,-0.000416,-1.601198,-0.002077,1.992037,-0.785301,0.000000,0.300000,0.000000,-1.570790,0.000000,2.000000,-0.785300,0.000000,0.300000,0.000000,-1.570790,0.000000,2.000000,-0.785300,0.0400,0.051434,0.6696,-0.0006,0.3350
11.4000,0.000000,0.340655,-0.000416,-1.601198,-0.002077,1.992037,-0.785301,0.000000,0.300000,0.000000,-1.570790,0.000000,2.000000,-0.785300,0.000000,0.300000,0.000000,-1.570790,0.000000,2.000000,-0.785300,0.0400,0.051434,0.6696,-0.0006,0.3350
11.7000,-0.000000,0.340655,-0.000416,-1.601198,-0.002077,1.992037,-0.785301,0.000000,0.300000,0.000000,-1.570790,0.000000,2.000000,-0.785300,0.000000,0.300000,0.000000,-1.570790,0.000000,2.000000,-0.785300,0.0400,0.051434,0.6696,-0.0006,0.3350
12.0000,-0.000000,0.340655,-0.000416,-1.601198,-0.002077,1.992037,-0.785301,0.000000,0.300000,0.000000,-1.570790,0.000000,2.000000,-0.785300,0.000000,0.300000,0.000000,-1.570790,0.000000,2.000000,-0.785300,0.0400,0.051434,0.6696,-0.0006,0.3350
12.3000,0.000000,0.340655,-0.000416,-1.601198,-0.002077,1.992037,-0.785301,0.000000,0.300000,0.000000,-1.570790,0.000000,2.000000,-0.785300,0.000000,0.300000,0.000000,-1.570790,0.000000,2.000000,-0.785300,0.0400,0.051434,0.6696,-0.0006,0.3350
12.6000,-0.000000,0.340655,-0.000416,-1.601198,-0.002077,1.992037,-0.785301,0.000000,0.300000,0.000000,-1.570790,0.000000,2.000000,-0.785300,0.000000,0.300000,0.000000,-1.570790,0.000000,2.000000,-0.785300,0.0400,0.051434,0.6696,-0.0006,0.3350
12.9000,0.000000,0.340655,-0.000416,-1.601198,-0.002077,1.992037,-0.785301,0.000000,0.300000,0.000000,-1.570790,0.000000,2.000000,-0.785300,0.000000,0.300000,0.000000,-1.570790,0.000000,2.000000,-0.785300,0.0400,0.051434,0.6696,-0.0006,0.3350
13.2000,0.000000,0.340655,-0.000416,-1.601198,-0.002077,1.992037,-0.785301,0.000000,0.300000,0.000000,-1.570790,0.000000,2.000000,-0.785300,0.000000,0.300000,0.000000,-1.570790,0.000000,2.000000,-0.785300,0.0400,0.051434,0.6696,-0.0006,0.3350
13.5000,0.000000,0.340655,-0.000416,-1.601198,-0.002077,1.992037,-0.785301,0.000000,0.300000,0.000000,-1.570790,0.000000,2.000000,-0.785300,0.000000,0.300000,0.000000,-1.570790,0.000000,2.000000,-0.785300,0.0400,0.051434,0.6696,-0.0006,0.3350
13.8000,-0.000000,0.340655,-0.000416,-1.601198,-0.002077,1.992037,-0.785301,0.000000,0.300000,0.000000,-1.570790,0.000000,2.000000,-0.785300,0.000000,0.300000,0.000000,-1.570790,0.000000,2.000000,-0.785300,0.0400,0.051434,0.6696,-0.0006,0.3350
14.1000,0.000000,0.340655,-0.000416,-1.601198,-0.002077,1.992037,-0.785301,0.000000,0.300000,0.000000,-1.570790,0.000000,2.000000,-0.785300,0.000000,0.300000,0.000000,-1.570790,0.000000,2.000000,-0.785300,0.0400,0.051434,0.6696,-0.0006,0.3350
14.4000,0.000000,0.340655,-0.000416,-1.601198,-0.002077,1.992037,-0.785301,0.000000,0.300000,0.000000,-1.570790,0.000000,2.000000,-0.785300,0.000000,0.300000,0.000000,-1.570790,0.000000,2.000000,-0.785300,0.0400,0.051434,0.6696,-0.0006,0.3350
14.7000,-0.000000,0.340655,-0.000416,-1.601198,-0.002077,1.992037,-0.785301,0.000000,0.300000,0.000000,-1.570790,0.000000,2.000000,-0.785300,0.000000,0.300000,0.000000,-1.570790,0.000000,2.000000,-0.785300,0.0400,0.051434,0.6696,-0.0006,0.3350
15.0000,0.000000,0.340655,-0.000416,-1.601198,-0.002077,1.992037,-0.785301,0.000000,0.300000,0.000000,-1.570790,0.000000,2.000000,-0.785300,0.000000,0.300000,0.000000,-1.570790,0.000000,2.000000,-0.785300,0.0400,0.051434,0.6696,-0.0006,0.3350
15.3000,0.000000,0.340655,-0.000416,-1.601198,-0.002077,1.992037,-0.785301,0.000000,0.300000,0.000000,-1.570790,0.000000,2.000000,-0.785300,0.000000,0.300000,0.000000,-1.570790,0.000000,2.000000,-0.785300,0.0400,0.051434,0.6696,-0.0006,0.3350
15.6000,0.000000,0.340655,-0.000416,-1.601198,-0.002077,1.992037,-0.785301,0.000000,0.300000,0.000000,-1.570790,0.000000,2.000000,-0.785300,0.000000,0.300000,0.000000,-1.570790,0.000000,2.000000,-0.785300,0.0400,0.051434,0.6696,-0.0006,0.3350
15.9000,-0.000000,0.340655,-0.000416,-1.601198,-0.002077,1.992037,-0.785301,0.000000,0.300000,0.000000,-1.570790,0.000000,2.000000,-0.785300,0.000000,0.300000,0.000000,-1.570790,0.000000,2.000000,-0.785300,0.0400,0.051434,0.6696,-0.0006,0.3350
16.2000,0.000000,0.340655,-0.000416,-1.601198,-0.002077,1.992037,-0.785301,0.000000,0.300000,0.000000,-1.570790,0.000000,2.000000,-0.785300,0.000000,0.300000,0.000000,-1.570790,0.000000,2.000000,-0.785300,0.0400,0.051434,0.6696,-0.0006,0.3350
16.5000,0.000000,0.340655,-0.000416,-1.601198,-0.002077,1.992037,-0.785301,0.000000,0.300000,0.000000,-1.570790,0.000000,2.000000,-0.785300,0.000000,0.300000,0.000000,-1.570790,0.000000,2.000000,-0.785300,0.0400,0.051434,0.6696,-0.0006,0.3350
16.8000,-0.000000,0.340655,-0.000416,-1.601198,-0.002077,1.992037,-0.785301,0.000000,0.300000,0.000000,-1.570790,0.000000,2.000000,-0.785300,0.000000,0.300000,0.000000,-1.570790,0.000000,2.000000,-0.785300,0.0400,0.051434,0.6696,-0.0006,0.3350
17.1000,0.000000,0.340655,-0.000416,-1.601198,-0.002077,1.992037,-0.785301,0.000000,0.300000,0.000000,-1.570790,0.000000,2.000000,-0.785300,0.000000,0.300000,0.000000,-1.570790,0.000000,2.000000,-0.785300,0.0400,0.051434,0.6696,-0.0006,0.3350
17.4000,0.000000,0.340655,-0.000416,-1.601198,-0.002077,1.992037,-0.785301,0.000000,0.300000,0.000000,-1.570790,0.000000,2.000000,-0.785300,0.000000,0.300000,0.000000,-1.570790,0.000000,2.000000,-0.785300,0.0400,0.051434,0.6696,-0.0006,0.3350
17.7000,0.000000,0.340655,-0.000416,-1.601198,-0.002077,1.992037,-0.785301,0.000000,0.300000,0.000000,-1.570790,0.000000,2.000000,-0.785300,0.000000,0.300000,0.000000,-1.570790,0.000000,2.000000,-0.785300,0.0400,0.051434,0.6696,-0.0006,0.3350
18.0000,-0.000000,0.340655,-0.000416,-1.601198,-0.002077,1.992037,-0.785301,0.000000,0.300000,0.000000,-1.570790,0.000000,2.000000,-0.785300,0.000000,0.300000,0.000000,-1.570790,0.000000,2.000000,-0.785300,0.0400,0.051434,0.6696,-0.0006,0.3350
18.3000,0.000000,0.340655,-0.000416,-1.601198,-0.002077,1.992037,-0.785301,0.000000,0.300000,0.000000,-1.570790,0.000000,2.000000,-0.785300,0.000000,0.300000,0.000000,-1.570790,0.000000,2.000000,-0.785300,0.0400,0.051434,0.6696,-0.0006,0.3350
18.6000,0.000000,0.340655,-0.000416,-1.601198,-0.002077,1.992037,-0.785301,0.000000,0.300000,0.000000,-1.570790,0.000000,2.000000,-0.785300,0.000000,0.300000,0.000000,-1.570790,0.000000,2.000000,-0.785300,0.0400,0.051434,0.6696,-0.0006,0.3350
18.9000,-0.000000,0.340655,-0.000416,-1.601198,-0.002077,1.992037,-0.785301,0.000000,0.300000,0.000000,-1.570790,0.000000,2.000000,-0.785300,0.000000,0.300000,0.000000,-1.570790,0.000000,2.000000,-0.785300,0.0400,0.051434,0.6696,-0.0006,0.3350
19.2000,0.000000,0.340655,-0.000416,-1.601198,-0.002077,1.992037,-0.785301,0.000000,0.300000,0.000000,-1.570790,0.000000,2.000000,-0.785300,0.000000,0.300000,0.000000,-1.570790,0.000000,2.000000,-0.785300,0.0400,0.051434,0.6696,-0.0006,0.3350
19.5000,0.000000,0.340655,-0.000416,-1.601198,-0.002077,1.992037,-0.785301,0.000000,0.300000,0.000000,-1.570790,0.000000,2.000000,-0.785300,0.000000,0.300000,0.000000,-1.570790,0.000000,2.000000,-0.785300,0.0400,0.051434,0.6696,-0.0006,0.3350
19.8000,0.000000,0.340655,-0.000416,-1.601198,-0.002077,1.992037,-0.785301,0.000000,0.300000,0.000000,-1.570790,0.000000,2.000000,-0.785300,0.000000,0.300000,0.000000,-1.570790,0.000000,2.000000,-0.785300,0.0400,0.051434,0.6696,-0.0006,0.3350
20.1000,-0.000000,0.340655,-0.000416,-1.601198,-0.002077,1.992037,-0.785301,0.000000,0.300000,0.000000,-1.570790,0.000000,2.000000,-0.785300,0.000000,0.300000,0.000000,-1.570790,0.000000,2.000000,-0.785300,0.0400,0.051434,0.6696,-0.0006,0.3350
20.4000,0.000000,0.340655,-0.000416,-1.601198,-0.002077,1.992037,-0.785301,0.000000,0.300000,0.000000,-1.570790,0.000000,2.000000,-0.785300,0.000000,0.300000,0.000000,-1.570790,0.000000,2.000000,-0.785300,0.0400,0.051434,0.6696,-0.0006,0.3350
20.7000,0.000000,0.340655,-0.000416,-1.601198,-0.002077,1.992037,-0.785301,0.000000,0.300000,0.000000,-1.570790,0.000000,2.000000,-0.785300,0.000000,0.300000,0.000000,-1.570790,0.000000,2.000000,-0.785300,0.0400,0.051434,0.6696,-0.0006,0.3350
21.0000,-0.000000,0.340655,-0.000416,-1.601198,-0.002077,1.992037,-0.785301,0.000000,0.300000,0.000000,-1.570790,0.000000,2.000000,-0.785300,0.000000,0.300000,0.000000,-1.570790,0.000000,2.000000,-0.785300,0.0400,0.051434,0.6696,-0.0006,0.3350
21.3000,0.000000,0.340655,-0.000416,-1.601198,-0.002077,1.992037,-0.785301,0.000000,0.300000,0.000000,-1.570790,0.000000,2.000000,-0.785300,0.000000,0.300000,0.000000,-1.570790,0.000000,2.000000,-0.785300,0.0400,0.051434,0.6696,-0.0006,0.3350
21.6000,0.000000,0.340655,-0.000416,-1.601198,-0.002077,1.992037,-0.785301,0.000000,0.300000,0.000000,-1.570790,0.000000,2.000000,-0.785300,0.000000,0.300000,0.000000,-1.570790,0.000000,2.000000,-0.785300,0.0400,0.051434,0.6696,-0.0006,0.3350
21.9000,0.000000,0.340655,-0.000416,-1.601198,-0.002077,1.992037,-0.785301,0.000000,0.300000,0.000000,-1.570790,0.000000,2.000000,-0.785300,0.000000,0.300000,0.000000,-1.570790,0.000000,2.000000,-0.785300,0.0400,0.051434,0.6696,-0.0006,0.3350
22.2000,-0.000000,0.340655,-0.000416,-1.601198,-0.002077,1.992037,-0.785301,0.000000,0.300000,0.000000,-1.570790,0.000000,2.000000,-0.785300,0.000000,0.300000,0.000000,-1.570790,0.000000,2.000000,-0.785300,0.0400,0.051434,0.6696,-0.0006,0.3350
22.5000,0.000000,0.340655,-0.000416,-1.601198,-0.002077,1.992037,-0.785301,0.000000,0.300000,0.000000,-1.570790,0.000000,2.000000,-0.785300,0.000000,0.300000,0.000000,-1.570790,0.000000,2.000000,-0.785300,0.0400,0.051434,0.6696,-0.0006,0.3350
22.8000,0.000000,0.340655,-0.000416,-1.601198,-0.002077,1.992037,-0.785301,0.000000,0.300000,0.000000,-1.570790,0.000000,2.000000,-0.785300,0.000000,0.300000,0.000000,-1.570790,0.000000,2.000000,-0.785300,0.0400,0.051434,0.6696,-0.0006,0.3350
23.1000,-0.000000,0.340655,-0.000416,-1.601198,-0.002077,1.992037,-0.785301,0.000000,0.300000,0.000000,-1.570790,0.000000,2.000000,-0.785300,0.000000,0.300000,0.000000,-1.570790,0.000000,2.000000,-0.785300,0.0400,0.051434,0.6696,-0.0006,0.3350
23.4000,0.000000,0.340655,-0.000416,-1.601198,-0.002077,1.992037,-0.785301,0.000000,0.300000,0.000000,-1.570790,0.000000,2.000000,-0.785300,0.000000,0.300000,0.000000,-1.570790,0.000000,2.000000,-0.785300,0.0400,0.051434,0.6696,-0.0006,0.3350
23.7000,0.000000,0.340655,-0.000416,-1.601198,-0.002077,1.992037,-0.785301,0.000000,0.300000,0.000000,-1.570790,0.000000,2.000000,-0.785300,0.000000,0.300000,0.000000,-1.570790,0.000000,2.000000,-0.785300,0.0400,0.051434,0.6696,-0.0006,0.3350
24.0000,0.000000,0.340655,-0.000416,-1.601198,-0.002077,1.992037,-0.785301,0.000000,0.300000,0.000000,-1.570790,0.000000,2.000000,-0.785300,0.000000,0.300000,0.000000,-1.570790,0.000000,2.000000,-0.785300,0.0400,0.051434,0.6696,-0.0006,0.3350
24.3000,-0.000000,0.340655,-0.000416,-1.601198,-0.002077,1.992037,-0.785301,0.000000,0.300000,0.000000,-1.570790,0.000000,2.000000,-0.785300,0.000000,0.300000,0.000000,-1.570790,0.000000,2.000000,-0.785300,0.0400,0.051434,0.6696,-0.0006,0.3350
24.6000,0.000000,0.340655,-0.000416,-1.601198,-0.002077,1.992037,-0.785301,0.000000,0.300000,0.000000,-1.570790,0.000000,2.000000,-0.785300,0.000000,0.300000,0.000000,-1.570790,0.000000,2.000000,-0.785300,0.0400,0.051434,0.6696,-0.0006,0.3350
24.9000,0.000000,0.340655,-0.000416,-1.601198,-0.002077,1.992037,-0.785301,0.000000,0.300000,0.000000,-1.570790,0.000000,2.000000,-0.785300,0.000000,0.300000,0.000000,-1.570790,0.000000,2.000000,-0.785300,0.0400,0.051434,0.6696,-0.0006,0.3350
25.2000,-0.000000,0.340655,-0.000416,-1.601198,-0.002077,1.992037,-0.785301,0.000000,0.300000,0.000000,-1.570790,0.000000,2.000000,-0.785300,0.000000,0.300000,0.000000,-1.570790,0.000000,2.000000,-0.785300,0.0400,0.051434,0.6696,-0.0006,0.3350
25.5000,0.000000,0.340655,-0.000416,-1.601198,-0.002077,1.992037,-0.785301,0.000000,0.300000,0.000000,-1.570790,0.000000,2.000000,-0.785300,0.000000,0.300000,0.000000,-1.570790,0.000000,2.000000,-0.785300,0.0400,0.051434,0.6696,-0.0006,0.3350
25.8000,0.000000,0.340655,-0.000416,-1.601198,-0.002077,1.992037,-0.785301,0.000000,0.300000,0.000000,-1.570790,0.000000,2.000000,-0.785300,0.000000,0.300000,0.000000,-1.570790,0.000000,2.000000,-0.785300,0.0400,0.051434,0.6696,-0.0006,0.3350
26.1000,0.000000,0.340655,-0.000416,-1.601198,-0.002077,1.992037,-0.785301,0.000000,0.300000,0.000000,-1.570790,0.000000,2.000000,-0.785300,0.000000,0.300000,0.000000,-1.570790,0.000000,2.000000,-0.785300,0.0400,0.051434,0.6696,-0.0006,0.3350
26.4000,-0.000000,0.340655,-0.000416,-1.601198,-0.002077,1.992037,-0.785301,0.000000,0.300000,0.000000,-1.570790,0.000000,2.000000,-0.785300,0.000000,0.300000,0.000000,-1.570790,0.000000,2.000000,-0.785300,0.0400,0.051434,0.6696,-0.0006,0.3350
26.7000,0.000000,0.340655,-0.000416,-1.601198,-0.002077,1.992037,-0.785301,0.000000,0.300000,0.000000,-1.570790,0.000000,2.000000,-0.785300,0.000000,0.300000,0.000000,-1.570790,0.000000,2.000000,-0.785300,0.0400,0.051434,0.6696,-0.0006,0.3350
27.0000,0.000000,0.340655,-0.000416,-1.601198,-0.002077,1.992037,-0.785301,0.000000,0.300000,0.000000,-1.570790,0.000000,2.000000,-0.785300,0.000000,0.300000,0.000000,-1.570790,0.000000,2.000000,-0.785300,0.0400,0.051434,0.6696,-0.0006,0.3350
27.3000,-0.000000,0.340655,-0.000416,-1.601198,-0.002077,1.992037,-0.785301,0.000000,0.300000,0.000000,-1.570790,0.000000,2.000000,-0.785300,0.000000,0.300000,0.000000,-1.570790,0.000000,2.000000,-0.785300,0.0400,0.051434,0.6696,-0.0006,0.3350
27.6000,0.000000,0.340655,-0.000416,-1.601198,-0.002077,1.992037,-0.785301,0.000000,0.300000,0.000000,-1.570790,0.000000,2.000000,-0.785300,0.000000,0.300000,0.000000,-1.570790,0.000000,2.000000,-0.785300,0.0400,0.051434,0.6696,-0.0006,0.3350
27.9000,0.000000,0.340655,-0.000416,-1.601198,-0.002077,1.992037,-0.785301,0.000000,0.300000,0.000000,-1.570790,0.000000,2.000000,-0.785300,0.000000,0.300000,0.000000,-1.570790,0.000000,2.000000,-0.785300,0.0400,0.051434,0.6696,-0.0006,0.3350
28.2000,0.000000,0.340655,-0.000416,-1.601198,-0.002077,1.992037,-0.785301,0.000000,0.300000,0.000000,-1.570790,0.000000,2.000000,-0.785300,0.000000,0.300000,0.000000,-1.570790,0.000000,2.000000,-0.785300,0.0400,0.051434,0.6696,-0.0006,0.3350
28.5000,-0.000000,0.340655,-0.000416,-1.601198,-0.002077,1.992037,-0.785301,0.000000,0.300000,0.000000,-1.570790,0.000000,2.000000,-0.785300,0.000000,0.300000,0.000000,-1.570790,0.000000,2.000000,-0.785300,0.0400,0.051434,0.6696,-0.0006,0.3350
28.8000,0.000000,0.340655,-0.000416,-1.601198,-0.002077,1.992037,-0.785301,0.000000,0.300000,0.000000,-1.570790,0.000000,2.000000,-0.785300,0.000000,0.300000,0.000000,-1.570790,0.000000,2.000000,-0.785300,0.0400,0.051434,0.6696,-0.0006,0.3350
29.1000,0.000000,0.340655,-0.000416,-1.601198,-0.002077,1.992037,-0.785301,0.000000,0.300000,0.000000,-1.570790,0.000000,2.000000,-0.785300,0.000000,0.300000,0.000000,-1.570790,0.000000,2.000000,-0.785300,0.0400,0.051434,0.6696,-0.0006,0.3350
29.4000,-0.000000,0.340655,-0.000416,-1.601198,-0.002077,1.992037,-0.785301,0.000000,0.300000,0.000000,-1.570790,0.000000,2.000000,-0.785300,0.000000,0.300000,0.000000,-1.570790,0.000000,2.000000,-0.785300,0.0400,0.051434,0.6696,-0.0006,0.3350
29.7000,0.000000,0.340655,-0.000416,-1.601198,-0.002077,1.992037,-0.785301,0.000000,0.300000,0.000000,-1.570790,0.000000,2.000000,-0.785300,0.000000,0.300000,0.000000,-1.570790,0.000000,2.000000,-0.785300,0.0400,0.051434,0.6696,-0.0006,0.3350
30.0000,0.000000,0.340655,-0.000416,-1.601198,-0.002077,1.992037,-0.785301,0.000000,0.300000,0.000000,-1.570790,0.000000,2.000000,-0.785300,0.000000,0.300000,0.000000,-1.570790,0.000000,2.000000,-0.785300,0.0400,0.051434,0.6696,-0.0006,0.3350
30.3000,0.000000,0.340655,-0.000416,-1.601198,-0.002077,1.992037,-0.785301,0.000000,0.300000,0.000000,-1.570790,0.000000,2.000000,-0.785300,0.000000,0.300000,0.000000,-1.570790,0.000000,2.000000,-0.785300,0.0400,0.051434,0.6696,-0.0006,0.3350
30.6000,-0.000000,0.340655,-0.000416,-1.601198,-0.002077,1.992037,-0.785301,0.000000,0.300000,0.000000,-1.570790,0.000000,2.000000,-0.785300,0.000000,0.300000,0.000000,-1.570790,0.000000,2.000000,-0.785300,0.0400,0.051434,0.6696,-0.0006,0.3350
30.9000,0.000000,0.340655,-0.000416,-1.601198,-0.002077,1.992037,-0.785301,0.000000,0.300000,0.000000,-1.570790,0.000000,2.000000,-0.785300,0.000000,0.300000,0.000000,-1.570790,0.000000,2.000000,-0.785300,0.0400,0.051434,0.6696,-0.0006,0.3350
31.2000,0.000000,0.340655,-0.000416,-1.601198,-0.002077,1.992037,-0.785301,0.000000,0.300000,0.000000,-1.570790,0.000000,2.000000,-0.785300,0.000000,0.300000,0.000000,-1.570790,0.000000,2.000000,-0.785300,0.0400,0.051434,0.6696,-0.0006,0.3350
31.5000,-0.000000,0.340655,-0.000416,-1.601198,-0.002077,1.992037,-0.785301,0.000000,0.300000,0.000000,-1.570790,0.000000,2.000000,-0.785300,0.000000,0.300000,0.000000,-1.570790,0.000000,2.000000,-0.785300,0.0400,0.051434,0.6696,-0.0006,0.3350
31.8000,0.000000,0.340655,-0.000416,-1.601198,-0.002077,1.992037,-0.785301,0.000000,0.300000,0.000000,-1.570790,0.000000,2.000000,-0.785300,0.000000,0.300000,0.000000,-1.570790,0.000000,2.000000,-0.785300,0.0400,0.051434,0.6696,-0.0006,0.3350
32.1000,0.000000,0.340655,-0.000416,-1.601198,-0.002077,1.992037,-0.785301,0.000000,0.300000,0.000000,-1.570790,0.000000,2.000000,-0.785300,0.000000,0.300000,0.000000,-1.570790,0.000000,2.000000,-0.785300,0.0400,0.051434,0.6696,-0.0006,0.3350
32.4000,0.000000,0.340655,-0.000416,-1.601198,-0.002077,1.992037,-0.785301,0.000000,0.300000,0.000000,-1.570790,0.000000,2.000000,-0.785300,0.000000,0.300000,0.000000,-1.570790,0.000000,2.000000,-0.785300,0.0400,0.051434,0.6696,-0.0006,0.3350
32.7000,-0.000000,0.340655,-0.000416,-1.601198,-0.002077,1.992037,-0.785301,0.000000,0.300000,0.000000,-1.570790,0.000000,2.000000,-0.785300,0.000000,0.300000,0.000000,-1.570790,0.000000,2.000000,-0.785300,0.0400,0.051434,0.6696,-0.0006,0.3350
33.0000,0.000000,0.340655,-0.000416,-1.601198,-0.002077,1.992037,-0.785301,0.000000,0.300000,0.000000,-1.570790,0.000000,2.000000,-0.785300,0.000000,0.300000,0.000000,-1.570790,0.000000,2.000000,-0.785300,0.0400,0.051434,0.6696,-0.0006,0.3350
33.3000,0.000000,0.340655,-0.000416,-1.601198,-0.002077,1.992037,-0.785301,0.000000,0.300000,0.000000,-1.570790,0.000000,2.000000,-0.785300,0.000000,0.300000,0.000000,-1.570790,0.000000,2.000000,-0.785300,0.0400,0.051434,0.6696,-0.0006,0.3350
33.6000,-0.000000,0.340655,-0.000416,-1.601198,-0.002077,1.992037,-0.785301,0.000000,0.300000,0.000000,-1.570790,0.000000,2.000000,-0.785300,0.000000,0.300000,0.000000,-1.570790,0.000000,2.000000,-0.785300,0.0400,0.051434,0.6696,-0.0006,0.3350
33.9000,0.000000,0.340655,-0.000416,-1.601198,-0.002077,1.992037,-0.785301,0.000000,0.300000,0.000000,-1.570790,0.000000,2.000000,-0.785300,0.000000,0.300000,0.000000,-1.570790,0.000000,2.000000,-0.785300,0.0400,0.051434,0.6696,-0.0006,0.3350
34.2000,0.000000,0.340655,-0.000416,-1.601198,-0.002077,1.992037,-0.785301,0.000000,0.300000,0.000000,-1.570790,0.000000,2.000000,-0.785300,0.000000,0.300000,0.000000,-1.570790,0.000000,2.000000,-0.785300,0.0400,0.051434,0.6696,-0.0006,0.3350
34.5000,0.000000,0.340655,-0.000416,-1.601198,-0.002077,1.992037,-0.785301,0.000000,0.300000,0.000000,-1.570790,0.000000,2.000000,-0.785300,0.000000,0.300000,0.000000,-1.570790,0.000000,2.000000,-0.785300,0.0400,0.051434,0.6696,-0.0006,0.3350
34.8000,-0.000000,0.340655,-0.000416,-1.601198,-0.002077,1.992037,-0.785301,0.000000,0.300000,0.000000,-1.570790,0.000000,2.000000,-0.785300,0.000000,0.300000,0.000000,-1.570790,0.000000,2.000000,-0.785300,0.0400,0.051434,0.6696,-0.0006,0.3350
35.1000,0.000000,0.340655,-0.000416,-1.601198,-0.002077,1.992037,-0.785301,0.000000,0.300000,0.000000,-1.570790,0.000000,2.000000,-0.785300,0.000000,0.300000,0.000000,-1.570790,0.000000,2.000000,-0.785300,0.0400,0.051434,0.6696,-0.0006,0.3350
35.4000,0.000000,0.340655,-0.000416,-1.601198,-0.002077,1.992037,-0.785301,0.000000,0.300000,0.000000,-1.570790,0.000000,2.000000,-0.785300,0.000000,0.300000,0.000000,-1.570790,0.000000,2.000000,-0.785300,0.0400,0.051434,0.6696,-0.0006,0.3350
35.7000,-0.000000,0.340655,-0.000416,-1.601198,-0.002077,1.992037,-0.785301,0.000000,0.300000,0.000000,-1.570790,0.000000,2.000000,-0.785300,0.000000,0.300000,0.000000,-1.570790,0.000000,2.000000,-0.785300,0.0400,0.051434,0.6696,-0.0006,0.3350
36.0000,0.000000,0.340655,-0.000416,-1.601198,-0.002077,1.992037,-0.785301,0.000000,0.300000,0.000000,-1.570790,0.000000,2.000000,-0.785300,0.000000,0.300000,0.000000,-1.570790,0.000000,2.000000,-0.785300,0.0400,0.051434,0.6696,-0.0006,0.3350
36.3000,0.000000,0.340655,-0.000416,-1.601198,-0.002077,1.992037,-0.785301,0.000000,0.300000,0.000000,-1.570790,0.000000,2.000000,-0.785300,0.000000,0.300000,0.000000,-1.570790,0.000000,2.000000,-0.785300,0.0400,0.051434,0.6696,-0.0006,0.3350
36.6000,0.000000,0.340655,-0.000416,-1.601198,-0.002077,1.992037,-0.785301,0.000000,0.300000,0.000000,-1.570790,0.000000,2.000000,-0.785300,0.000000,0.300000,0.000000,-1.570790,0.000000,2.000000,-0.785300,0.0400,0.051434,0.6696,-0.0006,0.3350
36.9000,-0.000000,0.340655,-0.000416,-1.601198,-0.002077,1.992037,-0.785301,0.000000,0.300000,0.000000,-1.570790,0.000000,2.000000,-0.785300,0.000000,0.300000,0.000000,-1.570790,0.000000,2.000000,-0.785300,0.0400,0.051434,0.6696,-0.0006,0.3350
37.2000,0.000000,0.340655,-0.000416,-1.601198,-0.002077,1.992037,-0.785301,0.000000,0.300000,0.000000,-1.570790,0.000000,2.000000,-0.785300,0.000000,0.300000,0.000000,-1.570790,0.000000,2.000000,-0.785300,0.0400,0.051434,0.6696,-0.0006,0.3350
37.5000,0.000000,0.340655,-0.000416,-1.601198,-0.002077,1.992037,-0.785301,0.000000,0.300000,0.000000,-1.570790,0.000000,2.000000,-0.785300,0.000000,0.300000,0.000000,-1.570790,0.000000,2.000000,-0.785300,0.0400,0.051434,0.6696,-0.0006,0.3350
37.8000,-0.000000,0.340655,-0.000416,-1.601198,-0.002077,1.992037,-0.785301,0.000000,0.300000,0.000000,-1.570790,0.000000,2.000000,-0.785300,0.000000,0.300000,0.000000,-1.570790,0.000000,2.000000,-0.785300,0.0400,0.051434,0.6696,-0.0006,0.3350
38.1000,0.000000,0.340655,-0.000416,-1.601198,-0.002077,1.992037,-0.785301,0.000000,0.300000,0.000000,-1.570790,0.000000,2.000000,-0.785300,0.000000,0.300000,0.000000,-1.570790,0.000000,2.000000,-0.785300,0.0400,0.051434,0.6696,-0.0006,0.3350
38.4000,0.000000,0.340655,-0.000416,-1.601198,-0.002077,1.992037,-0.785301,0.000000,0.300000,0.000000,-1.570790,0.000000,2.000000,-0.785300,0.000000,0.300000,0.000000,-1.570790,0.000000,2.000000,-0.785300,0.0400,0.051434,0.6696,-0.0006,0.3350
38.7000,0.000000,0.340655,-0.000416,-1.601198,-0.002077,1.992037,-0.785301,0.000000,0.300000,0.000000,-1.570790,0.000000,2.000000,-0.785300,0.000000,0.300000,0.000000,-1.570790,0.000000,2.000000,-0.785300,0.0400,0.051434,0.6696,-0.0006,0.3350
39.0000,-0.000000,0.340655,-0.000416,-1.601198,-0.002077,1.992037,-0.785301,0.000000,0.300000,0.000000,-1.570790,0.000000,2.000000,-0.785300,0.000000,0.300000,0.000000,-1.570790,0.000000,2.000000,-0.785300,0.0400,0.051434,0.6696,-0.0006,0.3350
39.3000,0.000000,0.340655,-0.000416,-1.601198,-0.002077,1.992037,-0.785301,0.000000,0.300000,0.000000,-1.570790,0.000000,2.000000,-0.785300,0.000000,0.300000,0.000000,-1.570790,0.000000,2.000000,-0.785300,0.0400,0.051434,0.6696,-0.0006,0.3350
39.6000,0.000000,0.340655,-0.000416,-1.601198,-0.002077,1.992037,-0.785301,0.000000,0.300000,0.000000,-1.570790,0.000000,2.000000,-0.785300,0.000000,0.300000,0.000000,-1.570790,0.000000,2.000000,-0.785300,0.0400,0.051434,0.6696,-0.0006,0.3350
39.9000,-0.000000,0.340655,-0.000416,-1.601198,-0.002077,1.992037,-0.785301,0.000000,0.300000,0.000000,-1.570790,0.000000,2.000000,-0.785300,0.000000,0.300000,0.000000,-1.570790,0.000000,2.000000,-0.785300,0.0400,0.051434,0.6696,-0.0006,0.3350
40.2000,0.000000,0.340655,-0.000416,-1.601198,-0.002077,1.992037,-0.785301,0.000000,0.300000,0.000000,-1.570790,0.000000,2.000000,-0.785300,0.000000,0.300000,0.000000,-1.570790,0.000000,2.000000,-0.785300,0.0400,0.051434,0.6696,-0.0006,0.3350
40.5000,0.000000,0.340655,-0.000416,-1.601198,-0.002077,1.992037,-0.785301,0.000000,0.300000,0.000000,-1.570790,0.000000,2.000000,-0.785300,0.000000,0.300000,0.000000,-1.570790,0.000000,2.000000,-0.785300,0.0400,0.051434,0.6696,-0.0006,0.3350
40.8000,0.000000,0.340655,-0.000416,-1.601198,-0.002077,1.992037,-0.785301,0.000000,0.300000,0.000000,-1.570790,0.000000,2.000000,-0.785300,0.000000,0.300000,0.000000,-1.570790,0.000000,2.000000,-0.785300,0.0400,0.051434,0.6696,-0.0006,0.3350
41.1000,-0.000000,0.340655,-0.000416,-1.601198,-0.002077,1.992037,-0.785301,0.000000,0.300000,0.000000,-1.570790,0.000000,2.000000,-0.785300,0.000000,0.300000,0.000000,-1.570790,0.000000,2.000000,-0.785300,0.0400,0.051434,0.6696,-0.0006,0.3350
41.4000,0.000000,0.340655,-0.000416,-1.601198,-0.002077,1.992037,-0.785301,0.000000,0.300000,0.000000,-1.570790,0.000000,2.000000,-0.785300,0.000000,0.300000,0.000000,-1.570790,0.000000,2.000000,-0.785300,0.0400,0.051434,0.6696,-0.0006,0.3350
41.7000,0.000000,0.340655,-0.000416,-1.601198,-0.002077,1.992037,-0.785301,0.000000,0.300000,0.000000,-1.570790,0.000000,2.000000,-0.785300,0.000000,0.300000,0.000000,-1.570790,0.000000,2.000000,-0.785300,0.0400,0.051434,0.6696,-0.0006,0.3350
42.0000,-0.000000,0.340655,-0.000416,-1.601198,-0.002077,1.992037,-0.785301,0.000000,0.300000,0.000000,-1.570790,0.000000,2.000000,-0.785300,0.000000,0.300000,0.000000,-1.570790,0.000000,2.000000,-0.785300,0.0400,0.051434,0.6696,-0.0006,0.3350
42.3000,0.000000,0.340655,-0.000416,-1.601198,-0.002077,1.992037,-0.785301,0.000000,0.300000,0.000000,-1.570790,0.000000,2.000000,-0.785300,0.000000,0.300000,0.000000,-1.570790,0.000000,2.000000,-0.785300,0.0400,0.051434,0.6696,-0.0006,0.3350
42.6000,0.000000,0.340655,-0.000416,-1.601198,-0.002077,1.992037,-0.785301,0.000000,0.300000,0.000000,-1.570790,0.000000,2.000000,-0.785300,0.000000,0.300000,0.000000,-1.570790,0.000000,2.000000,-0.785300,0.0400,0.051434,0.6696,-0.0006,0.3350
42.9000,0.000000,0.340655,-0.000416,-1.601198,-0.002077,1.992037,-0.785301,0.000000,0.300000,0.000000,-1.570790,0.000000,2.000000,-0.785300,0.000000,0.300000,0.000000,-1.570790,0.000000,2.000000,-0.785300,0.0400,0.051434,0.6696,-0.0006,0.3350
43.2000,-0.000000,0.340655,-0.000416,-1.601198,-0.002077,1.992037,-0.785301,0.000000,0.300000,0.000000,-1.570790,0.000000,2.000000,-0.785300,0.000000,0.300000,0.000000,-1.570790,0.000000,2.000000,-0.785300,0.0400,0.051434,0.6696,-0.0006,0.3350
43.5000,0.000000,0.340655,-0.000416,-1.601198,-0.002077,1.992037,-0.785301,0.000000,0.300000,0.000000,-1.570790,0.000000,2.000000,-0.785300,0.000000,0.300000,0.000000,-1.570790,0.000000,2.000000,-0.785300,0.0400,0.051434,0.6696,-0.0006,0.3350
43.8000,0.000000,0.340655,-0.000416,-1.601198,-0.002077,1.992037,-0.785301,0.000000,0.300000,0.000000,-1.570790,0.000000,2.000000,-0.785300,0.000000,0.300000,0.000000,-1.570790,0.000000,2.000000,-0.785300,0.0400,0.051434,0.6696,-0.0006,0.3350
44.1000,-0.000000,0.340655,-0.000416,-1.601198,-0.002077,1.992037,-0.785301,0.000000,0.300000,0.000000,-1.570790,0.000000,2.000000,-0.785300,0.000000,0.300000,0.000000,-1.570790,0.000000,2.000000,-0.785300,0.0400,0.051434,0.6696,-0.0006,0.3350
44.4000,0.000000,0.340655,-0.000416,-1.601198,-0.002077,1.992037,-0.785301,0.000000,0.300000,0.000000,-1.570790,0.000000,2.000000,-0.785300,0.000000,0.300000,0.000000,-1.570790,0.000000,2.000000,-0.785300,0.0400,0.051434,0.6696,-0.0006,0.3350
44.7000,0.000000,0.340655,-0.000416,-1.601198,-0.002077,1.992037,-0.785301,0.000000,0.300000,0.000000,-1.570790,0.000000,2.000000,-0.785300,0.000000,0.300000,0.000000,-1.570790,0.000000,2.000000,-0.785300,0.0400,0.051434,0.6696,-0.0006,0.3350
45.0000,0.000000,0.340655,-0.000416,-1.601198,-0.002077,1.992037,-0.785301,0.000000,0.300000,0.000000,-1.570790,0.000000,2.000000,-0.785300,0.000000,0.300000,0.000000,-1.570790,0.000000,2.000000,-0.785300,0.0400,0.051434,0.6696,-0.0006,0.3350
45.3000,-0.000000,0.340655,-0.000416,-1.601198,-0.002077,1.992037,-0.785301,0.000000,0.300000,0.000000,-1.570790,0.000000,2.000000,-0.785300,0.000000,0.300000,0.000000,-1.570790,0.000000,2.000000,-0.785300,0.0400,0.051434,0.6696,-0.0006,0.3350
45.6000,0.000000,0.340655,-0.000416,-1.601198,-0.002077,1.992037,-0.785301,0.000000,0.300000,0.000000,-1.570790,0.000000,2.000000,-0.785300,0.000000,0.300000,0.000000,-1.570790,0.000000,2.000000,-0.785300,0.0400,0.051434,0.6696,-0.0006,0.3350
45.9000,0.000000,0.340655,-0.000416,-1.601198,-0.002077,1.992037,-0.785301,0.000000,0.300000,0.000000,-1.570790,0.000000,2.000000,-0.785300,0.000000,0.300000,0.000000,-1.570790,0.000000,2.000000,-0.785300,0.0400,0.051434,0.6696,-0.0006,0.3350
46.2000,-0.000000,0.340655,-0.000416,-1.601198,-0.002077,1.992037,-0.785301,0.000000,0.300000,0.000000,-1.570790,0.000000,2.000000,-0.785300,0.000000,0.300000,0.000000,-1.570790,0.000000,2.000000,-0.785300,0.0400,0.051434,0.6696,-0.0006,0.3350
46.5000,0.000000,0.340655,-0.000416,-1.601198,-0.002077,1.992037,-0.785301,0.000000,0.300000,0.000000,-1.570790,0.000000,2.000000,-0.785300,0.000000,0.300000,0.000000,-1.570790,0.000000,2.000000,-0.785300,0.0400,0.051434,0.6696,-0.0006,0.3350
46.8000,0.000000,0.340655,-0.000416,-1.601198,-0.002077,1.992037,-0.785301,0.000000,0.300000,0.000000,-1.570790,0.000000,2.000000,-0.785300,0.000000,0.300000,0.000000,-1.570790,0.000000,2.000000,-0.785300,0.0400,0.051434,0.6696,-0.0006,0.3350
47.1000,0.000000,0.340655,-0.000416,-1.601198,-0.002077,1.992037,-0.785301,0.000000,0.300000,0.000000,-1.570790,0.000000,2.000000,-0.785300,0.000000,0.300000,0.000000,-1.570790,0.000000,2.000000,-0.785300,0.0400,0.051434,0.6696,-0.0006,0.3350
47.4000,-0.000000,0.340655,-0.000416,-1.601198,-0.002077,1.992037,-0.785301,0.000000,0.300000,0.000000,-1.570790,0.000000,2.000000,-0.785300,0.000000,0.300000,0.000000,-1.570790,0.000000,2.000000,-0.785300,0.0400,0.051434,0.6696,-0.0006,0.3350
47.7000,0.000000,0.340655,-0.000416,-1.601198,-0.002077,1.992037,-0.785301,0.000000,0.300000,0.000000,-1.570790,0.000000,2.000000,-0.785300,0.000000,0.300000,0.000000,-1.570790,0.000000,2.000000,-0.785300,0.0400,0.051434,0.6696,-0.0006,0.3350
48.0000,0.000000,0.340655,-0.000416,-1.601198,-0.002077,1.992037,-0.785301,0.000000,0.300000,0.000000,-1.570790,0.000000,2.000000,-0.785300,0.000000,0.300000,0.000000,-1.570790,0.000000,2.000000,-0.785300,0.0400,0.051434,0.6696,-0.0006,0.3350
48.3000,-0.000000,0.340655,-0.000416,-1.601198,-0.002077,1.992037,-0.785301,0.000000,0.300000,0.000000,-1.570790,0.000000,2.000000,-0.785300,0.000000,0.300000,0.000000,-1.570790,0.000000,2.000000,-0.785300,0.0400,0.051434,0.6696,-0.0006,0.3350
48.6000,0.000000,0.340655,-0.000416,-1.601198,-0.002077,1.992037,-0.785301,0.000000,0.300000,0.000000,-1.570790,0.000000,2.000000,-0.785300,0.000000,0.300000,0.000000,-1.570790,0.000000,2.000000,-0.785300,0.0400,0.051434,0.6696,-0.0006,0.3350
48.9000,0.000000,0.340655,-0.000416,-1.601198,-0.002077,1.992037,-0.785301,0.000000,0.300000,0.000000,-1.570790,0.000000,2.000000,-0.785300,0.000000,0.300000,0.000000,-1.570790,0.000000,2.000000,-0.785300,0.0400,0.051434,0.6696,-0.0006,0.3350
49.2000,0.000000,0.340655,-0.000416,-1.601198,-0.002077,1.992037,-0.785301,0.000000,0.300000,0.000000,-1.570790,0.000000,2.000000,-0.785300,0.000000,0.300000,0.000000,-1.570790,0.000000,2.000000,-0.785300,0.0400,0.051434,0.6696,-0.0006,0.3350
49.5000,-0.000000,0.340655,-0.000416,-1.601198,-0.002077,1.992037,-0.785301,0.000000,0.300000,0.000000,-1.570790,0.000000,2.000000,-0.785300,0.000000,0.300000,0.000000,-1.570790,0.000000,2.000000,-0.785300,0.0400,0.051434,0.6696,-0.0006,0.3350
49.8000,0.000000,0.340655,-0.000416,-1.601198,-0.002077,1.992037,-0.785301,0.000000,0.300000,0.000000,-1.570790,0.000000,2.000000,-0.785300,0.000000,0.300000,0.000000,-1.570790,0.000000,2.000000,-0.785300,0.0400,0.051434,0.6696,-0.0006,0.3350
50.1000,0.000000,0.340655,-0.000416,-1.601198,-0.002077,1.992037,-0.785301,0.000000,0.300000,0.000000,-1.570790,0.000000,2.000000,-0.785300,0.000000,0.300000,0.000000,-1.570790,0.000000,2.000000,-0.785300,0.0400,0.051434,0.6696,-0.0006,0.3350
50.4000,-0.000000,0.340655,-0.000416,-1.601198,-0.002077,1.992037,-0.785301,0.000000,0.300000,0.000000,-1.570790,0.000000,2.000000,-0.785300,0.000000,0.300000,0.000000,-1.570790,0.000000,2.000000,-0.785300,0.0400,0.051434,0.6696,-0.0006,0.3350
50.7000,0.000000,0.340655,-0.000416,-1.601198,-0.002077,1.992037,-0.785301,0.000000,0.300000,0.000000,-1.570790,0.000000,2.000000,-0.785300,0.000000,0.300000,0.000000,-1.570790,0.000000,2.000000,-0.785300,0.0400,0.051434,0.6696,-0.0006,0.3350
51.0000,0.000000,0.340655,-0.000416,-1.601198,-0.002077,1.992037,-0.785301,0.000000,0.300000,0.000000,-1.570790,0.000000,2.000000,-0.785300,0.000000,0.300000,0.000000,-1.570790,0.000000,2.000000,-0.785300,0.0400,0.051434,0.6696,-0.0006,0.3350
51.3000,0.000000,0.340655,-0.000416,-1.601198,-0.002077,1.992037,-0.785301,0.000000,0.300000,0.000000,-1.570790,0.000000,2.000000,-0.785300,0.000000,0.300000,0.000000,-1.570790,0.000000,2.000000,-0.785300,0.0400,0.051434,0.6696,-0.0006,0.3350
51.6000,-0.000000,0.340655,-0.000416,-1.601198,-0.002077,1.992037,-0.785301,0.000000,0.300000,0.000000,-1.570790,0.000000,2.000000,-0.785300,0.000000,0.300000,0.000000,-1.570790,0.000000,2.000000,-0.785300,0.0400,0.051434,0.6696,-0.0006,0.3350
51.9000,0.000000,0.340655,-0.000416,-1.601198,-0.002077,1.992037,-0.785301,0.000000,0.300000,0.000000,-1.570790,0.000000,2.000000,-0.785300,0.000000,0.300000,0.000000,-1.570790,0.000000,2.000000,-0.785300,0.0400,0.051434,0.6696,-0.0006,0.3350
52.2000,0.000000,0.340655,-0.000416,-1.601198,-0.002077,1.992037,-0.785301,0.000000,0.300000,0.000000,-1.570790,0.000000,2.000000,-0.785300,0.000000,0.300000,0.000000,-1.570790,0.000000,2.000000,-0.785300,0.0400,0.051434,0.6696,-0.0006,0.3350
52.5000,-0.000000,0.340655,-0.000416,-1.601198,-0.002077,1.992037,-0.785301,0.000000,0.300000,0.000000,-1.570790,0.000000,2.000000,-0.785300,0.000000,0.300000,0.000000,-1.570790,0.000000,2.000000,-0.785300,0.0400,0.051434,0.6696,-0.0006,0.3350
52.8000,0.000000,0.340655,-0.000416,-1.601198,-0.002077,1.992037,-0.785301,0.000000,0.300000,0.000000,-1.570790,0.000000,2.000000,-0.785300,0.000000,0.300000,0.000000,-1.570790,0.000000,2.000000,-0.785300,0.0400,0.051434,0.6696,-0.0006,0.3350
53.1000,0.000000,0.340655,-0.000416,-1.601198,-0.002077,1.992037,-0.785301,0.000000,0.300000,0.000000,-1.570790,0.000000,2.000000,-0.785300,0.000000,0.300000,0.000000,-1.570790,0.000000,2.000000,-0.785300,0.0400,0.051434,0.6696,-0.0006,0.3350
53.4000,0.000000,0.340655,-0.000416,-1.601198,-0.002077,1.992037,-0.785301,0.000000,0.300000,0.000000,-1.570790,0.000000,2.000000,-0.785300,0.000000,0.300000,0.000000,-1.570790,0.000000,2.000000,-0.785300,0.0400,0.051434,0.6696,-0.0006,0.3350
53.7000,-0.000000,0.340655,-0.000416,-1.601198,-0.002077,1.992037,-0.785301,0.000000,0.300000,0.000000,-1.570790,0.000000,2.000000,-0.785300,0.000000,0.300000,0.000000,-1.570790,0.000000,2.000000,-0.785300,0.0400,0.051434,0.6696,-0.0006,0.3350
54.0000,0.000000,0.340655,-0.000416,-1.601198,-0.002077,1.992037,-0.785301,0.000000,0.300000,0.000000,-1.570790,0.000000,2.000000,-0.785300,0.000000,0.300000,0.000000,-1.570790,0.000000,2.000000,-0.785300,0.0400,0.051434,0.6696,-0.0006,0.3350
54.3000,0.000000,0.340655,-0.000416,-1.601198,-0.002077,1.992037,-0.785301,0.000000,0.300000,0.000000,-1.570790,0.000000,2.000000,-0.785300,0.000000,0.300000,0.000000,-1.570790,0.000000,2.000000,-0.785300,0.0400,0.051434,0.6696,-0.0006,0.3350
54.6000,-0.000000,0.340655,-0.000416,-1.601198,-0.002077,1.992037,-0.785301,0.000000,0.300000,0.000000,-1.570790,0.000000,2.000000,-0.785300,0.000000,0.300000,0.000000,-1.570790,0.000000,2.000000,-0.785300,0.0400,0.051434,0.6696,-0.0006,0.3350
54.9000,0.000000,0.340655,-0.000416,-1.601198,-0.002077,1.992037,-0.785301,0.000000,0.300000,0.000000,-1.570790,0.000000,2.000000,-0.785300,0.000000,0.300000,0.000000,-1.570790,0.000000,2.000000,-0.785300,0.0400,0.051434,0.6696,-0.0006,0.3350
55.2000,0.000000,0.340655,-0.000416,-1.601198,-0.002077,1.992037,-0.785301,0.000000,0.300000,0.000000,-1.570790,0.000000,2.000000,-0.785300,0.000000,0.300000,0.000000,-1.570790,0.000000,2.000000,-0.785300,0.0400,0.051434,0.6696,-0.0006,0.3350
55.5000,0.000000,0.340655,-0.000416,-1.601198,-0.002077,1.992037,-0.785301,0.000000,0.300000,0.000000,-1.570790,0.000000,2.000000,-0.785300,0.000000,0.300000,0.000000,-1.570790,0.000000,2.000000,-0.785300,0.0400,0.051434,0.6696,-0.0006,0.3350
55.8000,-0.000000,0.340655,-0.000416,-1.601198,-0.002077,1.992037,-0.785301,0.000000,0.300000,0.000000,-1.570790,0.000000,2.000000,-0.785300,0.000000,0.300000,0.000000,-1.570790,0.000000,2.000000,-0.785300,0.0400,0.051434,0.6696,-0.0006,0.3350
56.1000,0.000000,0.340655,-0.000416,-1.601198,-0.002077,1.992037,-0.785301,0.000000,0.300000,0.000000,-1.570790,0.000000,2.000000,-0.785300,0.000000,0.300000,0.000000,-1.570790,0.000000,2.000000,-0.785300,0.0400,0.051434,0.6696,-0.0006,0.3350
56.4000,0.000000,0.340655,-0.000416,-1.601198,-0.002077,1.992037,-0.785301,0.000000,0.300000,0.000000,-1.570790,0.000000,2.000000,-0.785300,0.000000,0.300000,0.000000,-1.570790,0.000000,2.000000,-0.785300,0.0400,0.051434,0.6696,-0.0006,0.3350
56.7000,-0.000000,0.340655,-0.000416,-1.601198,-0.002077,1.992037,-0.785301,0.000000,0.300000,0.000000,-1.570790,0.000000,2.000000,-0.785300,0.000000,0.300000,0.000000,-1.570790,0.000000,2.000000,-0.785300,0.0400,0.051434,0.6696,-0.0006,0.3350
57.0000,0.000000,0.340655,-0.000416,-1.601198,-0.002077,1.992037,-0.785301,0.000000,0.300000,0.000000,-1.570790,0.000000,2.000000,-0.785300,0.000000,0.300000,0.000000,-1.570790,0.000000,2.000000,-0.785300,0.0400,0.051434,0.6696,-0.0006,0.3350
57.3000,0.000000,0.340655,-0.000416,-1.601198,-0.002077,1.992037,-0.785301,0.000000,0.300000,0.000000,-1.570790,0.000000,2.000000,-0.785300,0.000000,0.300000,0.000000,-1.570790,0.000000,2.000000,-0.785300,0.0400,0.051434,0.6696,-0.0006,0.3350
57.6000,0.000000,0.340655,-0.000416,-1.601198,-0.002077,1.992037,-0.785301,0.000000,0.300000,0.000000,-1.570790,0.000000,2.000000,-0.785300,0.000000,0.300000,0.000000,-1.570790,0.000000,2.000000,-0.785300,0.0400,0.051434,0.6696,-0.0006,0.3350
57.9000,-0.000000,0.340655,-0.000416,-1.601198,-0.002077,1.992037,-0.785301,0.000000,0.300000,0.000000,-1.570790,0.000000,2.000000,-0.785300,0.000000,0.300000,0.000000,-1.570790,0.000000,2.000000,-0.785300,0.0400,0.051434,0.6696,-0.0006,0.3350
58.2000,0.000000,0.340655,-0.000416,-1.601198,-0.002077,1.992037,-0.785301,0.000000,0.300000,0.000000,-1.570790,0.000000,2.000000,-0.785300,0.000000,0.300000,0.000000,-1.570790,0.000000,2.000000,-0.785300,0.0400,0.051434,0.6696,-0.0006,0.3350
58.5000,0.000000,0.340655,-0.000416,-1.601198,-0.002077,1.992037,-0.785301,0.000000,0.300000,0.000000,-1.570790,0.000000,2.000000,-0.785300,0.000000,0.300000,0.000000,-1.570790,0.000000,2.000000,-0.785300,0.0400,0.051434,0.6696,-0.0006,0.3350
58.8000,-0.000000,0.340655,-0.000416,-1.601198,-0.002077,1.992037,-0.785301,0.000000,0.300000,0.000000,-1.570790,0.000000,2.000000,-0.785300,0.000000,0.300000,0.000000,-1.570790,0.000000,2.000000,-0.785300,0.0400,0.051434,0.6696,-0.0006,0.3350
59.1000,0.000000,0.340655,-0.000416,-1.601198,-0.002077,1.992037,-0.785301,0.000000,0.300000,0.000000,-1.570790,0.000000,2.000000,-0.785300,0.000000,0.300000,0.000000,-1.570790,0.000000,2.000000,-0.785300,0.0400,0.051434,0.6696,-0.0006,0.3350
59.4000,0.000000,0.340655,-0.000416,-1.601198,-0.002077,1.992037,-0.785301,0.000000,0.300000,0.000000,-1.570790,0.000000,2.000000,-0.785300,0.000000,0.300000,0.000000,-1.570790,0.000000,2.000000,-0.785300,0.0400,0.051434,0.6696,-0.0006,0.3350
59.7000,0.000000,0.340655,-0.000416,-1.601198,-0.002077,1.992037,-0.785301,0.000000,0.300000,0.000000,-1.570790,0.000000,2.000000,-0.785300,0.000000,0.300000,0.000000,-1.570790,0.000000,2.000000,-0.785300,0.0400,0.051434,0.6696,-0.0006,0.3350
60.0000,-0.000000,0.340655,-0.000416,-1.601198,-0.002077,1.992037,-0.785301,0.000000,0.300000,0.000000,-1.570790,0.000000,2.000000,-0.785300,0.000000,0.300000,0.000000,-1.570790,0.000000,2.000000,-0.785300,0.0400,0.051434,0.6696,-0.0006,0.3350
60.3000,0.000000,0.340655,-0.000416,-1.601198,-0.002077,1.992037,-0.785301,0.000000,0.300000,0.000000,-1.570790,0.000000,2.000000,-0.785300,0.000000,0.300000,0.000000,-1.570790,0.000000,2.000000,-0.785300,0.0400,0.051434,0.6696,-0.0006,0.3350
60.6000,0.000000,0.340655,-0.000416,-1.601198,-0.002077,1.992037,-0.785301,0.000000,0.300000,0.000000,-1.570790,0.000000,2.000000,-0.785300,0.000000,0.300000,0.000000,-1.570790,0.000000,2.000000,-0.785300,0.0400,0.051434,0.6696,-0.0006,0.3350
60.9000,-0.000000,0.340655,-0.000416,-1.601198,-0.002077,1.992037,-0.785301,0.000000,0.300000,0.000000,-1.570790,0.000000,2.000000,-0.785300,0.000000,0.300000,0.000000,-1.570790,0.000000,2.000000,-0.785300,0.0400,0.051434,0.6696,-0.0006,0.3350
61.2000,0.000000,0.340655,-0.000416,-1.601198,-0.002077,1.992037,-0.785301,0.000000,0.300000,0.000000,-1.570790,0.000000,2.000000,-0.785300,0.000000,0.300000,0.000000,-1.570790,0.000000,2.000000,-0.785300,0.0400,0.051434,0.6696,-0.0006,0.3350
61.5000,0.000000,0.340655,-0.000416,-1.601198,-0.002077,1.992037,-0.785301,0.000000,0.300000,0.000000,-1.570790,0.000000,2.000000,-0.785300,0.000000,0.300000,0.000000,-1.570790,0.000000,2.000000,-0.785300,0.0400,0.051434,0.6696,-0.0006,0.3350
61.8000,0.000000,0.340655,-0.000416,-1.601198,-0.002077,1.992037,-0.785301,0.000000,0.300000,0.000000,-1.570790,0.000000,2.000000,-0.785300,0.000000,0.300000,0.000000,-1.570790,0.000000,2.000000,-0.785300,0.0400,0.051434,0.6696,-0.0006,0.3350
62.1000,-0.000000,0.340655,-0.000416,-1.601198,-0.002077,1.992037,-0.785301,0.000000,0.300000,0.000000,-1.570790,0.000000,2.000000,-0.785300,0.000000,0.300000,0.000000,-1.570790,0.000000,2.000000,-0.785300,0.0400,0.051434,0.6696,-0.0006,0.3350
62.4000,0.000000,0.340655,-0.000416,-1.601198,-0.002077,1.992037,-0.785301,0.000000,0.300000,0.000000,-1.570790,0.000000,2.000000,-0.785300,0.000000,0.300000,0.000000,-1.570790,0.000000,2.000000,-0.785300,0.0400,0.051434,0.6696,-0.0006,0.3350
62.7000,0.000000,0.340655,-0.000416,-1.601198,-0.002077,1.992037,-0.785301,0.000000,0.300000,0.000000,-1.570790,0.000000,2.000000,-0.785300,0.000000,0.300000,0.000000,-1.570790,0.000000,2.000000,-0.785300,0.0400,0.051434,0.6696,-0.0006,0.3350
63.0000,-0.000000,0.340655,-0.000416,-1.601198,-0.002077,1.992037,-0.785301,0.000000,0.300000,0.000000,-1.570790,0.000000,2.000000,-0.785300,0.000000,0.300000,0.000000,-1.570790,0.000000,2.000000,-0.785300,0.0400,0.051434,0.6696,-0.0006,0.3350
63.3000,0.000000,0.340655,-0.000416,-1.601198,-0.002077,1.992037,-0.785301,0.000000,0.300000,0.000000,-1.570790,0.000000,2.000000,-0.785300,0.000000,0.300000,0.000000,-1.570790,0.000000,2.000000,-0.785300,0.0400,0.051434,0.6696,-0.0006,0.3350
63.6000,0.000000,0.340655,-0.000416,-1.601198,-0.002077,1.992037,-0.785301,0.000000,0.300000,0.000000,-1.570790,0.000000,2.000000,-0.785300,0.000000,0.300000,0.000000,-1.570790,0.000000,2.000000,-0.785300,0.0400,0.051434,0.6696,-0.0006,0.3350
63.9000,0.000000,0.340655,-0.000416,-1.601198,-0.002077,1.992037,-0.785301,0.000000,0.300000,0.000000,-1.570790,0.000000,2.000000,-0.785300,0.000000,0.300000,0.000000,-1.570790,0.000000,2.000000,-0.785300,0.0400,0.051434,0.6696,-0.0006,0.3350
64.2000,-0.000000,0.340655,-0.000416,-1.601198,-0.002077,1.992037,-0.785301,0.000000,0.300000,0.000000,-1.570790,0.000000,2.000000,-0.785300,0.000000,0.300000,0.000000,-1.570790,0.000000,2.000000,-0.785300,0.0400,0.051434,0.6696,-0.0006,0.3350
64.5000,0.000000,0.340655,-0.000416,-1.601198,-0.002077,1.992037,-0.785301,0.000000,0.300000,0.000000,-1.570790,0.000000,2.000000,-0.785300,0.000000,0.300000,0.000000,-1.570790,0.000000,2.000000,-0.785300,0.0400,0.051434,0.6696,-0.0006,0.3350
64.8000,0.000000,0.340655,-0.000416,-1.601198,-0.002077,1.992037,-0.785301,0.000000,0.300000,0.000000,-1.570790,0.000000,2.000000,-0.785300,0.000000,0.300000,0.000000,-1.570790,0.000000,2.000000,-0.785300,0.0400,0.051434,0.6696,-0.0006,0.3350
65.1000,-0.000000,0.340655,-0.000416,-1.601198,-0.002077,1.992037,-0.785301,0.000000,0.300000,0.000000,-1.570790,0.000000,2.000000,-0.785300,0.000000,0.300000,0.000000,-1.570790,0.000000,2.000000,-0.785300,0.0400,0.051434,0.6696,-0.0006,0.3350
65.4000,0.000000,0.340655,-0.000416,-1.601198,-0.002077,1.992037,-0.785301,0.000000,0.300000,0.000000,-1.570790,0.000000,2.000000,-0.785300,0.000000,0.300000,0.000000,-1.570790,0.000000,2.000000,-0.785300,0.0400,0.051434,0.6696,-0.0006,0.3350
65.7000,0.000000,0.340655,-0.000416,-1.601198,-0.002077,1.992037,-0.785301,0.000000,0.300000,0.000000,-1.570790,0.000000,2.000000,-0.785300,0.000000,0.300000,0.000000,-1.570790,0.000000,2.000000,-0.785300,0.0400,0.051434,0.6696,-0.0006,0.3350
66.0000,0.000000,0.340655,-0.000416,-1.601198,-0.002077,1.992037,-0.785301,0.000000,0.300000,0.000000,-1.570790,0.000000,2.000000,-0.785300,0.000000,0.300000,0.000000,-1.570790,0.000000,2.000000,-0.785300,0.0400,0.051434,0.6696,-0.0006,0.3350
66.3000,-0.000000,0.340655,-0.000416,-1.601198,-0.002077,1.992037,-0.785301,0.000000,0.300000,0.000000,-1.570790,0.000000,2.000000,-0.785300,0.000000,0.300000,0.000000,-1.570790,0.000000,2.000000,-0.785300,0.0400,0.051434,0.6696,-0.0006,0.3350
66.6000,0.000000,0.340655,-0.000416,-1.601198,-0.002077,1.992037,-0.785301,0.000000,0.300000,0.000000,-1.570790,0.000000,2.000000,-0.785300,0.000000,0.300000,0.000000,-1.570790,0.000000,2.000000,-0.785300,0.0400,0.051434,0.6696,-0.0006,0.3350
66.9000,0.000000,0.340655,-0.000416,-1.601198,-0.002077,1.992037,-0.785301,0.000000,0.300000,0.000000,-1.570790,0.000000,2.000000,-0.785300,0.000000,0.300000,0.000000,-1.570790,0.000000,2.000000,-0.785300,0.0400,0.051434,0.6696,-0.0006,0.3350
67.2000,-0.000000,0.340655,-0.000416,-1.601198,-0.002077,1.992037,-0.785301,0.000000,0.300000,0.000000,-1.570790,0.000000,2.000000,-0.785300,0.000000,0.300000,0.000000,-1.570790,0.000000,2.000000,-0.785300,0.0400,0.051434,0.6696,-0.0006,0.3350
67.5000,0.000000,0.340655,-0.000416,-1.601198,-0.002077,1.992037,-0.785301,0.000000,0.300000,0.000000,-1.570790,0.000000,2.000000,-0.785300,0.000000,0.300000,0.000000,-1.570790,0.000000,2.000000,-0.785300,0.0400,0.051434,0.6696,-0.0006,0.3350
67.8000,0.000000,0.340655,-0.000416,-1.601198,-0.002077,1.992037,-0.785301,0.000000,0.300000,0.000000,-1.570790,0.000000,2.000000,-0.785300,0.000000,0.300000,0.000000,-1.570790,0.000000,2.000000,-0.785300,0.0400,0.051434,0.6696,-0.0006,0.3350
68.1000,0.000000,0.340655,-0.000416,-1.601198,-0.002077,1.992037,-0.785301,0.000000,0.300000,0.000000,-1.570790,0.000000,2.000000,-0.785300,0.000000,0.300000,0.000000,-1.570790,0.000000,2.000000,-0.785300,0.0400,0.051434,0.6696,-0.0006,0.3350
68.4000,-0.000000,0.340655,-0.000416,-1.601198,-0.002077,1.992037,-0.785301,0.000000,0.300000,0.000000,-1.570790,0.000000,2.000000,-0.785300,0.000000,0.300000,0.000000,-1.570790,0.000000,2.000000,-0.785300,0.0400,0.051434,0.6696,-0.0006,0.3350
68.7000,0.000000,0.340655,-0.000416,-1.601198,-0.002077,1.992037,-0.785301,0.000000,0.300000,0.000000,-1.570790,0.000000,2.000000,-0.785300,0.000000,0.300000,0.000000,-1.570790,0.000000,2.000000,-0.785300,0.0400,0.051434,0.6696,-0.0006,0.3350
69.0000,0.000000,0.340655,-0.000416,-1.601198,-0.002077,1.992037,-0.785301,0.000000,0.300000,0.000000,-1.570790,0.000000,2.000000,-0.785300,0.000000,0.300000,0.000000,-1.570790,0.000000,2.000000,-0.785300,0.0400,0.051434,0.6696,-0.0006,0.3350
69.3000,-0.000000,0.340655,-0.000416,-1.601198,-0.002077,1.992037,-0.785301,0.000000,0.300000,0.000000,-1.570790,0.000000,2.000000,-0.785300,0.000000,0.300000,0.000000,-1.570790,0.000000,2.000000,-0.785300,0.0400,0.051434,0.6696,-0.0006,0.3350
69.6000,0.000000,0.340655,-0.000416,-1.601198,-0.002077,1.992037,-0.785301,0.000000,0.300000,0.000000,-1.570790,0.000000,2.000000,-0.785300,0.000000,0.300000,0.000000,-1.570790,0.000000,2.000000,-0.785300,0.0400,0.051434,0.6696,-0.0006,0.3350
69.9000,0.000000,0.340655,-0.000416,-1.601198,-0.002077,1.992037,-0.785301,0.000000,0.300000,0.000000,-1.570790,0.000000,2.000000,-0.785300,0.000000,0.300000,0.000000,-1.570790,0.000000,2.000000,-0.785300,0.0400,0.051434,0.6696,-0.0006,0.3350
70.2000,0.000000,0.340655,-0.000416,-1.601198,-0.002077,1.992037,-0.785301,0.000000,0.300000,0.000000,-1.570790,0.000000,2.000000,-0.785300,0.000000,0.300000,0.000000,-1.570790,0.000000,2.000000,-0.785300,0.0400,0.051434,0.6696,-0.0006,0.3350
70.5000,-0.000000,0.340655,-0.000416,-1.601198,-0.002077,1.992037,-0.785301,0.000000,0.300000,0.000000,-1.570790,0.000000,2.000000,-0.785300,0.000000,0.300000,0.000000,-1.570790,0.000000,2.000000,-0.785300,0.0400,0.051434,0.6696,-0.0006,0.3350
70.8000,0.000000,0.340655,-0.000416,-1.601198,-0.002077,1.992037,-0.785301,0.000000,0.300000,0.000000,-1.570790,0.000000,2.000000,-0.785300,0.000000,0.300000,0.000000,-1.570790,0.000000,2.000000,-0.785300,0.0400,0.051434,0.6696,-0.0006,0.3350
71.1000,0.000000,0.340655,-0.000416,-1.601198,-0.002077,1.992037,-0.785301,0.000000,0.300000,0.000000,-1.570790,0.000000,2.000000,-0.785300,0.000000,0.300000,0.000000,-1.570790,0.000000,2.000000,-0.785300,0.0400,0.051434,0.6696,-0.0006,0.3350
71.4000,-0.000000,0.340655,-0.000416,-1.601198,-0.002077,1.992037,-0.785301,0.000000,0.300000,0.000000,-1.570790,0.000000,2.000000,-0.785300,0.000000,0.300000,0.000000,-1.570790,0.000000,2.000000,-0.785300,0.0400,0.051434,0.6696,-0.0006,0.3350
71.7000,0.000000,0.340655,-0.000416,-1.601198,-0.002077,1.992037,-0.785301,0.000000,0.300000,0.000000,-1.570790,0.000000,2.000000,-0.785300,0.000000,0.300000,0.000000,-1.570790,0.000000,2.000000,-0.785300,0.0400,0.051434,0.6696,-0.0006,0.3350
72.0000,0.000000,0.340655,-0.000416,-1.601198,-0.002077,1.992037,-0.785301,0.000000,0.300000,0.000000,-1.570790,0.000000,2.000000,-0.785300,0.000000,0.300000,0.000000,-1.570790,0.000000,2.000000,-0.785300,0.0400,0.051434,0.6696,-0.0006,0.3350
72.3000,0.000000,0.340655,-0.000416,-1.601198,-0.002077,1.992037,-0.785301,0.000000,0.300000,0.000000,-1.570790,0.000000,2.000000,-0.785300,0.000000,0.300000,0.000000,-1.570790,0.000000,2.000000,-0.785300,0.0400,0.051434,0.6696,-0.0006,0.3350
72.6000,-0.000000,0.340655,-0.000416,-1.601198,-0.002077,1.992037,-0.785301,0.000000,0.300000,0.000000,-1.570790,0.000000,2.000000,-0.785300,0.000000,0.300000,0.000000,-1.570790,0.000000,2.000000,-0.785300,0.0400,0.051434,0.6696,-0.0006,0.3350
72.9000,0.000000,0.340655,-0.000416,-1.601198,-0.002077,1.992037,-0.785301,0.000000,0.300000,0.000000,-1.570790,0.000000,2.000000,-0.785300,0.000000,0.300000,0.000000,-1.570790,0.000000,2.000000,-0.785300,0.0400,0.051434,0.6696,-0.0006,0.3350
73.2000,0.000000,0.340655,-0.000416,-1.601198,-0.002077,1.992037,-0.785301,0.000000,0.300000,0.000000,-1.570790,0.000000,2.000000,-0.785300,0.000000,0.300000,0.000000,-1.570790,0.000000,2.000000,-0.785300,0.0400,0.051434,0.6696,-0.0006,0.3350
73.5000,-0.000000,0.340655,-0.000416,-1.601198,-0.002077,1.992037,-0.785301,0.000000,0.300000,0.000000,-1.570790,0.000000,2.000000,-0.785300,0.000000,0.300000,0.000000,-1.570790,0.000000,2.000000,-0.785300,0.0400,0.051434,0.6696,-0.0006,0.3350
73.8000,0.000000,0.340655,-0.000416,-1.601198,-0.002077,1.992037,-0.785301,0.000000,0.300000,0.000000,-1.570790,0.000000,2.000000,-0.785300,0.000000,0.300000,0.000000,-1.570790,0.000000,2.000000,-0.785300,0.0400,0.051434,0.6696,-0.0006,0.3350
74.1000,0.000000,0.340655,-0.000416,-1.601198,-0.002077,1.992037,-0.785301,0.000000,0.300000,0.000000,-1.570790,0.000000,2.000000,-0.785300,0.000000,0.300000,0.000000,-1.570790,0.000000,2.000000,-0.785300,0.0400,0.051434,0.6696,-0.0006,0.3350
74.4000,0.000000,0.340655,-0.000416,-1.601198,-0.002077,1.992037,-0.785301,0.000000,0.300000,0.000000,-1.570790,0.000000,2.000000,-0.785300,0.000000,0.300000,0.000000,-1.570790,0.000000,2.000000,-0.785300,0.0400,0.051434,0.6696,-0.0006,0.3350
74.7000,-0.000000,0.340655,-0.000416,-1.601198,-0.002077,1.992037,-0.785301,0.000000,0.300000,0.000000,-1.570790,0.000000,2.000000,-0.785300,0.000000,0.300000,0.000000,-1.570790,0.000000,2.000000,-0.785300,0.0400,0.051434,0.6696,-0.0006,0.3350
75.0000,0.000000,0.340655,-0.000416,-1.601198,-0.002077,1.992037,-0.785301,0.000000,0.300000,0.000000,-1.570790,0.000000,2.000000,-0.785300,0.000000,0.300000,0.000000,-1.570790,0.000000,2.000000,-0.785300,0.0400,0.051434,0.6696,-0.0006,0.3350
75.3000,0.000000,0.340655,-0.000416,-1.601198,-0.002077,1.992037,-0.785301,0.000000,0.300000,0.000000,-1.570790,0.000000,2.000000,-0.785300,0.000000,0.300000,0.000000,-1.570790,0.000000,2.000000,-0.785300,0.0400,0.051434,0.6696,-0.0006,0.3350
75.6000,-0.000000,0.340655,-0.000416,-1.601198,-0.002077,1.992037,-0.785301,0.000000,0.300000,0.000000,-1.570790,0.000000,2.000000,-0.785300,0.000000,0.300000,0.000000,-1.570790,0.000000,2.000000,-0.785300,0.0400,0.051434,0.6696,-0.0006,0.3350
75.9000,0.000000,0.340655,-0.000416,-1.601198,-0.002077,1.992037,-0.785301,0.000000,0.300000,0.000000,-1.570790,0.000000,2.000000,-0.785300,0.000000,0.300000,0.000000,-1.570790,0.000000,2.000000,-0.785300,0.0400,0.051434,0.6696,-0.0006,0.3350
76.2000,0.000000,0.340655,-0.000416,-1.601198,-0.002077,1.992037,-0.785301,0.000000,0.300000,0.000000,-1.570790,0.000000,2.000000,-0.785300,0.000000,0.300000,0.000000,-1.570790,0.000000,2.000000,-0.785300,0.0400,0.051434,0.6696,-0.0006,0.3350
76.5000,0.000000,0.340655,-0.000416,-1.601198,-0.002077,1.992037,-0.785301,0.000000,0.300000,0.000000,-1.570790,0.000000,2.000000,-0.785300,0.000000,0.300000,0.000000,-1.570790,0.000000,2.000000,-0.785300,0.0400,0.051434,0.6696,-0.0006,0.3350
76.8000,-0.000000,0.340655,-0.000416,-1.601198,-0.002077,1.992037,-0.785301,0.000000,0.300000,0.000000,-1.570790,0.000000,2.000000,-0.785300,0.000000,0.300000,0.000000,-1.570790,0.000000,2.000000,-0.785300,0.0400,0.051434,0.6696,-0.0006,0.3350
77.1000,0.000000,0.340655,-0.000416,-1.601198,-0.002077,1.992037,-0.785301,0.000000,0.300000,0.000000,-1.570790,0.000000,2.000000,-0.785300,0.000000,0.300000,0.000000,-1.570790,0.000000,2.000000,-0.785300,0.0400,0.051434,0.6696,-0.0006,0.3350
77.4000,0.000000,0.340655,-0.000416,-1.601198,-0.002077,1.992037,-0.785301,0.000000,0.300000,0.000000,-1.570790,0.000000,2.000000,-0.785300,0.000000,0.300000,0.000000,-1.570790,0.000000,2.000000,-0.785300,0.0400,0.051434,0.6696,-0.0006,0.3350
77.7000,-0.000000,0.340655,-0.000416,-1.601198,-0.002077,1.992037,-0.785301,0.000000,0.300000,0.000000,-1.570790,0.000000,2.000000,-0.785300,0.000000,0.300000,0.000000,-1.570790,0.000000,2.000000,-0.785300,0.0400,0.051434,0.6696,-0.0006,0.3350
78.0000,0.000000,0.340655,-0.000416,-1.601198,-0.002077,1.992037,-0.785301,0.000000,0.300000,0.000000,-1.570790,0.000000,2.000000,-0.785300,0.000000,0.300000,0.000000,-1.570790,0.000000,2.000000,-0.785300,0.0400,0.051434,0.6696,-0.0006,0.3350
78.3000,0.000000,0.340655,-0.000416,-1.601198,-0.002077,1.992037,-0.785301,0.000000,0.300000,0.000000,-1.570790,0.000000,2.000000,-0.785300,0.000000,0.300000,0.000000,-1.570790,0.000000,2.000000,-0.785300,0.0400,0.051434,0.6696,-0.0006,0.3350
78.6000,0.000000,0.340655,-0.000416,-1.601198,-0.002077,1.992037,-0.785301,0.000000,0.300000,0.000000,-1.570790,0.000000,2.000000,-0.785300,0.000000,0.300000,0.000000,-1.570790,0.000000,2.000000,-0.785300,0.0400,0.051434,0.6696,-0.0006,0.3350
78.9000,-0.000000,0.340655,-0.000416,-1.601198,-0.002077,1.992037,-0.785301,0.000000,0.300000,0.000000,-1.570790,0.000000,2.000000,-0.785300,0.000000,0.300000,0.000000,-1.570790,0.000000,2.000000,-0.785300,0.0400,0.051434,0.6696,-0.0006,0.3350
79.2000,0.000000,0.340655,-0.000416,-1.601198,-0.002077,1.992037,-0.785301,0.000000,0.300000,0.000000,-1.570790,0.000000,2.000000,-0.785300,0.000000,0.300000,0.000000,-1.570790,0.000000,2.000000,-0.785300,0.0400,0.051434,0.6696,-0.0006,0.3350
79.5000,0.000000,0.340655,-0.000416,-1.601198,-0.002077,1.992037,-0.785301,0.000000,0.300000,0.000000,-1.570790,0.000000,2.000000,-0.785300,0.000000,0.300000,0.000000,-1.570790,0.000000,2.000000,-0.785300,0.0400,0.051434,0.6696,-0.0006,0.3350
79.8000,-0.000000,0.340655,-0.000416,-1.601198,-0.002077,1.992037,-0.785301,0.000000,0.300000,0.000000,-1.570790,0.000000,2.000000,-0.785300,0.000000,0.300000,0.000000,-1.570790,0.000000,2.000000,-0.785300,0.0400,0.051434,0.6696,-0.0006,0.3350
80.1000,0.000000,0.340655,-0.000416,-1.601198,-0.002077,1.992037,-0.785301,0.000000,0.300000,0.000000,-1.570790,0.000000,2.000000,-0.785300,0.000000,0.300000,0.000000,-1.570790,0.000000,2.000000,-0.785300,0.0400,0.051434,0.6696,-0.0006,0.3350
80.4000,0.000000,0.340655,-0.000416,-1.601198,-0.002077,1.992037,-0.785301,0.000000,0.300000,0.000000,-1.570790,0.000000,2.000000,-0.785300,0.000000,0.300000,0.000000,-1.570790,0.000000,2.000000,-0.785300,0.0400,0.051434,0.6696,-0.0006,0.3350
80.7000,0.000000,0.340655,-0.000416,-1.601198,-0.002077,1.992037,-0.785301,0.000000,0.300000,0.000000,-1.570790,0.000000,2.000000,-0.785300,0.000000,0.300000,0.000000,-1.570790,0.000000,2.000000,-0.785300,0.0400,0.051434,0.6696,-0.0006,0.3350
81.0000,-0.000000,0.340655,-0.000416,-1.601198,-0.002077,1.992037,-0.785301,0.000000,0.300000,0.000000,-1.570790,0.000000,2.000000,-0.785300,0.000000,0.300000,0.000000,-1.570790,0.000000,2.000000,-0.785300,0.0400,0.051434,0.6696,-0.0006,0.3350
81.3000,0.000000,0.340655,-0.000416,-1.601198,-0.002077,1.992037,-0.785301,0.000000,0.300000,0.000000,-1.570790,0.000000,2.000000,-0.785300,0.000000,0.300000,0.000000,-1.570790,0.000000,2.000000,-0.785300,0.0400,0.051434,0.6696,-0.0006,0.3350
81.6000,0.000000,0.340655,-0.000416,-1.601198,-0.002077,1.992037,-0.785301,0.000000,0.300000,0.000000,-1.570790,0.000000,2.000000,-0.785300,0.000000,0.300000,0.000000,-1.570790,0.000000,2.000000,-0.785300,0.0400,0.051434,0.6696,-0.0006,0.3350
81.9000,-0.000000,0.340655,-0.000416,-1.601198,-0.002077,1.992037,-0.785301,0.000000,0.300000,0.000000,-1.570790,0.000000,2.000000,-0.785300,0.000000,0.300000,0.000000,-1.570790,0.000000,2.000000,-0.785300,0.0400,0.051434,0.6696,-0.0006,0.3350
82.2000,0.000000,0.340655,-0.000416,-1.601198,-0.002077,1.992037,-0.785301,0.000000,0.300000,0.000000,-1.570790,0.000000,2.000000,-0.785300,0.000000,0.300000,0.000000,-1.570790,0.000000,2.000000,-0.785300,0.0400,0.051434,0.6696,-0.0006,0.3350
82.5000,0.000000,0.340655,-0.000416,-1.601198,-0.002077,1.992037,-0.785301,0.000000,0.300000,0.000000,-1.570790,0.000000,2.000000,-0.785300,0.000000,0.300000,0.000000,-1.570790,0.000000,2.000000,-0.785300,0.0400,0.051434,0.6696,-0.0006,0.3350
82.8000,0.000000,0.340655,-0.000416,-1.601198,-0.002077,1.992037,-0.785301,0.000000,0.300000,0.000000,-1.570790,0.000000,2.000000,-0.785300,0.000000,0.300000,0.000000,-1.570790,0.000000,2.000000,-0.785300,0.0400,0.051434,0.6696,-0.0006,0.3350
83.1000,-0.000000,0.340655,-0.000416,-1.601198,-0.002077,1.992037,-0.785301,0.000000,0.300000,0.000000,-1.570790,0.000000,2.000000,-0.785300,0.000000,0.300000,0.000000,-1.570790,0.000000,2.000000,-0.785300,0.0400,0.051434,0.6696,-0.0006,0.3350
83.4000,0.000000,0.340655,-0.000416,-1.601198,-0.002077,1.992037,-0.785301,0.000000,0.300000,0.000000,-1.570790,0.000000,2.000000,-0.785300,0.000000,0.300000,0.000000,-1.570790,0.000000,2.000000,-0.785300,0.0400,0.051434,0.6696,-0.0006,0.3350
83.7000,0.000000,0.340655,-0.000416,-1.601198,-0.002077,1.992037,-0.785301,0.000000,0.300000,0.000000,-1.570790,0.000000,2.000000,-0.785300,0.000000,0.300000,0.000000,-1.570790,0.000000,2.000000,-0.785300,0.0400,0.051434,0.6696,-0.0006,0.3350
84.0000,-0.000000,0.340655,-0.000416,-1.601198,-0.002077,1.992037,-0.785301,0.000000,0.300000,0.000000,-1.570790,0.000000,2.000000,-0.785300,0.000000,0.300000,0.000000,-1.570790,0.000000,2.000000,-0.785300,0.0400,0.051434,0.6696,-0.0006,0.3350
84.3000,0.000000,0.340655,-0.000416,-1.601198,-0.002077,1.992037,-0.785301,0.000000,0.300000,0.000000,-1.570790,0.000000,2.000000,-0.785300,0.000000,0.300000,0.000000,-1.570790,0.000000,2.000000,-0.785300,0.0400,0.051434,0.6696,-0.0006,0.3350
84.6000,0.000000,0.340655,-0.000416,-1.601198,-0.002077,1.992037,-0.785301,0.000000,0.300000,0.000000,-1.570790,0.000000,2.000000,-0.785300,0.000000,0.300000,0.000000,-1.570790,0.000000,2.000000,-0.785300,0.0400,0.051434,0.6696,-0.0006,0.3350
84.9000,0.000000,0.340655,-0.000416,-1.601198,-0.002077,1.992037,-0.785301,0.000000,0.300000,0.000000,-1.570790,0.000000,2.000000,-0.785300,0.000000,0.300000,0.000000,-1.570790,0.000000,2.000000,-0.785300,0.0400,0.051434,0.6696,-0.0006,0.3350
85.2000,-0.000000,0.340655,-0.000416,-1.601198,-0.002077,1.992037,-0.785301,0.000000,0.300000,0.000000,-1.570790,0.000000,2.000000,-0.785300,0.000000,0.300000,0.000000,-1.570790,0.000000,2.000000,-0.785300,0.0400,0.051434,0.6696,-0.0006,0.3350
85.5000,0.000000,0.340655,-0.000416,-1.601198,-0.002077,1.992037,-0.785301,0.000000,0.300000,0.000000,-1.570790,0.000000,2.000000,-0.785300,0.000000,0.300000,0.000000,-1.570790,0.000000,2.000000,-0.785300,0.0400,0.051434,0.6696,-0.0006,0.3350
85.8000,0.000000,0.340655,-0.000416,-1.601198,-0.002077,1.992037,-0.785301,0.000000,0.300000,0.000000,-1.570790,0.000000,2.000000,-0.785300,0.000000,0.300000,0.000000,-1.570790,0.000000,2.000000,-0.785300,0.0400,0.051434,0.6696,-0.0006,0.3350
86.1000,-0.000000,0.340655,-0.000416,-1.601198,-0.002077,1.992037,-0.785301,0.000000,0.300000,0.000000,-1.570790,0.000000,2.000000,-0.785300,0.000000,0.300000,0.000000,-1.570790,0.000000,2.000000,-0.785300,0.0400,0.051434,0.6696,-0.0006,0.3350
86.4000,0.000000,0.340655,-0.000416,-1.601198,-0.002077,1.992037,-0.785301,0.000000,0.300000,0.000000,-1.570790,0.000000,2.000000,-0.785300,0.000000,0.300000,0.000000,-1.570790,0.000000,2.000000,-0.785300,0.0400,0.051434,0.6696,-0.0006,0.3350
86.7000,0.000000,0.340655,-0.000416,-1.601198,-0.002077,1.992037,-0.785301,0.000000,0.300000,0.000000,-1.570790,0.000000,2.000000,-0.785300,0.000000,0.300000,0.000000,-1.570790,0.000000,2.000000,-0.785300,0.0400,0.051434,0.6696,-0.0006,0.3350
87.0000,0.000000,0.340655,-0.000416,-1.601198,-0.002077,1.992037,-0.785301,0.000000,0.300000,0.000000,-1.570790,0.000000,2.000000,-0.785300,0.000000,0.300000,0.000000,-1.570790,0.000000,2.000000,-0.785300,0.0400,0.051434,0.6696,-0.0006,0.3350
87.3000,-0.000000,0.340655,-0.000416,-1.601198,-0.002077,1.992037,-0.785301,0.000000,0.300000,0.000000,-1.570790,0.000000,2.000000,-0.785300,0.000000,0.300000,0.000000,-1.570790,0.000000,2.000000,-0.785300,0.0400,0.051434,0.6696,-0.0006,0.3350
87.6000,0.000000,0.340655,-0.000416,-1.601198,-0.002077,1.992037,-0.785301,0.000000,0.300000,0.000000,-1.570790,0.000000,2.000000,-0.785300,0.000000,0.300000,0.000000,-1.570790,0.000000,2.000000,-0.785300,0.0400,0.051434,0.6696,-0.0006,0.3350
87.9000,0.000000,0.340655,-0.000416,-1.601198,-0.002077,1.992037,-0.785301,0.000000,0.300000,0.000000,-1.570790,0.000000,2.000000,-0.785300,0.000000,0.300000,0.000000,-1.570790,0.000000,2.000000,-0.785300,0.0400,0.051434,0.6696,-0.0006,0.3350
88.2000,-0.000000,0.340655,-0.000416,-1.601198,-0.002077,1.992037,-0.785301,0.000000,0.300000,0.000000,-1.570790,0.000000,2.000000,-0.785300,0.000000,0.300000,0.000000,-1.570790,0.000000,2.000000,-0.785300,0.0400,0.051434,0.6696,-0.0006,0.3350
88.5000,0.000000,0.340655,-0.000416,-1.601198,-0.002077,1.992037,-0.785301,0.000000,0.300000,0.000000,-1.570790,0.000000,2.000000,-0.785300,0.000000,0.300000,0.000000,-1.570790,0.000000,2.000000,-0.785300,0.0400,0.051434,0.6696,-0.0006,0.3350
88.8000,0.000000,0.340655,-0.000416,-1.601198,-0.002077,1.992037,-0.785301,0.000000,0.300000,0.000000,-1.570790,0.000000,2.000000,-0.785300,0.000000,0.300000,0.000000,-1.570790,0.000000,2.000000,-0.785300,0.0400,0.051434,0.6696,-0.0006,0.3350
89.1000,0.000000,0.340655,-0.000416,-1.601198,-0.002077,1.992037,-0.785301,0.000000,0.300000,0.000000,-1.570790,0.000000,2.000000,-0.785300,0.000000,0.300000,0.000000,-1.570790,0.000000,2.000000,-0.785300,0.0400,0.051434,0.6696,-0.0006,0.3350
89.4000,-0.000000,0.340655,-0.000416,-1.601198,-0.002077,1.992037,-0.785301,0.000000,0.300000,0.000000,-1.570790,0.000000,2.000000,-0.785300,0.000000,0.300000,0.000000,-1.570790,0.000000,2.000000,-0.785300,0.0400,0.051434,0.6696,-0.0006,0.3350
89.7000,0.000000,0.340655,-0.000416,-1.601198,-0.002077,1.992037,-0.785301,0.000000,0.300000,0.000000,-1.570790,0.000000,2.000000,-0.785300,0.000000,0.300000,0.000000,-1.570790,0.000000,2.000000,-0.785300,0.0400,0.051434,0.6696,-0.0006,0.3350
90.0000,0.000000,0.340655,-0.000416,-1.601198,-0.002077,1.992037,-0.785301,0.000000,0.300000,0.000000,-1.570790,0.000000,2.000000,-0.785300,0.000000,0.300000,0.000000,-1.570790,0.000000,2.000000,-0.785300,0.0400,0.051434,0.6696,-0.0006,0.3350
90.3000,-0.000000,0.340655,-0.000416,-1.601198,-0.002077,1.992037,-0.785301,0.000000,0.300000,0.000000,-1.570790,0.000000,2.000000,-0.785300,0.000000,0.300000,0.000000,-1.570790,0.000000,2.000000,-0.785300,0.0400,0.051434,0.6696,-0.0006,0.3350
90.6000,0.000000,0.340655,-0.000416,-1.601198,-0.002077,1.992037,-0.785301,0.000000,0.300000,0.000000,-1.570790,0.000000,2.000000,-0.785300,0.000000,0.300000,0.000000,-1.570790,0.000000,2.000000,-0.785300,0.0400,0.051434,0.6696,-0.0006,0.3350
90.9000,0.000000,0.340655,-0.000416,-1.601198,-0.002077,1.992037,-0.785301,0.000000,0.300000,0.000000,-1.570790,0.000000,2.000000,-0.785300,0.000000,0.300000,0.000000,-1.570790,0.000000,2.000000,-0.785300,0.0400,0.051434,0.6696,-0.0006,0.3350
91.2000,0.000000,0.340655,-0.000416,-1.601198,-0.002077,1.992037,-0.785301,0.000000,0.300000,0.000000,-1.570790,0.000000,2.000000,-0.785300,0.000000,0.300000,0.000000,-1.570790,0.000000,2.000000,-0.785300,0.0400,0.051434,0.6696,-0.0006,0.3350
91.5000,-0.000000,0.340655,-0.000416,-1.601198,-0.002077,1.992037,-0.785301,0.000000,0.300000,0.000000,-1.570790,0.000000,2.000000,-0.785300,0.000000,0.300000,0.000000,-1.570790,0.000000,2.000000,-0.785300,0.0400,0.051434,0.6696,-0.0006,0.3350
91.8000,0.000000,0.340655,-0.000416,-1.601198,-0.002077,1.992037,-0.785301,0.000000,0.300000,0.000000,-1.570790,0.000000,2.000000,-0.785300,0.000000,0.300000,0.000000,-1.570790,0.000000,2.000000,-0.785300,0.0400,0.051434,0.6696,-0.0006,0.3350
92.1000,0.000000,0.340655,-0.000416,-1.601198,-0.002077,1.992037,-0.785301,0.000000,0.300000,0.000000,-1.570790,0.000000,2.000000,-0.785300,0.000000,0.300000,0.000000,-1.570790,0.000000,2.000000,-0.785300,0.0400,0.051434,0.6696,-0.0006,0.3350
92.4000,-0.000000,0.340655,-0.000416,-1.601198,-0.002077,1.992037,-0.785301,0.000000,0.300000,0.000000,-1.570790,0.000000,2.000000,-0.785300,0.000000,0.300000,0.000000,-1.570790,0.000000,2.000000,-0.785300,0.0400,0.051434,0.6696,-0.0006,0.3350
92.7000,0.000000,0.340655,-0.000416,-1.601198,-0.002077,1.992037,-0.785301,0.000000,0.300000,0.000000,-1.570790,0.000000,2.000000,-0.785300,0.000000,0.300000,0.000000,-1.570790,0.000000,2.000000,-0.785300,0.0400,0.051434,0.6696,-0.0006,0.3350
93.0000,0.000000,0.340655,-0.000416,-1.601198,-0.002077,1.992037,-0.785301,0.000000,0.300000,0.000000,-1.570790,0.000000,2.000000,-0.785300,0.000000,0.300000,0.000000,-1.570790,0.000000,2.000000,-0.785300,0.0400,0.051434,0.6696,-0.0006,0.3350
93.3000,0.000000,0.340655,-0.000416,-1.601198,-0.002077,1.992037,-0.785301,0.000000,0.300000,0.000000,-1.570790,0.000000,2.000000,-0.785300,0.000000,0.300000,0.000000,-1.570790,0.000000,2.000000,-0.785300,0.0400,0.051434,0.6696,-0.0006,0.3350
93.6000,-0.000000,0.340655,-0.000416,-1.601198,-0.002077,1.992037,-0.785301,0.000000,0.300000,0.000000,-1.570790,0.000000,2.000000,-0.785300,0.000000,0.300000,0.000000,-1.570790,0.000000,2.000000,-0.785300,0.0400,0.051434,0.6696,-0.0006,0.3350
93.9000,0.000000,0.340655,-0.000416,-1.601198,-0.002077,1.992037,-0.785301,0.000000,0.300000,0.000000,-1.570790,0.000000,2.000000,-0.785300,0.000000,0.300000,0.000000,-1.570790,0.000000,2.000000,-0.785300,0.0400,0.051434,0.6696,-0.0006,0.3350
94.2000,0.000000,0.340655,-0.000416,-1.601198,-0.002077,1.992037,-0.785301,0.000000,0.300000,0.000000,-1.570790,0.000000,2.000000,-0.785300,0.000000,0.300000,0.000000,-1.570790,0.000000,2.000000,-0.785300,0.0400,0.051434,0.6696,-0.0006,0.3350
94.5000,-0.000000,0.340655,-0.000416,-1.601198,-0.002077,1.992037,-0.785301,0.000000,0.300000,0.000000,-1.570790,0.000000,2.000000,-0.785300,0.000000,0.300000,0.000000,-1.570790,0.000000,2.000000,-0.785300,0.0400,0.051434,0.6696,-0.0006,0.3350
94.8000,0.000000,0.340655,-0.000416,-1.601198,-0.002077,1.992037,-0.785301,0.000000,0.300000,0.000000,-1.570790,0.000000,2.000000,-0.785300,0.000000,0.300000,0.000000,-1.570790,0.000000,2.000000,-0.785300,0.0400,0.051434,0.6696,-0.0006,0.3350
95.1000,0.000000,0.340655,-0.000416,-1.601198,-0.002077,1.992037,-0.785301,0.000000,0.300000,0.000000,-1.570790,0.000000,2.000000,-0.785300,0.000000,0.300000,0.000000,-1.570790,0.000000,2.000000,-0.785300,0.0400,0.051434,0.6696,-0.0006,0.3350
95.4000,0.000000,0.340655,-0.000416,-1.601198,-0.002077,1.992037,-0.785301,0.000000,0.300000,0.000000,-1.570790,0.000000,2.000000,-0.785300,0.000000,0.300000,0.000000,-1.570790,0.000000,2.000000,-0.785300,0.0400,0.051434,0.6696,-0.0006,0.3350
95.7000,-0.000000,0.340655,-0.000416,-1.601198,-0.002077,1.992037,-0.785301,0.000000,0.300000,0.000000,-1.570790,0.000000,2.000000,-0.785300,0.000000,0.300000,0.000000,-1.570790,0.000000,2.000000,-0.785300,0.0400,0.051434,0.6696,-0.0006,0.3350
96.0000,0.000000,0.340655,-0.000416,-1.601198,-0.002077,1.992037,-0.785301,0.000000,0.300000,0.000000,-1.570790,0.000000,2.000000,-0.785300,0.000000,0.300000,0.000000,-1.570790,0.000000,2.000000,-0.785300,0.0400,0.051434,0.6696,-0.0006,0.3350
96.3000,0.000000,0.340655,-0.000416,-1.601198,-0.002077,1.992037,-0.785301,0.000000,0.300000,0.000000,-1.570790,0.000000,2.000000,-0.785300,0.000000,0.300000,0.000000,-1.570790,0.000000,2.000000,-0.785300,0.0400,0.051434,0.6696,-0.0006,0.3350
96.6000,-0.000000,0.340655,-0.000416,-1.601198,-0.002077,1.992037,-0.785301,0.000000,0.300000,0.000000,-1.570790,0.000000,2.000000,-0.785300,0.000000,0.300000,0.000000,-1.570790,0.000000,2.000000,-0.785300,0.0400,0.051434,0.6696,-0.0006,0.3350
96.9000,0.000000,0.340655,-0.000416,-1.601198,-0.002077,1.992037,-0.785301,0.000000,0.300000,0.000000,-1.570790,0.000000,2.000000,-0.785300,0.000000,0.300000,0.000000,-1.570790,0.000000,2.000000,-0.785300,0.0400,0.051434,0.6696,-0.0006,0.3350
97.2000,0.000000,0.340655,-0.000416,-1.601198,-0.002077,1.992037,-0.785301,0.000000,0.300000,0.000000,-1.570790,0.000000,2.000000,-0.785300,0.000000,0.300000,0.000000,-1.570790,0.000000,2.000000,-0.785300,0.0400,0.051434,0.6696,-0.0006,0.3350
97.5000,0.000000,0.340655,-0.000416,-1.601198,-0.002077,1.992037,-0.785301,0.000000,0.300000,0.000000,-1.570790,0.000000,2.000000,-0.785300,0.000000,0.300000,0.000000,-1.570790,0.000000,2.000000,-0.785300,0.0400,0.051434,0.6696,-0.0006,0.3350
97.8000,-0.000000,0.340655,-0.000416,-1.601198,-0.002077,1.992037,-0.785301,0.000000,0.300000,0.000000,-1.570790,0.000000,2.000000,-0.785300,0.000000,0.300000,0.000000,-1.570790,0.000000,2.000000,-0.785300,0.0400,0.051434,0.6696,-0.0006,0.3350
98.1000,0.000000,0.340655,-0.000416,-1.601198,-0.002077,1.992037,-0.785301,0.000000,0.300000,0.000000,-1.570790,0.000000,2.000000,-0.785300,0.000000,0.300000,0.000000,-1.570790,0.000000,2.000000,-0.785300,0.0400,0.051434,0.6696,-0.0006,0.3350
98.4000,0.000000,0.340655,-0.000416,-1.601198,-0.002077,1.992037,-0.785301,0.000000,0.300000,0.000000,-1.570790,0.000000,2.000000,-0.785300,0.000000,0.300000,0.000000,-1.570790,0.000000,2.000000,-0.785300,0.0400,0.051434,0.6696,-0.0006,0.3350
98.7000,-0.000000,0.340655,-0.000416,-1.601198,-0.002077,1.992037,-0.785301,0.000000,0.300000,0.000000,-1.570790,0.000000,2.000000,-0.785300,0.000000,0.300000,0.000000,-1.570790,0.000000,2.000000,-0.785300,0.0400,0.051434,0.6696,-0.0006,0.3350
99.0000,0.000000,0.340655,-0.000416,-1.601198,-0.002077,1.992037,-0.785301,0.000000,0.300000,0.000000,-1.570790,0.000000,2.000000,-0.785300,0.000000,0.300000,0.000000,-1.570790,0.000000,2.000000,-0.785300,0.0400,0.051434,0.6696,-0.0006,0.3350
99.3000,0.000000,0.340655,-0.000416,-1.601198,-0.002077,1.992037,-0.785301,0.000000,0.300000,0.000000,-1.570790,0.000000,2.000000,-0.785300,0.000000,0.300000,0.000000,-1.570790,0.000000,2.000000,-0.785300,0.0400,0.051434,0.6696,-0.0006,0.3350
99.6000,0.000000,0.340655,-0.000416,-1.601198,-0.002077,1.992037,-0.785301,0.000000,0.300000,0.000000,-1.570790,0.000000,2.000000,-0.785300,0.000000,0.300000,0.000000,-1.570790,0.000000,2.000000,-0.785300,0.0400,0.051434,0.6696,-0.0006,0.3350
99.9000,-0.000000,0.340655,-0.000416,-1.601198,-0.002077,1.992037,-0.785301,0.000000,0.300000,0.000000,-1.570790,0.000000,2.000000,-0.785300,0.000000,0.300000,0.000000,-1.570790,0.000000,2.000000,-0.785300,0.0400,0.051434,0.6696,-0.0006,0.3350
100.2000,0.000000,0.340655,-0.000416,-1.601198,-0.002077,1.992037,-0.785301,0.000000,0.300000,0.000000,-1.570790,0.000000,2.000000,-0.785300,0.000000,0.300000,0.000000,-1.570790,0.000000,2.000000,-0.785300,0.0400,0.051434,0.6696,-0.0006,0.3350
100.5000,0.000000,0.340655,-0.000416,-1.601198,-0.002077,1.992037,-0.785301,0.000000,0.300000,0.000000,-1.570790,0.000000,2.000000,-0.785300,0.000000,0.300000,0.000000,-1.570790,0.000000,2.000000,-0.785300,0.0400,0.051434,0.6696,-0.0006,0.3350
100.8000,-0.000000,0.340655,-0.000416,-1.601198,-0.002077,1.992037,-0.785301,0.000000,0.300000,0.000000,-1.570790,0.000000,2.000000,-0.785300,0.000000,0.300000,0.000000,-1.570790,0.000000,2.000000,-0.785300,0.0400,0.051434,0.6696,-0.0006,0.3350
101.1000,0.000000,0.340655,-0.000416,-1.601198,-0.002077,1.992037,-0.785301,0.000000,0.300000,0.000000,-1.570790,0.000000,2.000000,-0.785300,0.000000,0.300000,0.000000,-1.570790,0.000000,2.000000,-0.785300,0.0400,0.051434,0.6696,-0.0006,0.3350
101.4000,0.000000,0.340655,-0.000416,-1.601198,-0.002077,1.992037,-0.785301,0.000000,0.300000,0.000000,-1.570790,0.000000,2.000000,-0.785300,0.000000,0.300000,0.000000,-1.570790,0.000000,2.000000,-0.785300,0.0400,0.051434,0.6696,-0.0006,0.3350
101.7000,0.000000,0.340655,-0.000416,-1.601198,-0.002077,1.992037,-0.785301,0.000000,0.300000,0.000000,-1.570790,0.000000,2.000000,-0.785300,0.000000,0.300000,0.000000,-1.570790,0.000000,2.000000,-0.785300,0.0400,0.051434,0.6696,-0.0006,0.3350
102.0000,-0.000000,0.340655,-0.000416,-1.601198,-0.002077,1.992037,-0.785301,0.000000,0.300000,0.000000,-1.570790,0.000000,2.000000,-0.785300,0.000000,0.300000,0.000000,-1.570790,0.000000,2.000000,-0.785300,0.0400,0.051434,0.6696,-0.0006,0.3350
102.3000,0.000000,0.340655,-0.000416,-1.601198,-0.002077,1.992037,-0.785301,0.000000,0.300000,0.000000,-1.570790,0.000000,2.000000,-0.785300,0.000000,0.300000,0.000000,-1.570790,0.000000,2.000000,-0.785300,0.0400,0.051434,0.6696,-0.0006,0.3350
102.6000,0.000000,0.340655,-0.000416,-1.601198,-0.002077,1.992037,-0.785301,0.000000,0.300000,0.000000,-1.570790,0.000000,2.000000,-0.785300,0.000000,0.300000,0.000000,-1.570790,0.000000,2.000000,-0.785300,0.0400,0.051434,0.6696,-0.0006,0.3350
102.9000,-0.000000,0.340655,-0.000416,-1.601198,-0.002077,1.992037,-0.785301,0.000000,0.300000,0.000000,-1.570790,0.000000,2.000000,-0.785300,0.000000,0.300000,0.000000,-1.570790,0.000000,2.000000,-0.785300,0.0400,0.051434,0.6696,-0.0006,0.3350
103.2000,0.000000,0.340655,-0.000416,-1.601198,-0.002077,1.992037,-0.785301,0.000000,0.300000,0.000000,-1.570790,0.000000,2.000000,-0.785300,0.000000,0.300000,0.000000,-1.570790,0.000000,2.000000,-0.785300,0.0400,0.051434,0.6696,-0.0006,0.3350
103.5000,0.000000,0.340655,-0.000416,-1.601198,-0.002077,1.992037,-0.785301,0.000000,0.300000,0.000000,-1.570790,0.000000,2.000000,-0.785300,0.000000,0.300000,0.000000,-1.570790,0.000000,2.000000,-0.785300,0.0400,0.051434,0.6696,-0.0006,0.3350
103.8000,0.000000,0.340655,-0.000416,-1.601198,-0.002077,1.992037,-0.785301,0.000000,0.300000,0.000000,-1.570790,0.000000,2.000000,-0.785300,0.000000,0.300000,0.000000,-1.570790,0.000000,2.000000,-0.785300,0.0400,0.051434,0.6696,-0.0006,0.3350
104.1000,-0.000000,0.340655,-0.000416,-1.601198,-0.002077,1.992037,-0.785301,0.000000,0.300000,0.000000,-1.570790,0.000000,2.000000,-0.785300,0.000000,0.300000,0.000000,-1.570790,0.000000,2.000000,-0.785300,0.0400,0.051434,0.6696,-0.0006,0.3350
104.4000,0.000000,0.340655,-0.000416,-1.601198,-0.002077,1.992037,-0.785301,0.000000,0.300000,0.000000,-1.570790,0.000000,2.000000,-0.785300,0.000000,0.300000,0.000000,-1.570790,0.000000,2.000000,-0.785300,0.0400,0.051434,0.6696,-0.0006,0.3350
104.7000,0.000000,0.340655,-0.000416,-1.601198,-0.002077,1.992037,-0.785301,0.000000,0.300000,0.000000,-1.570790,0.000000,2.000000,-0.785300,0.000000,0.300000,0.000000,-1.570790,0.000000,2.000000,-0.785300,0.0400,0.051434,0.6696,-0.0006,0.3350
105.0000,-0.000000,0.340655,-0.000416,-1.601198,-0.002077,1.992037,-0.785301,0.000000,0.300000,0.000000,-1.570790,0.000000,2.000000,-0.785300,0.000000,0.300000,0.000000,-1.570790,0.000000,2.000000,-0.785300,0.0400,0.051434,0.6696,-0.0006,0.3350
105.3000,0.000000,0.340655,-0.000416,-1.601198,-0.002077,1.992037,-0.785301,0.000000,0.300000,0.000000,-1.570790,0.000000,2.000000,-0.785300,0.000000,0.300000,0.000000,-1.570790,0.000000,2.000000,-0.785300,0.0400,0.051434,0.6696,-0.0006,0.3350
105.6000,0.000000,0.340655,-0.000416,-1.601198,-0.002077,1.992037,-0.785301,0.000000,0.300000,0.000000,-1.570790,0.000000,2.000000,-0.785300,0.000000,0.300000,0.000000,-1.570790,0.000000,2.000000,-0.785300,0.0400,0.051434,0.6696,-0.0006,0.3350
105.9000,0.000000,0.340655,-0.000416,-1.601198,-0.002077,1.992037,-0.785301,0.000000,0.300000,0.000000,-1.570790,0.000000,2.000000,-0.785300,0.000000,0.300000,0.000000,-1.570790,0.000000,2.000000,-0.785300,0.0400,0.051434,0.6696,-0.0006,0.3350
106.2000,-0.000000,0.340655,-0.000416,-1.601198,-0.002077,1.992037,-0.785301,0.000000,0.300000,0.000000,-1.570790,0.000000,2.000000,-0.785300,0.000000,0.300000,0.000000,-1.570790,0.000000,2.000000,-0.785300,0.0400,0.051434,0.6696,-0.0006,0.3350
106.5000,0.000000,0.340655,-0.000416,-1.601198,-0.002077,1.992037,-0.785301,0.000000,0.300000,0.000000,-1.570790,0.000000,2.000000,-0.785300,0.000000,0.300000,0.000000,-1.570790,0.000000,2.000000,-0.785300,0.0400,0.051434,0.6696,-0.0006,0.3350
106.8000,0.000000,0.340655,-0.000416,-1.601198,-0.002077,1.992037,-0.785301,0.000000,0.300000,0.000000,-1.570790,0.000000,2.000000,-0.785300,0.000000,0.300000,0.000000,-1.570790,0.000000,2.000000,-0.785300,0.0400,0.051434,0.6696,-0.0006,0.3350
107.1000,-0.000000,0.340655,-0.000416,-1.601198,-0.002077,1.992037,-0.785301,0.000000,0.300000,0.000000,-1.570790,0.000000,2.000000,-0.785300,0.000000,0.300000,0.000000,-1.570790,0.000000,2.000000,-0.785300,0.0400,0.051434,0.6696,-0.0006,0.3350
107.4000,0.000000,0.340655,-0.000416,-1.601198,-0.002077,1.992037,-0.785301,0.000000,0.300000,0.000000,-1.570790,0.000000,2.000000,-0.785300,0.000000,0.300000,0.000000,-1.570790,0.000000,2.000000,-0.785300,0.0400,0.051434,0.6696,-0.0006,0.3350
107.7000,0.000000,0.340655,-0.000416,-1.601198,-0.002077,1.992037,-0.785301,0.000000,0.300000,0.000000,-1.570790,0.000000,2.000000,-0.785300,0.000000,0.300000,0.000000,-1.570790,0.000000,2.000000,-0.785300,0.0400,0.051434,0.6696,-0.0006,0.3350
108.0000,0.000000,0.340655,-0.000416,-1.601198,-0.002077,1.992037,-0.785301,0.000000,0.300000,0.000000,-1.570790,0.000000,2.000000,-0.785300,0.000000,0.300000,0.000000,-1.570790,0.000000,2.000000,-0.785300,0.0400,0.051434,0.6696,-0.0006,0.3350
108.3000,-0.000000,0.340655,-0.000416,-1.601198,-0.002077,1.992037,-0.785301,0.000000,0.300000,0.000000,-1.570790,0.000000,2.000000,-0.785300,0.000000,0.300000,0.000000,-1.570790,0.000000,2.000000,-0.785300,0.0400,0.051434,0.6696,-0.0006,0.3350
108.6000,0.000000,0.340655,-0.000416,-1.601198,-0.002077,1.992037,-0.785301,0.000000,0.300000,0.000000,-1.570790,0.000000,2.000000,-0.785300,0.000000,0.300000,0.000000,-1.570790,0.000000,2.000000,-0.785300,0.0400,0.051434,0.6696,-0.0006,0.3350
108.9000,0.000000,0.340655,-0.000416,-1.601198,-0.002077,1.992037,-0.785301,0.000000,0.300000,0.000000,-1.570790,0.000000,2.000000,-0.785300,0.000000,0.300000,0.000000,-1.570790,0.000000,2.000000,-0.785300,0.0400,0.051434,0.6696,-0.0006,0.3350
109.2000,-0.000000,0.340655,-0.000416,-1.601198,-0.002077,1.992037,-0.785301,0.000000,0.300000,0.000000,-1.570790,0.000000,2.000000,-0.785300,0.000000,0.300000,0.000000,-1.570790,0.000000,2.000000,-0.785300,0.0400,0.051434,0.6696,-0.0006,0.3350
109.5000,0.000000,0.340655,-0.000416,-1.601198,-0.002077,1.992037,-0.785301,0.000000,0.300000,0.000000,-1.570790,0.000000,2.000000,-0.785300,0.000000,0.300000,0.000000,-1.570790,0.000000,2.000000,-0.785300,0.0400,0.051434,0.6696,-0.0006,0.3350
109.8000,0.000000,0.340655,-0.000416,-1.601198,-0.002077,1.992037,-0.785301,0.000000,0.300000,0.000000,-1.570790,0.000000,2.000000,-0.785300,0.000000,0.300000,0.000000,-1.570790,0.000000,2.000000,-0.785300,0.0400,0.051434,0.6696,-0.0006,0.3350
110.1000,0.000000,0.340655,-0.000416,-1.601198,-0.002077,1.992037,-0.785301,0.000000,0.300000,0.000000,-1.570790,0.000000,2.000000,-0.785300,0.000000,0.300000,0.000000,-1.570790,0.000000,2.000000,-0.785300,0.0400,0.051434,0.6696,-0.0006,0.3350
110.4000,-0.000000,0.340655,-0.000416,-1.601198,-0.002077,1.992037,-0.785301,0.000000,0.300000,0.000000,-1.570790,0.000000,2.000000,-0.785300,0.000000,0.300000,0.000000,-1.570790,0.000000,2.000000,-0.785300,0.0400,0.051434,0.6696,-0.0006,0.3350
110.7000,0.000000,0.340655,-0.000416,-1.601198,-0.002077,1.992037,-0.785301,0.000000,0.300000,0.000000,-1.570790,0.000000,2.000000,-0.785300,0.000000,0.300000,0.000000,-1.570790,0.000000,2.000000,-0.785300,0.0400,0.051434,0.6696,-0.0006,0.3350
111.0000,0.000000,0.340655,-0.000416,-1.601198,-0.002077,1.992037,-0.785301,0.000000,0.300000,0.000000,-1.570790,0.000000,2.000000,-0.785300,0.000000,0.300000,0.000000,-1.570790,0.000000,2.000000,-0.785300,0.0400,0.051434,0.6696,-0.0006,0.3350
111.3000,-0.000000,0.340655,-0.000416,-1.601198,-0.002077,1.992037,-0.785301,0.000000,0.300000,0.000000,-1.570790,0.000000,2.000000,-0.785300,0.000000,0.300000,0.000000,-1.570790,0.000000,2.000000,-0.785300,0.0400,0.051434,0.6696,-0.0006,0.3350
111.6000,0.000000,0.340655,-0.000416,-1.601198,-0.002077,1.992037,-0.785301,0.000000,0.300000,0.000000,-1.570790,0.000000,2.000000,-0.785300,0.000000,0.300000,0.000000,-1.570790,0.000000,2.000000,-0.785300,0.0400,0.051434,0.6696,-0.0006,0.3350
111.9000,0.000000,0.340655,-0.000416,-1.601198,-0.002077,1.992037,-0.785301,0.000000,0.300000,0.000000,-1.570790,0.000000,2.000000,-0.785300,0.000000,0.300000,0.000000,-1.570790,0.000000,2.000000,-0.785300,0.0400,0.051434,0.6696,-0.0006,0.3350
112.2000,0.000000,0.340655,-0.000416,-1.601198,-0.002077,1.992037,-0.785301,0.000000,0.300000,0.000000,-1.570790,0.000000,2.000000,-0.785300,0.000000,0.300000,0.000000,-1.570790,0.000000,2.000000,-0.785300,0.0400,0.051434,0.6696,-0.0006,0.3350
112.5000,-0.000000,0.340655,-0.000416,-1.601198,-0.002077,1.992037,-0.785301,0.000000,0.300000,0.000000,-1.570790,0.000000,2.000000,-0.785300,0.000000,0.300000,0.000000,-1.570790,0.000000,2.000000,-0.785300,0.0400,0.051434,0.6696,-0.0006,0.3350
112.8000,0.000000,0.340655,-0.000416,-1.601198,-0.002077,1.992037,-0.785301,0.000000,0.300000,0.000000,-1.570790,0.000000,2.000000,-0.785300,0.000000,0.300000,0.000000,-1.570790,0.000000,2.000000,-0.785300,0.0400,0.051434,0.6696,-0.0006,0.3350
113.1000,0.000000,0.340655,-0.000416,-1.601198,-0.002077,1.992037,-0.785301,0.000000,0.300000,0.000000,-1.570790,0.000000,2.000000,-0.785300,0.000000,0.300000,0.000000,-1.570790,0.000000,2.000000,-0.785300,0.0400,0.051434,0.6696,-0.0006,0.3350
113.4000,-0.000000,0.340655,-0.000416,-1.601198,-0.002077,1.992037,-0.785301,0.000000,0.300000,0.000000,-1.570790,0.000000,2.000000,-0.785300,0.000000,0.300000,0.000000,-1.570790,0.000000,2.000000,-0.785300,0.0400,0.051434,0.6696,-0.0006,0.3350
113.7000,0.000000,0.340655,-0.000416,-1.601198,-0.002077,1.992037,-0.785301,0.000000,0.300000,0.000000,-1.570790,0.000000,2.000000,-0.785300,0.000000,0.300000,0.000000,-1.570790,0.000000,2.000000,-0.785300,0.0400,0.051434,0.6696,-0.0006,0.3350
114.0000,0.000000,0.340655,-0.000416,-1.601198,-0.002077,1.992037,-0.785301,0.000000,0.300000,0.000000,-1.570790,0.000000,2.000000,-0.785300,0.000000,0.300000,0.000000,-1.570790,0.000000,2.000000,-0.785300,0.0400,0.051434,0.6696,-0.0006,0.3350
114.3000,0.000000,0.340655,-0.000416,-1.601198,-0.002077,1.992037,-0.785301,0.000000,0.300000,0.000000,-1.570790,0.000000,2.000000,-0.785300,0.000000,0.300000,0.000000,-1.570790,0.000000,2.000000,-0.785300,0.0400,0.051434,0.6696,-0.0006,0.3350
114.6000,-0.000000,0.340655,-0.000416,-1.601198,-0.002077,1.992037,-0.785301,0.000000,0.300000,0.000000,-1.570790,0.000000,2.000000,-0.785300,0.000000,0.300000,0.000000,-1.570790,0.000000,2.000000,-0.785300,0.0400,0.051434,0.6696,-0.0006,0.3350
114.9000,0.000000,0.340655,-0.000416,-1.601198,-0.002077,1.992037,-0.785301,0.000000,0.300000,0.000000,-1.570790,0.000000,2.000000,-0.785300,0.000000,0.300000,0.000000,-1.570790,0.000000,2.000000,-0.785300,0.0400,0.051434,0.6696,-0.0006,0.3350
115.2000,0.000000,0.340655,-0.000416,-1.601198,-0.002077,1.992037,-0.785301,0.000000,0.300000,0.000000,-1.570790,0.000000,2.000000,-0.785300,0.000000,0.300000,0.000000,-1.570790,0.000000,2.000000,-0.785300,0.0400,0.051434,0.6696,-0.0006,0.3350
115.5000,-0.000000,0.340655,-0.000416,-1.601198,-0.002077,1.992037,-0.785301,0.000000,0.300000,0.000000,-1.570790,0.000000,2.000000,-0.785300,0.000000,0.300000,0.000000,-1.570790,0.000000,2.000000,-0.785300,0.0400,0.051434,0.6696,-0.0006,0.3350
115.8000,0.000000,0.340655,-0.000416,-1.601198,-0.002077,1.992037,-0.785301,0.000000,0.300000,0.000000,-1.570790,0.000000,2.000000,-0.785300,0.000000,0.300000,0.000000,-1.570790,0.000000,2.000000,-0.785300,0.0400,0.051434,0.6696,-0.0006,0.3350
116.1000,0.000000,0.340655,-0.000416,-1.601198,-0.002077,1.992037,-0.785301,0.000000,0.300000,0.000000,-1.570790,0.000000,2.000000,-0.785300,0.000000,0.300000,0.000000,-1.570790,0.000000,2.000000,-0.785300,0.0400,0.051434,0.6696,-0.0006,0.3350
116.4000,0.000000,0.340655,-0.000416,-1.601198,-0.002077,1.992037,-0.785301,0.000000,0.300000,0.000000,-1.570790,0.000000,2.000000,-0.785300,0.000000,0.300000,0.000000,-1.570790,0.000000,2.000000,-0.785300,0.0400,0.051434,0.6696,-0.0006,0.3350
116.7000,-0.000000,0.340655,-0.000416,-1.601198,-0.002077,1.992037,-0.785301,0.000000,0.300000,0.000000,-1.570790,0.000000,2.000000,-0.785300,0.000000,0.300000,0.000000,-1.570790,0.000000,2.000000,-0.785300,0.0400,0.051434,0.6696,-0.0006,0.3350
117.0000,0.000000,0.340655,-0.000416,-1.601198,-0.002077,1.992037,-0.785301,0.000000,0.300000,0.000000,-1.570790,0.000000,2.000000,-0.785300,0.000000,0.300000,0.000000,-1.570790,0.000000,2.000000,-0.785300,0.0400,0.051434,0.6696,-0.0006,0.3350
117.3000,0.000000,0.340655,-0.000416,-1.601198,-0.002077,1.992037,-0.785301,0.000000,0.300000,0.000000,-1.570790,0.000000,2.000000,-0.785300,0.000000,0.300000,0.000000,-1.570790,0.000000,2.000000,-0.785300,0.0400,0.051434,0.6696,-0.0006,0.3350
117.6000,-0.000000,0.340655,-0.000416,-1.601198,-0.002077,1.992037,-0.785301,0.000000,0.300000,0.000000,-1.570790,0.000000,2.000000,-0.785300,0.000000,0.300000,0.000000,-1.570790,0.000000,2.000000,-0.785300,0.0400,0.051434,0.6696,-0.0006,0.3350
117.9000,0.000000,0.340655,-0.000416,-1.601198,-0.002077,1.992037,-0.785301,0.000000,0.300000,0.000000,-1.570790,0.000000,2.000000,-0.785300,0.000000,0.300000,0.000000,-1.570790,0.000000,2.000000,-0.785300,0.0400,0.051434,0.6696,-0.0006,0.3350
118.2000,0.000000,0.340655,-0.000416,-1.601198,-0.002077,1.992037,-0.785301,0.000000,0.300000,0.000000,-1.570790,0.000000,2.000000,-0.785300,0.000000,0.300000,0.000000,-1.570790,0.000000,2.000000,-0.785300,0.0400,0.051434,0.6696,-0.0006,0.3350
118.5000,0.000000,0.340655,-0.000416,-1.601198,-0.002077,1.992037,-0.785301,0.000000,0.300000,0.000000,-1.570790,0.000000,2.000000,-0.785300,0.000000,0.300000,0.000000,-1.570790,0.000000,2.000000,-0.785300,0.0400,0.051434,0.6696,-0.0006,0.3350
118.8000,-0.000000,0.340655,-0.000416,-1.601198,-0.002077,1.992037,-0.785301,0.000000,0.300000,0.000000,-1.570790,0.000000,2.000000,-0.785300,0.000000,0.300000,0.000000,-1.570790,0.000000,2.000000,-0.785300,0.0400,0.051434,0.6696,-0.0006,0.3350
119.1000,0.000000,0.340655,-0.000416,-1.601198,-0.002077,1.992037,-0.785301,0.000000,0.300000,0.000000,-1.570790,0.000000,2.000000,-0.785300,0.000000,0.300000,0.000000,-1.570790,0.000000,2.000000,-0.785300,0.0400,0.051434,0.6696,-0.0006,0.3350
119.4000,0.000000,0.340655,-0.000416,-1.601198,-0.002077,1.992037,-0.785301,0.000000,0.300000,0.000000,-1.570790,0.000000,2.000000,-0.785300,0.000000,0.300000,0.000000,-1.570790,0.000000,2.000000,-0.785300,0.0400,0.051434,0.6696,-0.0006,0.3350
119.7000,-0.000000,0.340655,-0.000416,-1.601198,-0.002077,1.992037,-0.785301,0.000000,0.300000,0.000000,-1.570790,0.000000,2.000000,-0.785300,0.000000,0.300000,0.000000,-1.570790,0.000000,2.000000,-0.785300,0.0400,0.051434,0.6696,-0.0006,0.3350
120.0000,0.000000,0.340655,-0.000416,-1.601198,-0.002077,1.992037,-0.785301,0.000000,0.300000,0.000000,-1.570790,0.000000,2.000000,-0.785300,0.000000,0.300000,0.000000,-1.570790,0.000000,2.000000,-0.785300,0.0400,0.051434,0.6696,-0.0006,0.3350
120.3000,0.000000,0.340655,-0.000416,-1.601198,-0.002077,1.992037,-0.785301,0.000000,0.300000,0.000000,-1.570790,0.000000,2.000000,-0.785300,0.000000,0.300000,0.000000,-1.570790,0.000000,2.000000,-0.785300,0.0400,0.051434,0.6696,-0.0006,0.3350
120.6000,0.000000,0.340655,-0.000416,-1.601198,-0.002077,1.992037,-0.785301,0.000000,0.300000,0.000000,-1.570790,0.000000,2.000000,-0.785300,0.000000,0.300000,0.000000,-1.570790,0.000000,2.000000,-0.785300,0.0400,0.051434,0.6696,-0.0006,0.3350
120.9000,-0.000000,0.340655,-0.000416,-1.601198,-0.002077,1.992037,-0.785301,0.000000,0.300000,0.000000,-1.570790,0.000000,2.000000,-0.785300,0.000000,0.300000,0.000000,-1.570790,0.000000,2.000000,-0.785300,0.0400,0.051434,0.6696,-0.0006,0.3350
121.2000,0.000000,0.340655,-0.000416,-1.601198,-0.002077,1.992037,-0.785301,0.000000,0.300000,0.000000,-1.570790,0.000000,2.000000,-0.785300,0.000000,0.300000,0.000000,-1.570790,0.000000,2.000000,-0.785300,0.0400,0.051434,0.6696,-0.0006,0.3350
121.5000,0.000000,0.340655,-0.000416,-1.601198,-0.002077,1.992037,-0.785301,0.000000,0.300000,0.000000,-1.570790,0.000000,2.000000,-0.785300,0.000000,0.300000,0.000000,-1.570790,0.000000,2.000000,-0.785300,0.0400,0.051434,0.6696,-0.0006,0.3350
121.8000,-0.000000,0.340655,-0.000416,-1.601198,-0.002077,1.992037,-0.785301,0.000000,0.300000,0.000000,-1.570790,0.000000,2.000000,-0.785300,0.000000,0.300000,0.000000,-1.570790,0.000000,2.000000,-0.785300,0.0400,0.051434,0.6696,-0.0006,0.3350
122.1000,0.000000,0.340655,-0.000416,-1.601198,-0.002077,1.992037,-0.785301,0.000000,0.300000,0.000000,-1.570790,0.000000,2.000000,-0.785300,0.000000,0.300000,0.000000,-1.570790,0.000000,2.000000,-0.785300,0.0400,0.051434,0.6696,-0.0006,0.3350
