alvinuday/Neuromorphic-Robot-Control/mjpc/arm_mpc_log.csv
t_sim,q1,q2,q3,q4,q5,q6,q7,q1_ref,q2_ref,q3_ref,q4_ref,q5_ref,q6_ref,q7_ref,tau1,tau2,tau3,tau4,tau5,tau6,tau7,gripper_cmd,tracking_error,ee_x,ee_y,ee_z
0.0000,0.000000,0.300000,0.000000,-1.570790,0.000000,2.000000,-0.785300,0.000000,0.300000,0.000000,-1.570790,0.000000,2.000000,-0.785300,0.000000,0.300000,0.000000,-1.570790,0.000000,2.000000,-0.785300,0.0400,0.000000,0.6645,0.0000,0.4811
0.0050,0.000005,0.300220,-0.000004,-1.571000,-0.000033,2.000038,-0.785300,0.000000,0.300000,-0.000000,-1.570790,-0.000000,2.000000,-0.785300,0.000000,0.300000,-0.000000,-1.570790,-0.000000,2.000000,-0.785300,0.0400,0.000308,0.6645,0.0000,0.4811
0.0100,0.000012,0.300649,-0.000009,-1.571387,-0.000100,2.000068,-0.785301,0.000000,0.300000,-0.000000,-1.570790,-0.000000,2.000000,-0.785300,0.000000,0.300000,-0.000000,-1.570790,-0.000000,2.000000,-0.785300,0.0400,0.000890,0.6645,-0.0000,0.4808
0.0150,0.000021,0.301273,-0.000013,-1.571928,-0.000199,2.000056,-0.785302,0.000000,0.300000,-0.000000,-1.570791,-0.000000,2.000001,-0.785300,0.000000,0.300000,-0.000000,-1.570791,-0.000000,2.000001,-0.785300,0.0400,0.001720,0.6645,-0.0000,0.4804
0.0200,0.000031,0.302078,-0.000018,-1.572601,-0.000329,1.999973,-0.785302,0.000001,0.300001,-0.000001,-1.570792,-0.000000,2.000001,-0.785299,0.000001,0.300001,-0.000001,-1.570792,-0.000000,2.000001,-0.785299,0.0400,0.002774,0.6645,-0.0000,0.4797
0.0250,0.000040,0.303045,-0.000022,-1.573390,-0.000483,1.999802,-0.785303,0.000001,0.300001,-0.000001,-1.570794,-0.000000,2.000003,-0.785298,0.000001,0.300001,-0.000001,-1.570794,-0.000000,2.000003,-0.785298,0.0400,0.004035,0.6645,-0.0000,0.4788
0.0300,0.000050,0.304160,-0.000027,-1.574281,-0.000656,1.999531,-0.785304,0.000002,0.300002,-0.000002,-1.570796,-0.000000,2.000005,-0.785297,0.000002,0.300002,-0.000002,-1.570796,-0.000000,2.000005,-0.785297,0.0400,0.005485,0.6646,-0.0000,0.4778
0.0350,0.000061,0.305405,-0.000032,-1.575261,-0.000842,1.999159,-0.785305,0.000004,0.300003,-0.000003,-1.570800,-0.000000,2.000008,-0.785295,0.000004,0.300003,-0.000003,-1.570800,-0.000000,2.000008,-0.785295,0.0400,0.007107,0.6646,-0.0000,0.4765
0.0400,0.000070,0.306763,-0.000038,-1.576318,-0.001034,1.998688,-0.785306,0.000006,0.300004,-0.000005,-1.570805,-0.000001,2.000012,-0.785293,0.000006,0.300004,-0.000005,-1.570805,-0.000001,2.000012,-0.785293,0.0400,0.008883,0.6646,-0.0000,0.4752
0.0450,0.000080,0.308221,-0.000044,-1.577442,-0.001227,1.998126,-0.785307,0.000008,0.300006,-0.000006,-1.570812,-0.000001,2.000016,-0.785290,0.000008,0.300006,-0.000006,-1.570812,-0.000001,2.000016,-0.785290,0.0400,0.010795,0.6646,-0.0000,0.4737
0.0500,0.000089,0.309761,-0.000052,-1.578622,-0.001414,1.997486,-0.785307,0.000011,0.300008,-0.000009,-1.570819,-0.000001,2.000023,-0.785287,0.000011,0.300008,-0.000009,-1.570819,-0.000001,2.000023,-0.785287,0.0400,0.012823,0.6646,-0.0000,0.4722
0.0550,0.000097,0.311370,-0.000060,-1.579850,-0.001591,1.996784,-0.785307,0.000014,0.300011,-0.000012,-1.570829,-0.000002,2.000030,-0.785282,0.000014,0.300011,-0.000012,-1.570829,-0.000002,2.000030,-0.785282,0.0400,0.014950,0.6646,-0.0001,0.4705
0.0600,0.000105,0.313035,-0.000069,-1.581117,-0.001754,1.996038,-0.785306,0.000018,0.300014,-0.000015,-1.570841,-0.000002,2.000039,-0.785277,0.000018,0.300014,-0.000015,-1.570841,-0.000002,2.000039,-0.785277,0.0400,0.017154,0.6646,-0.0001,0.4688
0.0650,0.000112,0.314742,-0.000080,-1.582414,-0.001901,1.995265,-0.785304,0.000023,0.300018,-0.000019,-1.570854,-0.000003,2.000049,-0.785271,0.000023,0.300018,-0.000019,-1.570854,-0.000003,2.000049,-0.785271,0.0400,0.019414,0.6645,-0.0001,0.4670
0.0700,0.000118,0.316479,-0.000092,-1.583732,-0.002028,1.994486,-0.785301,0.000029,0.300022,-0.000024,-1.570870,-0.000004,2.000061,-0.785264,0.000029,0.300022,-0.000024,-1.570870,-0.000004,2.000061,-0.785264,0.0400,0.021712,0.6645,-0.0001,0.4651
0.0750,0.000123,0.318234,-0.000106,-1.585063,-0.002137,1.993717,-0.785297,0.000036,0.300027,-0.000030,-1.570888,-0.000005,2.000075,-0.785256,0.000036,0.300027,-0.000030,-1.570888,-0.000005,2.000075,-0.785256,0.0400,0.024029,0.6645,-0.0001,0.4632
0.0800,0.000127,0.319997,-0.000120,-1.586399,-0.002226,1.992974,-0.785292,0.000043,0.300033,-0.000036,-1.570909,-0.000006,2.000091,-0.785247,0.000043,0.300033,-0.000036,-1.570909,-0.000006,2.000091,-0.785247,0.0400,0.026346,0.6644,-0.0001,0.4613
0.0850,0.000130,0.321757,-0.000136,-1.587733,-0.002296,1.992273,-0.785285,0.000052,0.300040,-0.000043,-1.570932,-0.000007,2.000109,-0.785236,0.000052,0.300040,-0.000043,-1.570932,-0.000007,2.000109,-0.785236,0.0400,0.028646,0.6644,-0.0001,0.4595
0.0900,0.000133,0.323505,-0.000153,-1.589058,-0.002351,1.991624,-0.785277,0.000061,0.300047,-0.000051,-1.570959,-0.000008,2.000129,-0.785224,0.000061,0.300047,-0.000051,-1.570959,-0.000008,2.000129,-0.785224,0.0400,0.030915,0.6643,-0.0001,0.4576
0.0950,0.000135,0.325232,-0.000171,-1.590366,-0.002390,1.991036,-0.785267,0.000072,0.300055,-0.000060,-1.570988,-0.000009,2.000151,-0.785211,0.000072,0.300055,-0.000060,-1.570988,-0.000009,2.000151,-0.785211,0.0400,0.033139,0.6643,-0.0001,0.4557
0.1000,0.000137,0.326931,-0.000191,-1.591652,-0.002418,1.990517,-0.785256,0.000084,0.300064,-0.000069,-1.571020,-0.000011,2.000176,-0.785197,0.000084,0.300064,-0.000069,-1.571020,-0.000011,2.000176,-0.785197,0.0400,0.035307,0.6642,-0.0002,0.4539
0.1050,0.000138,0.328592,-0.000211,-1.592909,-0.002435,1.990070,-0.785244,0.000097,0.300074,-0.000080,-1.571056,-0.000012,2.000203,-0.785181,0.000097,0.300074,-0.000080,-1.571056,-0.000012,2.000203,-0.785181,0.0400,0.037409,0.6642,-0.0002,0.4521
0.1100,0.000138,0.330210,-0.000233,-1.594132,-0.002446,1.989696,-0.785229,0.000111,0.300085,-0.000092,-1.571095,-0.000014,2.000233,-0.785163,0.000111,0.300085,-0.000092,-1.571095,-0.000014,2.000233,-0.785163,0.0400,0.039436,0.6642,-0.0002,0.4503
0.1150,0.000139,0.331777,-0.000256,-1.595315,-0.002452,1.989395,-0.785213,0.000126,0.300096,-0.000105,-1.571137,-0.000016,2.000266,-0.785144,0.000126,0.300096,-0.000105,-1.571137,-0.000016,2.000266,-0.785144,0.0400,0.041381,0.6641,-0.0002,0.4486
0.1200,0.000139,0.333290,-0.000280,-1.596456,-0.002455,1.989164,-0.785196,0.000143,0.300109,-0.000119,-1.571183,-0.000018,2.000301,-0.785124,0.000143,0.300109,-0.000119,-1.571183,-0.000018,2.000301,-0.785124,0.0400,0.043239,0.6641,-0.0002,0.4470
0.1250,0.000140,0.334741,-0.000304,-1.597549,-0.002457,1.988999,-0.785177,0.000161,0.300123,-0.000134,-1.571233,-0.000021,2.000339,-0.785101,0.000161,0.300123,-0.000134,-1.571233,-0.000021,2.000339,-0.785101,0.0400,0.045005,0.6640,-0.0002,0.4454
0.1300,0.000140,0.336128,-0.000330,-1.598591,-0.002460,1.988894,-0.785156,0.000181,0.300138,-0.000150,-1.571288,-0.000023,2.000381,-0.785077,0.000181,0.300138,-0.000150,-1.571288,-0.000023,2.000381,-0.785077,0.0400,0.046676,0.6640,-0.0002,0.4439
0.1350,0.000141,0.337446,-0.000357,-1.599580,-0.002464,1.988844,-0.785134,0.000202,0.300154,-0.000167,-1.571346,-0.000026,2.000425,-0.785051,0.000202,0.300154,-0.000167,-1.571346,-0.000026,2.000425,-0.785051,0.0400,0.048249,0.6640,-0.0003,0.4424
0.1400,0.000143,0.338692,-0.000384,-1.600514,-0.002470,1.988841,-0.785110,0.000225,0.300172,-0.000186,-1.571408,-0.000029,2.000473,-0.785023,0.000225,0.300172,-0.000186,-1.571408,-0.000029,2.000473,-0.785023,0.0400,0.049722,0.6640,-0.0003,0.4411
0.1450,0.000145,0.339864,-0.000412,-1.601391,-0.002479,1.988880,-0.785084,0.000249,0.300190,-0.000206,-1.571475,-0.000032,2.000524,-0.784993,0.000249,0.300190,-0.000206,-1.571475,-0.000032,2.000524,-0.784993,0.0400,0.051094,0.6640,-0.0003,0.4398
0.1500,0.000147,0.340960,-0.000441,-1.602211,-0.002490,1.988953,-0.785057,0.000275,0.300210,-0.000228,-1.571546,-0.000035,2.000579,-0.784961,0.000275,0.300210,-0.000228,-1.571546,-0.000035,2.000579,-0.784961,0.0400,0.052365,0.6639,-0.0003,0.4386
0.1550,0.000151,0.341978,-0.000471,-1.602972,-0.002504,1.989054,-0.785029,0.000303,0.300231,-0.000251,-1.571622,-0.000039,2.000637,-0.784927,0.000303,0.300231,-0.000251,-1.571622,-0.000039,2.000637,-0.784927,0.0400,0.053534,0.6639,-0.0003,0.4375
0.1600,0.000155,0.342918,-0.000502,-1.603675,-0.002518,1.989178,-0.784998,0.000332,0.300254,-0.000275,-1.571703,-0.000042,2.000699,-0.784891,0.000332,0.300254,-0.000275,-1.571703,-0.000042,2.000699,-0.784891,0.0400,0.054602,0.6639,-0.0003,0.4365
0.1650,0.000160,0.343780,-0.000533,-1.604320,-0.002533,1.989320,-0.784966,0.000363,0.300278,-0.000301,-1.571789,-0.000046,2.000764,-0.784852,0.000363,0.300278,-0.000301,-1.571789,-0.000046,2.000764,-0.784852,0.0400,0.055570,0.6639,-0.0003,0.4355
0.1700,0.000167,0.344564,-0.000565,-1.604908,-0.002549,1.989476,-0.784932,0.000396,0.300303,-0.000328,-1.571880,-0.000051,2.000834,-0.784811,0.000396,0.300303,-0.000328,-1.571880,-0.000051,2.000834,-0.784811,0.0400,0.056438,0.6639,-0.0004,0.4346
0.1750,0.000174,0.345270,-0.000597,-1.605440,-0.002563,1.989642,-0.784896,0.000431,0.300329,-0.000357,-1.571976,-0.000055,2.000907,-0.784768,0.000431,0.300329,-0.000357,-1.571976,-0.000055,2.000907,-0.784768,0.0400,0.057209,0.6639,-0.0004,0.4339
0.1800,0.000184,0.345900,-0.000631,-1.605918,-0.002576,1.989815,-0.784858,0.000468,0.300358,-0.000388,-1.572077,-0.000060,2.000985,-0.784723,0.000468,0.300358,-0.000388,-1.572077,-0.000060,2.000985,-0.784723,0.0400,0.057884,0.6639,-0.0004,0.4332
0.1850,0.000194,0.346456,-0.000664,-1.606343,-0.002586,1.989995,-0.784817,0.000506,0.300387,-0.000420,-1.572184,-0.000065,2.001066,-0.784675,0.000506,0.300387,-0.000420,-1.572184,-0.000065,2.001066,-0.784675,0.0400,0.058467,0.6639,-0.0004,0.4325
0.1900,0.000206,0.346940,-0.000699,-1.606718,-0.002593,1.990179,-0.784775,0.000547,0.300418,-0.000454,-1.572296,-0.000070,2.001152,-0.784625,0.000547,0.300418,-0.000454,-1.572296,-0.000070,2.001152,-0.784625,0.0400,0.058959,0.6639,-0.0004,0.4320
0.1950,0.000220,0.347354,-0.000734,-1.607044,-0.002596,1.990368,-0.784730,0.000590,0.300451,-0.000489,-1.572413,-0.000075,2.001242,-0.784572,0.000590,0.300451,-0.000489,-1.572413,-0.000075,2.001242,-0.784572,0.0400,0.059363,0.6639,-0.0004,0.4315
0.2000,0.000235,0.347700,-0.000769,-1.607325,-0.002596,1.990560,-0.784683,0.000635,0.300485,-0.000526,-1.572537,-0.000081,2.001337,-0.784517,0.000635,0.300485,-0.000526,-1.572537,-0.000081,2.001337,-0.784517,0.0400,0.059683,0.6639,-0.0004,0.4311
0.2050,0.000253,0.347982,-0.000805,-1.607561,-0.002592,1.990757,-0.784633,0.000682,0.300521,-0.000565,-1.572666,-0.000087,2.001436,-0.784459,0.000682,0.300521,-0.000565,-1.572666,-0.000087,2.001436,-0.784459,0.0400,0.059923,0.6639,-0.0005,0.4307
0.2100,0.000272,0.348202,-0.000842,-1.607757,-0.002584,1.990958,-0.784580,0.000731,0.300559,-0.000606,-1.572802,-0.000093,2.001539,-0.784398,0.000731,0.300559,-0.000606,-1.572802,-0.000093,2.001539,-0.784398,0.0400,0.060085,0.6639,-0.0005,0.4304
0.2150,0.000293,0.348365,-0.000879,-1.607915,-0.002573,1.991165,-0.784525,0.000783,0.300598,-0.000649,-1.572943,-0.000100,2.001648,-0.784335,0.000783,0.300598,-0.000649,-1.572943,-0.000100,2.001648,-0.784335,0.0400,0.060175,0.6639,-0.0005,0.4302
0.2200,0.000317,0.348473,-0.000917,-1.608037,-0.002558,1.991378,-0.784467,0.000836,0.300639,-0.000693,-1.573091,-0.000107,2.001761,-0.784269,0.000836,0.300639,-0.000693,-1.573091,-0.000107,2.001761,-0.784269,0.0400,0.060195,0.6639,-0.0005,0.4301
0.2250,0.000342,0.348529,-0.000955,-1.608126,-0.002541,1.991598,-0.784407,0.000892,0.300682,-0.000740,-1.573245,-0.000114,2.001878,-0.784200,0.000892,0.300682,-0.000740,-1.573245,-0.000114,2.001878,-0.784200,0.0400,0.060150,0.6639,-0.0005,0.4299
0.2300,0.000370,0.348538,-0.000994,-1.608185,-0.002521,1.991826,-0.784343,0.000950,0.300727,-0.000788,-1.573405,-0.000121,2.002001,-0.784128,0.000950,0.300727,-0.000788,-1.573405,-0.000121,2.002001,-0.784128,0.0400,0.060045,0.6640,-0.0005,0.4299
0.2350,0.000400,0.348504,-0.001033,-1.608217,-0.002499,1.992061,-0.784276,0.001011,0.300773,-0.000838,-1.573572,-0.000129,2.002129,-0.784053,0.001011,0.300773,-0.000838,-1.573572,-0.000129,2.002129,-0.784053,0.0400,0.059883,0.6640,-0.0005,0.4299
0.2400,0.000433,0.348429,-0.001073,-1.608225,-0.002477,1.992304,-0.784207,0.001074,0.300821,-0.000891,-1.573746,-0.000137,2.002262,-0.783975,0.001074,0.300821,-0.000891,-1.573746,-0.000137,2.002262,-0.783975,0.0400,0.059669,0.6640,-0.0005,0.4299
0.2450,0.000469,0.348317,-0.001113,-1.608211,-0.002454,1.992555,-0.784135,0.001140,0.300871,-0.000945,-1.573926,-0.000145,2.002400,-0.783894,0.001140,0.300871,-0.000945,-1.573926,-0.000145,2.002400,-0.783894,0.0400,0.059408,0.6640,-0.0005,0.4300
0.2500,0.000506,0.348172,-0.001155,-1.608178,-0.002431,1.992815,-0.784059,0.001208,0.300923,-0.001001,-1.574113,-0.000154,2.002543,-0.783810,0.001208,0.300923,-0.001001,-1.574113,-0.000154,2.002543,-0.783810,0.0400,0.059104,0.6640,-0.0005,0.4301
0.2550,0.000547,0.347997,-0.001197,-1.608128,-0.002409,1.993081,-0.783981,0.001278,0.300977,-0.001060,-1.574307,-0.000163,2.002691,-0.783723,0.001278,0.300977,-0.001060,-1.574307,-0.000163,2.002691,-0.783723,0.0400,0.058760,0.6640,-0.0005,0.4302
0.2600,0.000590,0.347796,-0.001240,-1.608065,-0.002387,1.993355,-0.783899,0.001351,0.301033,-0.001121,-1.574508,-0.000172,2.002845,-0.783633,0.001351,0.301033,-0.001121,-1.574508,-0.000172,2.002845,-0.783633,0.0400,0.058383,0.6641,-0.0005,0.4304
0.2650,0.000636,0.347573,-0.001283,-1.607991,-0.002368,1.993635,-0.783815,0.001427,0.301091,-0.001183,-1.574716,-0.000182,2.003005,-0.783540,0.001427,0.301091,-0.001183,-1.574716,-0.000182,2.003005,-0.783540,0.0400,0.057974,0.6641,-0.0005,0.4306
0.2700,0.000685,0.347329,-0.001328,-1.607908,-0.002350,1.993920,-0.783727,0.001505,0.301151,-0.001248,-1.574932,-0.000192,2.003169,-0.783443,0.001505,0.301151,-0.001248,-1.574932,-0.000192,2.003169,-0.783443,0.0400,0.057540,0.6641,-0.0005,0.4308
0.2750,0.000736,0.347070,-0.001374,-1.607819,-0.002334,1.994210,-0.783636,0.001586,0.301212,-0.001315,-1.575155,-0.000202,2.003340,-0.783343,0.001586,0.301212,-0.001315,-1.575155,-0.000202,2.003340,-0.783343,0.0400,0.057084,0.6641,-0.0005,0.4310
0.2800,0.000791,0.346796,-0.001420,-1.607726,-0.002320,1.994503,-0.783543,0.001670,0.301276,-0.001385,-1.575385,-0.000213,2.003516,-0.783240,0.001670,0.301276,-0.001385,-1.575385,-0.000213,2.003516,-0.783240,0.0400,0.056609,0.6641,-0.0005,0.4312
0.2850,0.000848,0.346513,-0.001468,-1.607631,-0.002308,1.994800,-0.783445,0.001756,0.301342,-0.001456,-1.575622,-0.000224,2.003698,-0.783134,0.001756,0.301342,-0.001456,-1.575622,-0.000224,2.003698,-0.783134,0.0400,0.056119,0.6642,-0.0005,0.4315
0.2900,0.000908,0.346221,-0.001517,-1.607536,-0.002299,1.995097,-0.783345,0.001845,0.301411,-0.001530,-1.575868,-0.000235,2.003885,-0.783024,0.001845,0.301411,-0.001530,-1.575868,-0.000235,2.003885,-0.783024,0.0400,0.055618,0.6642,-0.0004,0.4318
0.2950,0.000971,0.345925,-0.001567,-1.607444,-0.002292,1.995396,-0.783241,0.001937,0.301481,-0.001606,-1.576120,-0.000247,2.004079,-0.782911,0.001937,0.301481,-0.001606,-1.576120,-0.000247,2.004079,-0.782911,0.0400,0.055109,0.6642,-0.0004,0.4320
0.3000,0.001037,0.345625,-0.001619,-1.607356,-0.002287,1.995695,-0.783135,0.002032,0.301553,-0.001685,-1.576381,-0.000259,2.004278,-0.782794,0.002032,0.301553,-0.001685,-1.576381,-0.000259,2.004278,-0.782794,0.0400,0.054596,0.6642,-0.0004,0.4323
0.3050,0.001106,0.345326,-0.001672,-1.607274,-0.002284,1.995993,-0.783024,0.002130,0.301628,-0.001766,-1.576650,-0.000272,2.004484,-0.782673,0.002130,0.301628,-0.001766,-1.576650,-0.000272,2.004484,-0.782673,0.0400,0.054080,0.6642,-0.0004,0.4326
0.3100,0.001178,0.345028,-0.001726,-1.607200,-0.002283,1.996290,-0.782911,0.002230,0.301705,-0.001849,-1.576926,-0.000284,2.004695,-0.782549,0.002230,0.301705,-0.001849,-1.576926,-0.000284,2.004695,-0.782549,0.0400,0.053566,0.6642,-0.0004,0.4328
0.3150,0.001253,0.344734,-0.001782,-1.607135,-0.002284,1.996585,-0.782793,0.002333,0.301784,-0.001935,-1.577210,-0.000298,2.004913,-0.782422,0.002333,0.301784,-0.001935,-1.577210,-0.000298,2.004913,-0.782422,0.0400,0.053055,0.6643,-0.0004,0.4331
0.3200,0.001331,0.344446,-0.001840,-1.607081,-0.002286,1.996879,-0.782673,0.002440,0.301865,-0.002023,-1.577503,-0.000311,2.005137,-0.782291,0.002440,0.301865,-0.002023,-1.577503,-0.000311,2.005137,-0.782291,0.0400,0.052550,0.6643,-0.0004,0.4333
0.3250,0.001412,0.344165,-0.001899,-1.607039,-0.002289,1.997171,-0.782548,0.002549,0.301948,-0.002114,-1.577803,-0.000325,2.005367,-0.782156,0.002549,0.301948,-0.002114,-1.577803,-0.000325,2.005367,-0.782156,0.0400,0.052053,0.6643,-0.0003,0.4336
0.3300,0.001495,0.343893,-0.001960,-1.607011,-0.002294,1.997461,-0.782421,0.002661,0.302034,-0.002207,-1.578112,-0.000339,2.005603,-0.782018,0.002661,0.302034,-0.002207,-1.578112,-0.000339,2.005603,-0.782018,0.0400,0.051566,0.6643,-0.0003,0.4338
0.3350,0.001582,0.343632,-0.002024,-1.606998,-0.002300,1.997749,-0.782289,0.002776,0.302122,-0.002302,-1.578429,-0.000354,2.005846,-0.781876,0.002776,0.302122,-0.002302,-1.578429,-0.000354,2.005846,-0.781876,0.0400,0.051090,0.6643,-0.0003,0.4340
0.3400,0.001671,0.343382,-0.002089,-1.607000,-0.002306,1.998035,-0.782154,0.002895,0.302213,-0.002400,-1.578755,-0.000369,2.006095,-0.781730,0.002895,0.302213,-0.002400,-1.578755,-0.000369,2.006095,-0.781730,0.0400,0.050628,0.6643,-0.0003,0.4342
0.3450,0.001764,0.343146,-0.002156,-1.607018,-0.002314,1.998320,-0.782015,0.003016,0.302305,-0.002501,-1.579089,-0.000385,2.006350,-0.781580,0.003016,0.302305,-0.002501,-1.579089,-0.000385,2.006350,-0.781580,0.0400,0.050180,0.6643,-0.0003,0.4344
0.3500,0.001859,0.342923,-0.002225,-1.607054,-0.002323,1.998605,-0.781872,0.003141,0.302401,-0.002604,-1.579432,-0.000400,2.006613,-0.781426,0.003141,0.302401,-0.002604,-1.579432,-0.000400,2.006613,-0.781426,0.0400,0.049748,0.6643,-0.0002,0.4346
0.3550,0.001957,0.342716,-0.002296,-1.607107,-0.002332,1.998889,-0.781725,0.003268,0.302498,-0.002710,-1.579783,-0.000417,2.006881,-0.781269,0.003268,0.302498,-0.002710,-1.579783,-0.000417,2.006881,-0.781269,0.0400,0.049333,0.6643,-0.0002,0.4348
0.3600,0.002059,0.342523,-0.002370,-1.607179,-0.002342,1.999173,-0.781575,0.003399,0.302598,-0.002819,-1.580143,-0.000433,2.007157,-0.781108,0.003399,0.302598,-0.002819,-1.580143,-0.000433,2.007157,-0.781108,0.0400,0.048935,0.6643,-0.0002,0.4349
0.3650,0.002163,0.342347,-0.002446,-1.607270,-0.002353,1.999457,-0.781421,0.003533,0.302701,-0.002930,-1.580511,-0.000450,2.007439,-0.780942,0.003533,0.302701,-0.002930,-1.580511,-0.000450,2.007439,-0.780942,0.0400,0.048555,0.6643,-0.0002,0.4350
0.3700,0.002270,0.342188,-0.002524,-1.607380,-0.002365,1.999743,-0.781263,0.003670,0.302805,-0.003043,-1.580889,-0.000468,2.007727,-0.780773,0.003670,0.302805,-0.003043,-1.580889,-0.000468,2.007727,-0.780773,0.0400,0.048194,0.6643,-0.0002,0.4351
0.3750,0.002380,0.342046,-0.002604,-1.607510,-0.002378,2.000030,-0.781100,0.003811,0.302913,-0.003160,-1.581275,-0.000486,2.008023,-0.780600,0.003811,0.302913,-0.003160,-1.581275,-0.000486,2.008023,-0.780600,0.0400,0.047851,0.6643,-0.0001,0.4352
0.3800,0.002493,0.341921,-0.002688,-1.607659,-0.002392,2.000320,-0.780934,0.003954,0.303022,-0.003279,-1.581670,-0.000504,2.008325,-0.780423,0.003954,0.303022,-0.003279,-1.581670,-0.000504,2.008325,-0.780423,0.0400,0.047529,0.6643,-0.0001,0.4353
0.3850,0.002608,0.341814,-0.002773,-1.607829,-0.002407,2.000612,-0.780764,0.004101,0.303135,-0.003401,-1.582074,-0.000523,2.008635,-0.780242,0.004101,0.303135,-0.003401,-1.582074,-0.000523,2.008635,-0.780242,0.0400,0.047225,0.6643,-0.0001,0.4353
0.3900,0.002727,0.341724,-0.002862,-1.608018,-0.002422,2.000907,-0.780590,0.004251,0.303249,-0.003525,-1.582487,-0.000542,2.008951,-0.780057,0.004251,0.303249,-0.003525,-1.582487,-0.000542,2.008951,-0.780057,0.0400,0.046940,0.6643,-0.0001,0.4353
0.3950,0.002849,0.341652,-0.002952,-1.608227,-0.002439,2.001206,-0.780412,0.004405,0.303367,-0.003652,-1.582910,-0.000562,2.009274,-0.779867,0.004405,0.303367,-0.003652,-1.582910,-0.000562,2.009274,-0.779867,0.0400,0.046675,0.6643,-0.0000,0.4353
0.4000,0.002973,0.341597,-0.003046,-1.608455,-0.002457,2.001508,-0.780230,0.004562,0.303487,-0.003782,-1.583341,-0.000582,2.009604,-0.779674,0.004562,0.303487,-0.003782,-1.583341,-0.000582,2.009604,-0.779674,0.0400,0.046428,0.6642,-0.0000,0.4353
0.4050,0.003101,0.341560,-0.003142,-1.608703,-0.002476,2.001816,-0.780044,0.004722,0.303609,-0.003915,-1.583782,-0.000602,2.009941,-0.779476,0.004722,0.303609,-0.003915,-1.583782,-0.000602,2.009941,-0.779476,0.0400,0.046200,0.6642,0.0000,0.4352
0.4100,0.003231,0.341539,-0.003241,-1.608971,-0.002496,2.002127,-0.779853,0.004885,0.303734,-0.004051,-1.584232,-0.000623,2.010286,-0.779275,0.004885,0.303734,-0.004051,-1.584232,-0.000623,2.010286,-0.779275,0.0400,0.045990,0.6642,0.0001,0.4352
0.4150,0.003364,0.341536,-0.003343,-1.609258,-0.002517,2.002444,-0.779659,0.005052,0.303862,-0.004189,-1.584691,-0.000644,2.010637,-0.779069,0.005052,0.303862,-0.004189,-1.584691,-0.000644,2.010637,-0.779069,0.0400,0.045797,0.6642,0.0001,0.4351
0.4200,0.003500,0.341548,-0.003448,-1.609563,-0.002538,2.002766,-0.779460,0.005223,0.303992,-0.004331,-1.585160,-0.000666,2.010996,-0.778859,0.005223,0.303992,-0.004331,-1.585160,-0.000666,2.010996,-0.778859,0.0400,0.045621,0.6642,0.0001,0.4350
0.4250,0.003639,0.341576,-0.003556,-1.609887,-0.002561,2.003094,-0.779257,0.005396,0.304125,-0.004475,-1.585638,-0.000688,2.011362,-0.778644,0.005396,0.304125,-0.004475,-1.585638,-0.000688,2.011362,-0.778644,0.0400,0.045462,0.6642,0.0001,0.4349
0.4300,0.003782,0.341620,-0.003666,-1.610229,-0.002585,2.003427,-0.779050,0.005574,0.304260,-0.004622,-1.586126,-0.000711,2.011735,-0.778426,0.005574,0.304260,-0.004622,-1.586126,-0.000711,2.011735,-0.778426,0.0400,0.045318,0.6642,0.0002,0.4347
0.4350,0.003927,0.341678,-0.003780,-1.610589,-0.002610,2.003766,-0.778839,0.005754,0.304398,-0.004771,-1.586623,-0.000734,2.012115,-0.778203,0.005754,0.304398,-0.004771,-1.586623,-0.000734,2.012115,-0.778203,0.0400,0.045189,0.6641,0.0002,0.4346
0.4400,0.004075,0.341750,-0.003897,-1.610966,-0.002635,2.004112,-0.778624,0.005938,0.304539,-0.004924,-1.587129,-0.000757,2.012503,-0.777976,0.005938,0.304539,-0.004924,-1.587129,-0.000757,2.012503,-0.777976,0.0400,0.045075,0.6641,0.0002,0.4344
0.4450,0.004226,0.341836,-0.004016,-1.611359,-0.002661,2.004464,-0.778404,0.006126,0.304683,-0.005080,-1.587646,-0.000781,2.012898,-0.777744,0.006126,0.304683,-0.005080,-1.587646,-0.000781,2.012898,-0.777744,0.0400,0.044973,0.6641,0.0002,0.4342
0.4500,0.004380,0.341935,-0.004139,-1.611770,-0.002688,2.004823,-0.778180,0.006317,0.304829,-0.005238,-1.588172,-0.000806,2.013301,-0.777508,0.006317,0.304829,-0.005238,-1.588172,-0.000806,2.013301,-0.777508,0.0400,0.044884,0.6641,0.0003,0.4340
0.4550,0.004537,0.342047,-0.004264,-1.612196,-0.002716,2.005188,-0.777951,0.006512,0.304978,-0.005400,-1.588708,-0.000830,2.013711,-0.777268,0.006512,0.304978,-0.005400,-1.588708,-0.000830,2.013711,-0.777268,0.0400,0.044807,0.6640,0.0003,0.4337
0.4600,0.004697,0.342170,-0.004393,-1.612638,-0.002744,2.005560,-0.777719,0.006710,0.305129,-0.005564,-1.589253,-0.000856,2.014128,-0.777024,0.006710,0.305129,-0.005564,-1.589253,-0.000856,2.014128,-0.777024,0.0400,0.044741,0.6640,0.0003,0.4335
0.4650,0.004860,0.342304,-0.004525,-1.613095,-0.002772,2.005940,-0.777482,0.006912,0.305283,-0.005731,-1.589809,-0.000881,2.014553,-0.776775,0.006912,0.305283,-0.005731,-1.589809,-0.000881,2.014553,-0.776775,0.0400,0.044684,0.6640,0.0004,0.4332
0.4700,0.005026,0.342448,-0.004659,-1.613566,-0.002801,2.006327,-0.777240,0.007117,0.305440,-0.005902,-1.590374,-0.000908,2.014985,-0.776521,0.007117,0.305440,-0.005902,-1.590374,-0.000908,2.014985,-0.776521,0.0400,0.044637,0.6640,0.0004,0.4330
0.4750,0.005195,0.342603,-0.004797,-1.614052,-0.002831,2.006721,-0.776995,0.007326,0.305600,-0.006075,-1.590949,-0.000934,2.015425,-0.776264,0.007326,0.305600,-0.006075,-1.590949,-0.000934,2.015425,-0.776264,0.0400,0.044598,0.6639,0.0004,0.4327
0.4800,0.005368,0.342766,-0.004938,-1.614551,-0.002860,2.007123,-0.776744,0.007539,0.305763,-0.006251,-1.591534,-0.000961,2.015873,-0.776001,0.007539,0.305763,-0.006251,-1.591534,-0.000961,2.015873,-0.776001,0.0400,0.044567,0.6639,0.0004,0.4324
0.4850,0.005543,0.342938,-0.005082,-1.615064,-0.002891,2.007533,-0.776490,0.007755,0.305928,-0.006431,-1.592129,-0.000989,2.016328,-0.775735,0.007755,0.305928,-0.006431,-1.592129,-0.000989,2.016328,-0.775735,0.0400,0.044542,0.6639,0.0005,0.4321
0.4900,0.005722,0.343117,-0.005230,-1.615590,-0.002921,2.007951,-0.776231,0.007975,0.306096,-0.006613,-1.592733,-0.001017,2.016791,-0.775464,0.007975,0.306096,-0.006613,-1.592733,-0.001017,2.016791,-0.775464,0.0400,0.044523,0.6639,0.0005,0.4317
0.4950,0.005904,0.343304,-0.005380,-1.616128,-0.002952,2.008377,-0.775967,0.008199,0.306267,-0.006798,-1.593348,-0.001045,2.017262,-0.775188,0.008199,0.306267,-0.006798,-1.593348,-0.001045,2.017262,-0.775188,0.0400,0.044510,0.6638,0.0005,0.4314
0.5000,0.006089,0.343497,-0.005533,-1.616678,-0.002983,2.008811,-0.775699,0.008426,0.306440,-0.006987,-1.593973,-0.001074,2.017740,-0.774908,0.008426,0.306440,-0.006987,-1.593973,-0.001074,2.017740,-0.774908,0.0400,0.044500,0.6638,0.0006,0.4311
0.5050,0.006278,0.343697,-0.005690,-1.617240,-0.003014,2.009254,-0.775427,0.008657,0.306617,-0.007178,-1.594608,-0.001104,2.018226,-0.774623,0.008657,0.306617,-0.007178,-1.594608,-0.001104,2.018226,-0.774623,0.0400,0.044494,0.6638,0.0006,0.4307
0.5100,0.006469,0.343901,-0.005850,-1.617813,-0.003045,2.009705,-0.775150,0.008891,0.306796,-0.007372,-1.595253,-0.001134,2.018719,-0.774334,0.008891,0.306796,-0.007372,-1.595253,-0.001134,2.018719,-0.774334,0.0400,0.044491,0.6637,0.0006,0.4304
0.5150,0.006664,0.344111,-0.006012,-1.618397,-0.003077,2.010165,-0.774868,0.009129,0.306978,-0.007570,-1.595909,-0.001164,2.019221,-0.774040,0.009129,0.306978,-0.007570,-1.595909,-0.001164,2.019221,-0.774040,0.0400,0.044491,0.6637,0.0006,0.4300
0.5200,0.006863,0.344325,-0.006178,-1.618991,-0.003109,2.010634,-0.774582,0.009371,0.307163,-0.007770,-1.596574,-0.001195,2.019730,-0.773742,0.009371,0.307163,-0.007770,-1.596574,-0.001195,2.019730,-0.773742,0.0400,0.044492,0.6637,0.0007,0.4296
0.5250,0.007064,0.344543,-0.006347,-1.619596,-0.003141,2.011111,-0.774292,0.009617,0.307351,-0.007974,-1.597250,-0.001226,2.020247,-0.773439,0.009617,0.307351,-0.007974,-1.597250,-0.001226,2.020247,-0.773439,0.0400,0.044494,0.6636,0.0007,0.4292
0.5300,0.007269,0.344765,-0.006519,-1.620211,-0.003174,2.011598,-0.773996,0.009866,0.307541,-0.008181,-1.597936,-0.001258,2.020772,-0.773132,0.009866,0.307541,-0.008181,-1.597936,-0.001258,2.020772,-0.773132,0.0400,0.044496,0.6636,0.0007,0.4288
0.5350,0.007478,0.344990,-0.006694,-1.620836,-0.003207,2.012093,-0.773697,0.010119,0.307734,-0.008390,-1.598632,-0.001290,2.021304,-0.772820,0.010119,0.307734,-0.008390,-1.598632,-0.001290,2.021304,-0.772820,0.0400,0.044499,0.6636,0.0008,0.4284
0.5400,0.007690,0.345217,-0.006872,-1.621470,-0.003240,2.012598,-0.773392,0.010375,0.307931,-0.008603,-1.599338,-0.001323,2.021845,-0.772503,0.010375,0.307931,-0.008603,-1.599338,-0.001323,2.021845,-0.772503,0.0400,0.044501,0.6635,0.0008,0.4280
0.5450,0.007905,0.345447,-0.007054,-1.622114,-0.003273,2.013112,-0.773083,0.010636,0.308130,-0.008819,-1.600055,-0.001356,2.022393,-0.772182,0.010636,0.308130,-0.008819,-1.600055,-0.001356,2.022393,-0.772182,0.0400,0.044501,0.6635,0.0008,0.4276
0.5500,0.008124,0.345679,-0.007238,-1.622766,-0.003307,2.013634,-0.772770,0.010900,0.308332,-0.009038,-1.600782,-0.001390,2.022949,-0.771856,0.010900,0.308332,-0.009038,-1.600782,-0.001390,2.022949,-0.771856,0.0400,0.044501,0.6635,0.0009,0.4272
0.5550,0.008346,0.345912,-0.007425,-1.623428,-0.003341,2.014167,-0.772452,0.011168,0.308536,-0.009261,-1.601519,-0.001424,2.023514,-0.771525,0.011168,0.308536,-0.009261,-1.601519,-0.001424,2.023514,-0.771525,0.0400,0.044499,0.6634,0.0009,0.4268
0.5600,0.008572,0.346147,-0.007616,-1.624098,-0.003375,2.014708,-0.772129,0.011440,0.308744,-0.009486,-1.602266,-0.001459,2.024086,-0.771190,0.011440,0.308744,-0.009486,-1.602266,-0.001459,2.024086,-0.771190,0.0400,0.044495,0.6634,0.0009,0.4264
0.5650,0.008802,0.346383,-0.007809,-1.624776,-0.003410,2.015258,-0.771802,0.011715,0.308955,-0.009714,-1.603024,-0.001494,2.024666,-0.770850,0.011715,0.308955,-0.009714,-1.603024,-0.001494,2.024666,-0.770850,0.0400,0.044488,0.6633,0.0010,0.4260
0.5700,0.009035,0.346620,-0.008006,-1.625463,-0.003445,2.015818,-0.771470,0.011995,0.309168,-0.009946,-1.603793,-0.001529,2.025254,-0.770506,0.011995,0.309168,-0.009946,-1.603793,-0.001529,2.025254,-0.770506,0.0400,0.044479,0.6633,0.0010,0.4255
0.5750,0.009272,0.346857,-0.008205,-1.626158,-0.003480,2.016387,-0.771133,0.012278,0.309384,-0.010180,-1.604571,-0.001565,2.025849,-0.770157,0.012278,0.309384,-0.010180,-1.604571,-0.001565,2.025849,-0.770157,0.0400,0.044467,0.6633,0.0010,0.4251
0.5800,0.009512,0.347095,-0.008408,-1.626862,-0.003515,2.016964,-0.770792,0.012564,0.309604,-0.010418,-1.605361,-0.001602,2.026453,-0.769803,0.012564,0.309604,-0.010418,-1.605361,-0.001602,2.026453,-0.769803,0.0400,0.044452,0.6632,0.0011,0.4247
0.5850,0.009756,0.347334,-0.008613,-1.627574,-0.003551,2.017551,-0.770446,0.012855,0.309826,-0.010659,-1.606160,-0.001639,2.027065,-0.769445,0.012855,0.309826,-0.010659,-1.606160,-0.001639,2.027065,-0.769445,0.0400,0.044434,0.6632,0.0011,0.4242
0.5900,0.010004,0.347573,-0.008822,-1.628293,-0.003587,2.018147,-0.770095,0.013149,0.310051,-0.010903,-1.606970,-0.001677,2.027685,-0.769082,0.013149,0.310051,-0.010903,-1.606970,-0.001677,2.027685,-0.769082,0.0400,0.044412,0.6631,0.0012,0.4238
0.5950,0.010255,0.347812,-0.009033,-1.629021,-0.003624,2.018752,-0.769740,0.013447,0.310279,-0.011151,-1.607790,-0.001715,2.028313,-0.768714,0.013447,0.310279,-0.011151,-1.607790,-0.001715,2.028313,-0.768714,0.0400,0.044388,0.6631,0.0012,0.4233
0.6000,0.010511,0.348051,-0.009248,-1.629757,-0.003661,2.019366,-0.769380,0.013749,0.310509,-0.011401,-1.608621,-0.001753,2.028948,-0.768342,0.013749,0.310509,-0.011401,-1.608621,-0.001753,2.028948,-0.768342,0.0400,0.044360,0.6630,0.0012,0.4229
0.6050,0.010769,0.348291,-0.009465,-1.630501,-0.003698,2.019989,-0.769016,0.014055,0.310743,-0.011654,-1.609463,-0.001792,2.029592,-0.767964,0.014055,0.310743,-0.011654,-1.609463,-0.001792,2.029592,-0.767964,0.0400,0.044328,0.6630,0.0013,0.4224
0.6100,0.011032,0.348530,-0.009686,-1.631253,-0.003735,2.020620,-0.768646,0.014365,0.310980,-0.011911,-1.610314,-0.001832,2.030244,-0.767583,0.014365,0.310980,-0.011911,-1.610314,-0.001832,2.030244,-0.767583,0.0400,0.044293,0.6629,0.0013,0.4220
0.6150,0.011299,0.348770,-0.009909,-1.632012,-0.003773,2.021261,-0.768273,0.014678,0.311219,-0.012171,-1.611176,-0.001872,2.030904,-0.767196,0.014678,0.311219,-0.012171,-1.611176,-0.001872,2.030904,-0.767196,0.0400,0.044255,0.6629,0.0014,0.4215
0.6200,0.011569,0.349010,-0.010136,-1.632780,-0.003811,2.021910,-0.767894,0.014995,0.311462,-0.012434,-1.612049,-0.001912,2.031571,-0.766805,0.014995,0.311462,-0.012434,-1.612049,-0.001912,2.031571,-0.766805,0.0400,0.044213,0.6628,0.0014,0.4210
0.6250,0.011843,0.349249,-0.010365,-1.633557,-0.003850,2.022568,-0.767511,0.015316,0.311707,-0.012700,-1.612932,-0.001953,2.032247,-0.766409,0.015316,0.311707,-0.012700,-1.612932,-0.001953,2.032247,-0.766409,0.0400,0.044168,0.6628,0.0014,0.4206
0.6300,0.012121,0.349489,-0.010598,-1.634341,-0.003889,2.023234,-0.767123,0.015641,0.311955,-0.012969,-1.613826,-0.001994,2.032931,-0.766009,0.015641,0.311955,-0.012969,-1.613826,-0.001994,2.032931,-0.766009,0.0400,0.044119,0.6627,0.0015,0.4201
0.6350,0.012402,0.349729,-0.010833,-1.635133,-0.003928,2.023909,-0.766730,0.015970,0.312206,-0.013242,-1.614730,-0.002036,2.033623,-0.765603,0.015970,0.312206,-0.013242,-1.614730,-0.002036,2.033623,-0.765603,0.0400,0.044068,0.6627,0.0015,0.4196
0.6400,0.012688,0.349970,-0.011071,-1.635934,-0.003968,2.024593,-0.766332,0.016302,0.312461,-0.013517,-1.615644,-0.002079,2.034322,-0.765193,0.016302,0.312461,-0.013517,-1.615644,-0.002079,2.034322,-0.765193,0.0400,0.044013,0.6626,0.0016,0.4192
0.6450,0.012977,0.350210,-0.011313,-1.636743,-0.004007,2.025285,-0.765930,0.016638,0.312718,-0.013796,-1.616570,-0.002121,2.035030,-0.764779,0.016638,0.312718,-0.013796,-1.616570,-0.002121,2.035030,-0.764779,0.0400,0.043956,0.6626,0.0016,0.4187
0.6500,0.013270,0.350452,-0.011557,-1.637561,-0.004048,2.025986,-0.765523,0.016978,0.312977,-0.014078,-1.617505,-0.002165,2.035746,-0.764359,0.016978,0.312977,-0.014078,-1.617505,-0.002165,2.035746,-0.764359,0.0400,0.043896,0.6625,0.0017,0.4182
0.6550,0.013567,0.350693,-0.011804,-1.638387,-0.004089,2.026695,-0.765112,0.017322,0.313240,-0.014363,-1.618451,-0.002209,2.036470,-0.763935,0.017322,0.313240,-0.014363,-1.618451,-0.002209,2.036470,-0.763935,0.0400,0.043833,0.6625,0.0017,0.4177
0.6600,0.013868,0.350936,-0.012055,-1.639222,-0.004130,2.027412,-0.764696,0.017670,0.313506,-0.014651,-1.619407,-0.002253,2.037202,-0.763507,0.017670,0.313506,-0.014651,-1.619407,-0.002253,2.037202,-0.763507,0.0400,0.043767,0.6624,0.0018,0.4172
0.6650,0.014173,0.351179,-0.012308,-1.640066,-0.004171,2.028137,-0.764275,0.018021,0.313774,-0.014943,-1.620374,-0.002298,2.037942,-0.763073,0.018021,0.313774,-0.014943,-1.620374,-0.002298,2.037942,-0.763073,0.0400,0.043700,0.6623,0.0018,0.4167
0.6700,0.014482,0.351423,-0.012564,-1.640918,-0.004214,2.028871,-0.763849,0.018376,0.314046,-0.015237,-1.621352,-0.002343,2.038690,-0.762635,0.018376,0.314046,-0.015237,-1.621352,-0.002343,2.038690,-0.762635,0.0400,0.043630,0.6623,0.0018,0.4162
0.6750,0.014794,0.351668,-0.012823,-1.641779,-0.004256,2.029613,-0.763419,0.018735,0.314320,-0.015535,-1.622339,-0.002389,2.039445,-0.762192,0.018735,0.314320,-0.015535,-1.622339,-0.002389,2.039445,-0.762192,0.0400,0.043558,0.6622,0.0019,0.4157
0.6800,0.015111,0.351914,-0.013085,-1.642650,-0.004299,2.030363,-0.762984,0.019098,0.314598,-0.015836,-1.623338,-0.002435,2.040209,-0.761745,0.019098,0.314598,-0.015836,-1.623338,-0.002435,2.040209,-0.761745,0.0400,0.043484,0.6622,0.0019,0.4152
0.6850,0.015431,0.352161,-0.013351,-1.643529,-0.004342,2.031122,-0.762544,0.019465,0.314878,-0.016140,-1.624346,-0.002482,2.040981,-0.761293,0.019465,0.314878,-0.016140,-1.624346,-0.002482,2.040981,-0.761293,0.0400,0.043409,0.6621,0.0020,0.4147
0.6900,0.015755,0.352410,-0.013619,-1.644418,-0.004386,2.031888,-0.762100,0.019835,0.315161,-0.016447,-1.625366,-0.002529,2.041761,-0.760836,0.019835,0.315161,-0.016447,-1.625366,-0.002529,2.041761,-0.760836,0.0400,0.043332,0.6620,0.0020,0.4142
0.6950,0.016083,0.352660,-0.013890,-1.645316,-0.004431,2.032662,-0.761651,0.020209,0.315447,-0.016757,-1.626395,-0.002577,2.042549,-0.760374,0.020209,0.315447,-0.016757,-1.626395,-0.002577,2.042549,-0.760374,0.0400,0.043254,0.6620,0.0021,0.4137
0.7000,0.016415,0.352912,-0.014164,-1.646224,-0.004475,2.033444,-0.761197,0.020587,0.315736,-0.017071,-1.627435,-0.002625,2.043344,-0.759908,0.020587,0.315736,-0.017071,-1.627435,-0.002625,2.043344,-0.759908,0.0400,0.043175,0.6619,0.0022,0.4132
0.7050,0.016751,0.353166,-0.014441,-1.647141,-0.004521,2.034235,-0.760739,0.020969,0.316028,-0.017387,-1.628485,-0.002674,2.044148,-0.759437,0.020969,0.316028,-0.017387,-1.628485,-0.002674,2.044148,-0.759437,0.0400,0.043094,0.6618,0.0022,0.4127
0.7100,0.017091,0.353422,-0.014721,-1.648067,-0.004566,2.035033,-0.760276,0.021354,0.316322,-0.017707,-1.629546,-0.002723,2.044960,-0.758962,0.021354,0.316322,-0.017707,-1.629546,-0.002723,2.044960,-0.758962,0.0400,0.043013,0.6618,0.0023,0.4121
0.7150,0.017435,0.353679,-0.015004,-1.649004,-0.004613,2.035839,-0.759808,0.021743,0.316620,-0.018030,-1.630617,-0.002772,2.045779,-0.758482,0.021743,0.316620,-0.018030,-1.630617,-0.002772,2.045779,-0.758482,0.0400,0.042932,0.6617,0.0023,0.4116
0.7200,0.017782,0.353939,-0.015290,-1.649950,-0.004659,2.036653,-0.759335,0.022136,0.316920,-0.018355,-1.631698,-0.002823,2.046607,-0.757997,0.022136,0.316920,-0.018355,-1.631698,-0.002823,2.046607,-0.757997,0.0400,0.042850,0.6616,0.0024,0.4111
0.7250,0.018133,0.354201,-0.015579,-1.650906,-0.004707,2.037474,-0.758858,0.022533,0.317224,-0.018684,-1.632790,-0.002873,2.047442,-0.757508,0.022533,0.317224,-0.018684,-1.632790,-0.002873,2.047442,-0.757508,0.0400,0.042767,0.6615,0.0024,0.4105
0.7300,0.018489,0.354465,-0.015871,-1.651872,-0.004754,2.038304,-0.758377,0.022934,0.317530,-0.019017,-1.633892,-0.002924,2.048285,-0.757014,0.022934,0.317530,-0.019017,-1.633892,-0.002924,2.048285,-0.757014,0.0400,0.042685,0.6615,0.0025,0.4100
0.7350,0.018848,0.354732,-0.016166,-1.652848,-0.004803,2.039141,-0.757890,0.023338,0.317839,-0.019352,-1.635004,-0.002976,2.049136,-0.756515,0.023338,0.317839,-0.019352,-1.635004,-0.002976,2.049136,-0.756515,0.0400,0.042602,0.6614,0.0025,0.4094
0.7400,0.019211,0.355001,-0.016464,-1.653834,-0.004851,2.039986,-0.757399,0.023746,0.318151,-0.019690,-1.636127,-0.003028,2.049995,-0.756012,0.023746,0.318151,-0.019690,-1.636127,-0.003028,2.049995,-0.756012,0.0400,0.042520,0.6613,0.0026,0.4088
0.7450,0.019577,0.355273,-0.016765,-1.654830,-0.004900,2.040839,-0.756904,0.024158,0.318465,-0.020031,-1.637260,-0.003080,2.050862,-0.755504,0.024158,0.318465,-0.020031,-1.637260,-0.003080,2.050862,-0.755504,0.0400,0.042438,0.6612,0.0027,0.4083
0.7500,0.019948,0.355548,-0.017069,-1.655837,-0.004950,2.041699,-0.756404,0.024573,0.318783,-0.020376,-1.638403,-0.003133,2.051737,-0.754992,0.024573,0.318783,-0.020376,-1.638403,-0.003133,2.051737,-0.754992,0.0400,0.042356,0.6611,0.0027,0.4077
0.7550,0.020322,0.355826,-0.017376,-1.656854,-0.005000,2.042567,-0.755899,0.024992,0.319103,-0.020723,-1.639556,-0.003187,2.052619,-0.754475,0.024992,0.319103,-0.020723,-1.639556,-0.003187,2.052619,-0.754475,0.0400,0.042275,0.6610,0.0028,0.4071
0.7600,0.020700,0.356106,-0.017686,-1.657881,-0.005051,2.043442,-0.755389,0.025415,0.319426,-0.021074,-1.640719,-0.003241,2.053510,-0.753953,0.025415,0.319426,-0.021074,-1.640719,-0.003241,2.053510,-0.753953,0.0400,0.042194,0.6610,0.0028,0.4065
0.7650,0.021082,0.356390,-0.017999,-1.658918,-0.005102,2.044325,-0.754875,0.025842,0.319752,-0.021428,-1.641893,-0.003295,2.054408,-0.753427,0.025842,0.319752,-0.021428,-1.641893,-0.003295,2.054408,-0.753427,0.0400,0.042114,0.6609,0.0029,0.4059
0.7700,0.021468,0.356677,-0.018315,-1.659966,-0.005154,2.045216,-0.754357,0.026272,0.320081,-0.021784,-1.643077,-0.003350,2.055313,-0.752896,0.026272,0.320081,-0.021784,-1.643077,-0.003350,2.055313,-0.752896,0.0400,0.042035,0.6608,0.0030,0.4053
0.7750,0.021858,0.356966,-0.018634,-1.661024,-0.005206,2.046114,-0.753834,0.026706,0.320413,-0.022144,-1.644270,-0.003405,2.056227,-0.752361,0.026706,0.320413,-0.022144,-1.644270,-0.003405,2.056227,-0.752361,0.0400,0.041957,0.6607,0.0030,0.4047
0.7800,0.022251,0.357259,-0.018956,-1.662093,-0.005259,2.047020,-0.753306,0.027143,0.320747,-0.022507,-1.645474,-0.003461,2.057148,-0.751822,0.027143,0.320747,-0.022507,-1.645474,-0.003461,2.057148,-0.751822,0.0400,0.041879,0.6606,0.0031,0.4041
0.7850,0.022648,0.357556,-0.019281,-1.663172,-0.005312,2.047933,-0.752774,0.027584,0.321084,-0.022873,-1.646688,-0.003517,2.058077,-0.751278,0.027584,0.321084,-0.022873,-1.646688,-0.003517,2.058077,-0.751278,0.0400,0.041803,0.6605,0.0031,0.4035
0.7900,0.023049,0.357855,-0.019609,-1.664262,-0.005366,2.048854,-0.752237,0.028029,0.321425,-0.023242,-1.647912,-0.003574,2.059014,-0.750729,0.028029,0.321425,-0.023242,-1.647912,-0.003574,2.059014,-0.750729,0.0400,0.041727,0.6604,0.0032,0.4029
0.7950,0.023454,0.358158,-0.019940,-1.665362,-0.005420,2.049782,-0.751696,0.028478,0.321767,-0.023614,-1.649146,-0.003631,2.059958,-0.750176,0.028478,0.321767,-0.023614,-1.649146,-0.003631,2.059958,-0.750176,0.0400,0.041653,0.6603,0.0033,0.4023
0.8000,0.023862,0.358464,-0.020274,-1.666472,-0.005475,2.050718,-0.751150,0.028930,0.322113,-0.023988,-1.650390,-0.003689,2.060910,-0.749618,0.028930,0.322113,-0.023988,-1.650390,-0.003689,2.060910,-0.749618,0.0400,0.041580,0.6602,0.0033,0.4016
0.8050,0.024275,0.358774,-0.020611,-1.667594,-0.005530,2.051661,-0.750600,0.029386,0.322461,-0.024366,-1.651644,-0.003747,2.061869,-0.749056,0.029386,0.322461,-0.024366,-1.651644,-0.003747,2.061869,-0.749056,0.0400,0.041508,0.6601,0.0034,0.4010
0.8100,0.024690,0.359086,-0.020951,-1.668725,-0.005586,2.052612,-0.750045,0.029845,0.322812,-0.024747,-1.652908,-0.003805,2.062836,-0.748490,0.029845,0.322812,-0.024747,-1.652908,-0.003805,2.062836,-0.748490,0.0400,0.041438,0.6600,0.0035,0.4004
0.8150,0.025110,0.359403,-0.021295,-1.669867,-0.005642,2.053570,-0.749486,0.030308,0.323166,-0.025131,-1.654181,-0.003864,2.063811,-0.747919,0.030308,0.323166,-0.025131,-1.654181,-0.003864,2.063811,-0.747919,0.0400,0.041369,0.6599,0.0035,0.3997
0.8200,0.025533,0.359722,-0.021641,-1.671020,-0.005698,2.054536,-0.748922,0.030774,0.323523,-0.025518,-1.655465,-0.003924,2.064793,-0.747343,0.030774,0.323523,-0.025518,-1.655465,-0.003924,2.064793,-0.747343,0.0400,0.041301,0.6598,0.0036,0.3990
0.8250,0.025960,0.360046,-0.021990,-1.672183,-0.005755,2.055509,-0.748354,0.031244,0.323882,-0.025908,-1.656758,-0.003984,2.065783,-0.746764,0.031244,0.323882,-0.025908,-1.656758,-0.003984,2.065783,-0.746764,0.0400,0.041234,0.6597,0.0037,0.3984
0.8300,0.026391,0.360372,-0.022342,-1.673357,-0.005813,2.056489,-0.747781,0.031718,0.324244,-0.026300,-1.658061,-0.004044,2.066780,-0.746179,0.031718,0.324244,-0.026300,-1.658061,-0.004044,2.066780,-0.746179,0.0400,0.041169,0.6596,0.0037,0.3977
0.8350,0.026825,0.360702,-0.022697,-1.674541,-0.005871,2.057477,-0.747204,0.032195,0.324609,-0.026696,-1.659374,-0.004105,2.067784,-0.745591,0.032195,0.324609,-0.026696,-1.659374,-0.004105,2.067784,-0.745591,0.0400,0.041105,0.6595,0.0038,0.3970
0.8400,0.027263,0.361036,-0.023055,-1.675735,-0.005930,2.058472,-0.746623,0.032676,0.324976,-0.027094,-1.660697,-0.004166,2.068796,-0.744998,0.032676,0.324976,-0.027094,-1.660697,-0.004166,2.068796,-0.744998,0.0400,0.041042,0.6593,0.0039,0.3963
0.8450,0.027704,0.361373,-0.023416,-1.676940,-0.005989,2.059474,-0.746037,0.033160,0.325346,-0.027496,-1.662029,-0.004228,2.069815,-0.744401,0.033160,0.325346,-0.027496,-1.662029,-0.004228,2.069815,-0.744401,0.0400,0.040980,0.6592,0.0039,0.3957
0.8500,0.028149,0.361713,-0.023779,-1.678155,-0.006048,2.060484,-0.745447,0.033647,0.325719,-0.027900,-1.663370,-0.004290,2.070842,-0.743799,0.033647,0.325719,-0.027900,-1.663370,-0.004290,2.070842,-0.743799,0.0400,0.040920,0.6591,0.0040,0.3950
0.8550,0.028598,0.362057,-0.024146,-1.679380,-0.006108,2.061500,-0.744853,0.034139,0.326094,-0.028307,-1.664722,-0.004353,2.071876,-0.743194,0.034139,0.326094,-0.028307,-1.664722,-0.004353,2.071876,-0.743194,0.0400,0.040861,0.6590,0.0041,0.3943
0.8600,0.029051,0.362404,-0.024516,-1.680616,-0.006168,2.062525,-0.744254,0.034633,0.326472,-0.028718,-1.666083,-0.004416,2.072918,-0.742584,0.034633,0.326472,-0.028718,-1.666083,-0.004416,2.072918,-0.742584,0.0400,0.040804,0.6588,0.0042,0.3935
0.8650,0.029506,0.362754,-0.024889,-1.681862,-0.006229,2.063556,-0.743651,0.035131,0.326853,-0.029131,-1.667453,-0.004479,2.073966,-0.741969,0.035131,0.326853,-0.029131,-1.667453,-0.004479,2.073966,-0.741969,0.0400,0.040748,0.6587,0.0042,0.3928
0.8700,0.029966,0.363107,-0.025264,-1.683117,-0.006290,2.064595,-0.743044,0.035633,0.327236,-0.029546,-1.668833,-0.004543,2.075022,-0.741351,0.035633,0.327236,-0.029546,-1.668833,-0.004543,2.075022,-0.741351,0.0400,0.040693,0.6586,0.0043,0.3921
0.8750,0.030429,0.363464,-0.025643,-1.684383,-0.006352,2.065641,-0.742432,0.036138,0.327622,-0.029965,-1.670222,-0.004608,2.076085,-0.740728,0.036138,0.327622,-0.029965,-1.670222,-0.004608,2.076085,-0.740728,0.0400,0.040639,0.6585,0.0044,0.3914
0.8800,0.030896,0.363825,-0.026024,-1.685660,-0.006414,2.066694,-0.741816,0.036646,0.328011,-0.030387,-1.671621,-0.004673,2.077155,-0.740101,0.036646,0.328011,-0.030387,-1.671621,-0.004673,2.077155,-0.740101,0.0400,0.040586,0.6583,0.0044,0.3907
0.8850,0.031366,0.364188,-0.026409,-1.686946,-0.006477,2.067754,-0.741196,0.037158,0.328402,-0.030811,-1.673029,-0.004738,2.078233,-0.739470,0.037158,0.328402,-0.030811,-1.673029,-0.004738,2.078233,-0.739470,0.0400,0.040535,0.6582,0.0045,0.3899
0.8900,0.031839,0.364554,-0.026796,-1.688242,-0.006540,2.068822,-0.740572,0.037673,0.328796,-0.031238,-1.674446,-0.004804,2.079317,-0.738835,0.037673,0.328796,-0.031238,-1.674446,-0.004804,2.079317,-0.738835,0.0400,0.040484,0.6581,0.0046,0.3892
0.8950,0.032317,0.364924,-0.027186,-1.689548,-0.006603,2.069897,-0.739943,0.038191,0.329192,-0.031668,-1.675872,-0.004870,2.080409,-0.738195,0.038191,0.329192,-0.031668,-1.675872,-0.004870,2.080409,-0.738195,0.0400,0.040435,0.6579,0.0047,0.3884
0.9000,0.032797,0.365297,-0.027579,-1.690863,-0.006667,2.070978,-0.739310,0.038713,0.329591,-0.032100,-1.677308,-0.004936,2.081507,-0.737552,0.038713,0.329591,-0.032100,-1.677308,-0.004936,2.081507,-0.737552,0.0400,0.040387,0.6578,0.0047,0.3877
0.9050,0.033281,0.365673,-0.027975,-1.692189,-0.006731,2.072067,-0.738673,0.039238,0.329992,-0.032536,-1.678753,-0.005003,2.082613,-0.736904,0.039238,0.329992,-0.032536,-1.678753,-0.005003,2.082613,-0.736904,0.0400,0.040339,0.6576,0.0048,0.3869
0.9100,0.033769,0.366052,-0.028374,-1.693524,-0.006796,2.073163,-0.738032,0.039766,0.330396,-0.032974,-1.680207,-0.005071,2.083725,-0.736252,0.039766,0.330396,-0.032974,-1.680207,-0.005071,2.083725,-0.736252,0.0400,0.040293,0.6575,0.0049,0.3861
0.9150,0.034260,0.366434,-0.028775,-1.694869,-0.006861,2.074266,-0.737387,0.040298,0.330802,-0.033415,-1.681670,-0.005138,2.084845,-0.735597,0.040298,0.330802,-0.033415,-1.681670,-0.005138,2.084845,-0.735597,0.0400,0.040248,0.6573,0.0050,0.3854
0.9200,0.034755,0.366819,-0.029179,-1.696224,-0.006927,2.075376,-0.736738,0.040833,0.331211,-0.033858,-1.683141,-0.005207,2.085971,-0.734937,0.040833,0.331211,-0.033858,-1.683141,-0.005207,2.085971,-0.734937,0.0400,0.040204,0.6572,0.0050,0.3846
0.9250,0.035253,0.367206,-0.029586,-1.697588,-0.006993,2.076493,-0.736085,0.041371,0.331623,-0.034305,-1.684622,-0.005275,2.087104,-0.734273,0.041371,0.331623,-0.034305,-1.684622,-0.005275,2.087104,-0.734273,0.0400,0.040160,0.6570,0.0051,0.3838
0.9300,0.035754,0.367597,-0.029996,-1.698961,-0.007059,2.077617,-0.735427,0.041913,0.332036,-0.034754,-1.686112,-0.005344,2.088244,-0.733605,0.041913,0.332036,-0.034754,-1.686112,-0.005344,2.088244,-0.733605,0.0400,0.040118,0.6569,0.0052,0.3830
0.9350,0.036259,0.367991,-0.030409,-1.700344,-0.007126,2.078747,-0.734766,0.042457,0.332453,-0.035205,-1.687611,-0.005414,2.089391,-0.732933,0.042457,0.332453,-0.035205,-1.687611,-0.005414,2.089391,-0.732933,0.0400,0.040076,0.6567,0.0053,0.3822
0.9400,0.036767,0.368387,-0.030824,-1.701737,-0.007193,2.079885,-0.734100,0.043005,0.332871,-0.035660,-1.689118,-0.005483,2.090544,-0.732258,0.043005,0.332871,-0.035660,-1.689118,-0.005483,2.090544,-0.732258,0.0400,0.040035,0.6566,0.0053,0.3814
0.9450,0.037278,0.368786,-0.031243,-1.703138,-0.007261,2.081030,-0.733431,0.043556,0.333293,-0.036117,-1.690634,-0.005554,2.091704,-0.731578,0.043556,0.333293,-0.036117,-1.690634,-0.005554,2.091704,-0.731578,0.0400,0.039995,0.6564,0.0054,0.3806
0.9500,0.037793,0.369188,-0.031664,-1.704549,-0.007329,2.082181,-0.732758,0.044110,0.333716,-0.036576,-1.692159,-0.005624,2.092871,-0.730894,0.044110,0.333716,-0.036576,-1.692159,-0.005624,2.092871,-0.730894,0.0400,0.039956,0.6562,0.0055,0.3798
0.9550,0.038311,0.369593,-0.032087,-1.705969,-0.007397,2.083339,-0.732080,0.044668,0.334142,-0.037038,-1.693693,-0.005695,2.094045,-0.730207,0.044668,0.334142,-0.037038,-1.693693,-0.005695,2.094045,-0.730207,0.0400,0.039917,0.6561,0.0056,0.3790
0.9600,0.038833,0.370000,-0.032514,-1.707398,-0.007466,2.084504,-0.731399,0.045228,0.334571,-0.037503,-1.695235,-0.005767,2.095225,-0.729516,0.045228,0.334571,-0.037503,-1.695235,-0.005767,2.095225,-0.729516,0.0400,0.039879,0.6559,0.0057,0.3782
0.9650,0.039358,0.370410,-0.032943,-1.708836,-0.007535,2.085675,-0.730714,0.045792,0.335001,-0.037970,-1.696785,-0.005839,2.096411,-0.728821,0.045792,0.335001,-0.037970,-1.696785,-0.005839,2.096411,-0.728821,0.0400,0.039842,0.6557,0.0057,0.3773
0.9700,0.039886,0.370822,-0.033374,-1.710283,-0.007604,2.086853,-0.730025,0.046358,0.335435,-0.038440,-1.698344,-0.005911,2.097604,-0.728122,0.046358,0.335435,-0.038440,-1.698344,-0.005911,2.097604,-0.728122,0.0400,0.039805,0.6555,0.0058,0.3765
0.9750,0.040417,0.371237,-0.033809,-1.711739,-0.007674,2.088038,-0.729332,0.046928,0.335870,-0.038913,-1.699912,-0.005984,2.098804,-0.727419,0.046928,0.335870,-0.038913,-1.699912,-0.005984,2.098804,-0.727419,0.0400,0.039769,0.6554,0.0059,0.3757
0.9800,0.040952,0.371654,-0.034246,-1.713204,-0.007744,2.089229,-0.728636,0.047501,0.336308,-0.039387,-1.701488,-0.006057,2.100009,-0.726713,0.047501,0.336308,-0.039387,-1.701488,-0.006057,2.100009,-0.726713,0.0400,0.039733,0.6552,0.0060,0.3748
0.9850,0.041489,0.372074,-0.034685,-1.714677,-0.007815,2.090427,-0.727935,0.048077,0.336748,-0.039865,-1.703072,-0.006130,2.101222,-0.726003,0.048077,0.336748,-0.039865,-1.703072,-0.006130,2.101222,-0.726003,0.0400,0.039698,0.6550,0.0061,0.3740
0.9900,0.042030,0.372497,-0.035128,-1.716160,-0.007886,2.091631,-0.727231,0.048655,0.337190,-0.040345,-1.704664,-0.006204,2.102440,-0.725289,0.048655,0.337190,-0.040345,-1.704664,-0.006204,2.102440,-0.725289,0.0400,0.039664,0.6548,0.0061,0.3732
0.9950,0.042575,0.372921,-0.035572,-1.717651,-0.007957,2.092842,-0.726523,0.049237,0.337635,-0.040827,-1.706265,-0.006278,2.103665,-0.724571,0.049237,0.337635,-0.040827,-1.706265,-0.006278,2.103665,-0.724571,0.0400,0.039630,0.6546,0.0062,0.3723
1.0000,0.043122,0.373349,-0.036020,-1.719150,-0.008029,2.094059,-0.725812,0.049822,0.338082,-0.041312,-1.707874,-0.006353,2.104896,-0.723850,0.049822,0.338082,-0.041312,-1.707874,-0.006353,2.104896,-0.723850,0.0400,0.039597,0.6544,0.0063,0.3714
1.0050,0.043673,0.373778,-0.036470,-1.720658,-0.008101,2.095283,-0.725096,0.050409,0.338531,-0.041799,-1.709490,-0.006428,2.106133,-0.723126,0.050409,0.338531,-0.041799,-1.709490,-0.006428,2.106133,-0.723126,0.0400,0.039564,0.6542,0.0064,0.3706
1.0100,0.044227,0.374210,-0.036922,-1.722175,-0.008174,2.096513,-0.724377,0.051000,0.338982,-0.042289,-1.711115,-0.006503,2.107376,-0.722397,0.051000,0.338982,-0.042289,-1.711115,-0.006503,2.107376,-0.722397,0.0400,0.039531,0.6540,0.0065,0.3697
1.0150,0.044783,0.374644,-0.037377,-1.723700,-0.008247,2.097749,-0.723655,0.051593,0.339436,-0.042781,-1.712748,-0.006579,2.108626,-0.721665,0.051593,0.339436,-0.042781,-1.712748,-0.006579,2.108626,-0.721665,0.0400,0.039499,0.6538,0.0065,0.3688
1.0200,0.045343,0.375081,-0.037835,-1.725233,-0.008320,2.098991,-0.722928,0.052189,0.339892,-0.043275,-1.714389,-0.006655,2.109881,-0.720930,0.052189,0.339892,-0.043275,-1.714389,-0.006655,2.109881,-0.720930,0.0400,0.039468,0.6536,0.0066,0.3680
1.0250,0.045906,0.375520,-0.038295,-1.726774,-0.008393,2.100240,-0.722199,0.052789,0.340350,-0.043772,-1.716037,-0.006731,2.111142,-0.720191,0.052789,0.340350,-0.043772,-1.716037,-0.006731,2.111142,-0.720191,0.0400,0.039437,0.6534,0.0067,0.3671
1.0300,0.046473,0.375961,-0.038757,-1.728324,-0.008467,2.101494,-0.721465,0.053390,0.340810,-0.044271,-1.717693,-0.006808,2.112410,-0.719449,0.053390,0.340810,-0.044271,-1.717693,-0.006808,2.112410,-0.719449,0.0400,0.039406,0.6532,0.0068,0.3662
1.0350,0.047042,0.376404,-0.039222,-1.729882,-0.008541,2.102755,-0.720728,0.053995,0.341272,-0.044772,-1.719357,-0.006885,2.113683,-0.718703,0.053995,0.341272,-0.044772,-1.719357,-0.006885,2.113683,-0.718703,0.0400,0.039376,0.6530,0.0069,0.3653
1.0400,0.047614,0.376849,-0.039690,-1.731448,-0.008616,2.104022,-0.719988,0.054603,0.341736,-0.045276,-1.721028,-0.006962,2.114962,-0.717953,0.054603,0.341736,-0.045276,-1.721028,-0.006962,2.114962,-0.717953,0.0400,0.039346,0.6528,0.0069,0.3644
1.0450,0.048189,0.377297,-0.040159,-1.733022,-0.008691,2.105295,-0.719244,0.055213,0.342203,-0.045782,-1.722708,-0.007040,2.116247,-0.717201,0.055213,0.342203,-0.045782,-1.722708,-0.007040,2.116247,-0.717201,0.0400,0.039317,0.6526,0.0070,0.3635
1.0500,0.048768,0.377747,-0.040632,-1.734604,-0.008766,2.106573,-0.718497,0.055826,0.342671,-0.046290,-1.724394,-0.007118,2.117537,-0.716445,0.055826,0.342671,-0.046290,-1.724394,-0.007118,2.117537,-0.716445,0.0400,0.039288,0.6524,0.0071,0.3626
1.0550,0.049349,0.378198,-0.041106,-1.736194,-0.008842,2.107858,-0.717746,0.056441,0.343142,-0.046801,-1.726088,-0.007197,2.118833,-0.715685,0.056441,0.343142,-0.046801,-1.726088,-0.007197,2.118833,-0.715685,0.0400,0.039259,0.6521,0.0072,0.3617
1.0600,0.049933,0.378652,-0.041583,-1.737792,-0.008918,2.109148,-0.716992,0.057060,0.343614,-0.047314,-1.727789,-0.007276,2.120135,-0.714923,0.057060,0.343614,-0.047314,-1.727789,-0.007276,2.120135,-0.714923,0.0400,0.039231,0.6519,0.0073,0.3608
1.0650,0.050520,0.379108,-0.042062,-1.739397,-0.008994,2.110444,-0.716235,0.057681,0.344089,-0.047829,-1.729498,-0.007355,2.121443,-0.714157,0.057681,0.344089,-0.047829,-1.729498,-0.007355,2.121443,-0.714157,0.0400,0.039203,0.6517,0.0074,0.3599
1.0700,0.051110,0.379567,-0.042544,-1.741011,-0.009071,2.111746,-0.715474,0.058304,0.344566,-0.048346,-1.731214,-0.007434,2.122756,-0.713388,0.058304,0.344566,-0.048346,-1.731214,-0.007434,2.122756,-0.713388,0.0400,0.039175,0.6515,0.0074,0.3590
1.0750,0.051703,0.380027,-0.043028,-1.742632,-0.009147,2.113053,-0.714710,0.058931,0.345044,-0.048865,-1.732937,-0.007514,2.124074,-0.712615,0.058931,0.345044,-0.048865,-1.732937,-0.007514,2.124074,-0.712615,0.0400,0.039148,0.6512,0.0075,0.3581
1.0800,0.052299,0.380489,-0.043514,-1.744260,-0.009225,2.114367,-0.713942,0.059559,0.345525,-0.049386,-1.734667,-0.007594,2.125398,-0.711840,0.059559,0.345525,-0.049386,-1.734667,-0.007594,2.125398,-0.711840,0.0400,0.039121,0.6510,0.0076,0.3572
1.0850,0.052897,0.380953,-0.044003,-1.745896,-0.009302,2.115685,-0.713172,0.060191,0.346007,-0.049910,-1.736404,-0.007675,2.126727,-0.711061,0.060191,0.346007,-0.049910,-1.736404,-0.007675,2.126727,-0.711061,0.0400,0.039095,0.6508,0.0077,0.3562
1.0900,0.053499,0.381419,-0.044493,-1.747540,-0.009380,2.117009,-0.712398,0.060825,0.346492,-0.050435,-1.738148,-0.007756,2.128062,-0.710279,0.060825,0.346492,-0.050435,-1.738148,-0.007756,2.128062,-0.710279,0.0400,0.039069,0.6505,0.0078,0.3553
1.0950,0.054103,0.381888,-0.044986,-1.749191,-0.009458,2.118339,-0.711621,0.061461,0.346978,-0.050963,-1.739899,-0.007837,2.129402,-0.709494,0.061461,0.346978,-0.050963,-1.739899,-0.007837,2.129402,-0.709494,0.0400,0.039043,0.6503,0.0079,0.3544
1.1000,0.054710,0.382358,-0.045482,-1.750849,-0.009537,2.119674,-0.710841,0.062100,0.347467,-0.051493,-1.741657,-0.007918,2.130747,-0.708706,0.062100,0.347467,-0.051493,-1.741657,-0.007918,2.130747,-0.708706,0.0400,0.039018,0.6500,0.0079,0.3534
1.1050,0.055320,0.382830,-0.045979,-1.752515,-0.009616,2.121014,-0.710058,0.062741,0.347957,-0.052025,-1.743421,-0.008000,2.132097,-0.707915,0.062741,0.347957,-0.052025,-1.743421,-0.008000,2.132097,-0.707915,0.0400,0.038993,0.6498,0.0080,0.3525
1.1100,0.055932,0.383304,-0.046478,-1.754188,-0.009695,2.122360,-0.709272,0.063385,0.348449,-0.052558,-1.745193,-0.008082,2.133452,-0.707121,0.063385,0.348449,-0.052558,-1.745193,-0.008082,2.133452,-0.707121,0.0400,0.038969,0.6495,0.0081,0.3515
1.1150,0.056547,0.383780,-0.046980,-1.755868,-0.009774,2.123711,-0.708482,0.064031,0.348943,-0.053094,-1.746970,-0.008164,2.134813,-0.706325,0.064031,0.348943,-0.053094,-1.746970,-0.008164,2.134813,-0.706325,0.0400,0.038944,0.6493,0.0082,0.3506
1.1200,0.057165,0.384258,-0.047484,-1.757555,-0.009854,2.125066,-0.707690,0.064679,0.349438,-0.053632,-1.748755,-0.008247,2.136178,-0.705525,0.064679,0.349438,-0.053632,-1.748755,-0.008247,2.136178,-0.705525,0.0400,0.038921,0.6490,0.0083,0.3497
1.1250,0.057786,0.384738,-0.047990,-1.759249,-0.009934,2.126428,-0.706895,0.065330,0.349936,-0.054172,-1.750546,-0.008330,2.137548,-0.704722,0.065330,0.349936,-0.054172,-1.750546,-0.008330,2.137548,-0.704722,0.0400,0.038897,0.6487,0.0084,0.3487
1.1300,0.058409,0.385219,-0.048498,-1.760950,-0.010014,2.127794,-0.706096,0.065983,0.350435,-0.054713,-1.752343,-0.008413,2.138923,-0.703916,0.065983,0.350435,-0.054713,-1.752343,-0.008413,2.138923,-0.703916,0.0400,0.038874,0.6485,0.0084,0.3477
1.1350,0.059035,0.385703,-0.049008,-1.762658,-0.010095,2.129165,-0.705295,0.066639,0.350936,-0.055257,-1.754146,-0.008497,2.140303,-0.703108,0.066639,0.350936,-0.055257,-1.754146,-0.008497,2.140303,-0.703108,0.0400,0.038851,0.6482,0.0085,0.3468
1.1400,0.059663,0.386188,-0.049520,-1.764373,-0.010176,2.130541,-0.704491,0.067297,0.351439,-0.055802,-1.755956,-0.008581,2.141688,-0.702297,0.067297,0.351439,-0.055802,-1.755956,-0.008581,2.141688,-0.702297,0.0400,0.038829,0.6479,0.0086,0.3458
1.1450,0.060294,0.386675,-0.050034,-1.766095,-0.010257,2.131922,-0.703684,0.067957,0.351943,-0.056349,-1.757772,-0.008665,2.143078,-0.701483,0.067957,0.351943,-0.056349,-1.757772,-0.008665,2.143078,-0.701483,0.0400,0.038807,0.6477,0.0087,0.3449
1.1500,0.060927,0.387164,-0.050551,-1.767823,-0.010339,2.133308,-0.702875,0.068619,0.352449,-0.056898,-1.759594,-0.008749,2.144472,-0.700666,0.068619,0.352449,-0.056898,-1.759594,-0.008749,2.144472,-0.700666,0.0400,0.038786,0.6474,0.0088,0.3439
1.1550,0.061563,0.387655,-0.051069,-1.769558,-0.010420,2.134698,-0.702062,0.069283,0.352957,-0.057449,-1.761421,-0.008834,2.145870,-0.699847,0.069283,0.352957,-0.057449,-1.761421,-0.008834,2.145870,-0.699847,0.0400,0.038764,0.6471,0.0089,0.3429
1.1600,0.062202,0.388147,-0.051589,-1.771300,-0.010502,2.136093,-0.701247,0.069950,0.353467,-0.058002,-1.763255,-0.008919,2.147274,-0.699025,0.069950,0.353467,-0.058002,-1.763255,-0.008919,2.147274,-0.699025,0.0400,0.038743,0.6468,0.0090,0.3419
1.1650,0.062842,0.388642,-0.052111,-1.773048,-0.010585,2.137493,-0.700429,0.070618,0.353978,-0.058556,-1.765095,-0.009004,2.148681,-0.698200,0.070618,0.353978,-0.058556,-1.765095,-0.009004,2.148681,-0.698200,0.0400,0.038723,0.6465,0.0090,0.3410
1.1700,0.063486,0.389138,-0.052635,-1.774802,-0.010667,2.138898,-0.699608,0.071289,0.354490,-0.059112,-1.766940,-0.009090,2.150094,-0.697373,0.071289,0.354490,-0.059112,-1.766940,-0.009090,2.150094,-0.697373,0.0400,0.038703,0.6463,0.0091,0.3400
1.1750,0.064131,0.389635,-0.053161,-1.776563,-0.010750,2.140307,-0.698785,0.071962,0.355005,-0.059670,-1.768792,-0.009176,2.151510,-0.696543,0.071962,0.355005,-0.059670,-1.768792,-0.009176,2.151510,-0.696543,0.0400,0.038683,0.6460,0.0092,0.3390
1.1800,0.064779,0.390135,-0.053689,-1.778330,-0.010833,2.141720,-0.697959,0.072636,0.355521,-0.060230,-1.770648,-0.009262,2.152931,-0.695711,0.072636,0.355521,-0.060230,-1.770648,-0.009262,2.152931,-0.695711,0.0400,0.038664,0.6457,0.0093,0.3380
1.1850,0.065430,0.390636,-0.054219,-1.780104,-0.010917,2.143138,-0.697131,0.073313,0.356038,-0.060791,-1.772511,-0.009348,2.154356,-0.694876,0.073313,0.356038,-0.060791,-1.772511,-0.009348,2.154356,-0.694876,0.0400,0.038645,0.6454,0.0094,0.3370
1.1900,0.066082,0.391139,-0.054750,-1.781883,-0.011000,2.144560,-0.696300,0.073992,0.356557,-0.061354,-1.774379,-0.009435,2.155785,-0.694038,0.073992,0.356557,-0.061354,-1.774379,-0.009435,2.155785,-0.694038,0.0400,0.038626,0.6451,0.0095,0.3360
1.1950,0.066737,0.391643,-0.055284,-1.783669,-0.011084,2.145986,-0.695466,0.074673,0.357077,-0.061918,-1.776252,-0.009521,2.157219,-0.693199,0.074673,0.357077,-0.061918,-1.776252,-0.009521,2.157219,-0.693199,0.0400,0.038608,0.6448,0.0095,0.3350
1.2000,0.067394,0.392149,-0.055819,-1.785460,-0.011168,2.147417,-0.694630,0.075356,0.357599,-0.062485,-1.778130,-0.009608,2.158656,-0.692357,0.075356,0.357599,-0.062485,-1.778130,-0.009608,2.158656,-0.692357,0.0400,0.038590,0.6445,0.0096,0.3340
1.2050,0.068054,0.392657,-0.056356,-1.787258,-0.011253,2.148852,-0.693792,0.076040,0.358122,-0.063052,-1.780014,-0.009696,2.160097,-0.691512,0.076040,0.358122,-0.063052,-1.780014,-0.009696,2.160097,-0.691512,0.0400,0.038572,0.6442,0.0097,0.3330
1.2100,0.068716,0.393166,-0.056894,-1.789061,-0.011337,2.150291,-0.692951,0.076727,0.358647,-0.063621,-1.781903,-0.009783,2.161543,-0.690666,0.076727,0.358647,-0.063621,-1.781903,-0.009783,2.161543,-0.690666,0.0400,0.038555,0.6438,0.0098,0.3320
1.2150,0.069380,0.393677,-0.057435,-1.790870,-0.011422,2.151734,-0.692107,0.077415,0.359173,-0.064192,-1.783797,-0.009871,2.162992,-0.689817,0.077415,0.359173,-0.064192,-1.783797,-0.009871,2.162992,-0.689817,0.0400,0.038538,0.6435,0.0099,0.3310
1.2200,0.070046,0.394189,-0.057977,-1.792685,-0.011507,2.153181,-0.691262,0.078105,0.359701,-0.064764,-1.785696,-0.009959,2.164445,-0.688965,0.078105,0.359701,-0.064764,-1.785696,-0.009959,2.164445,-0.688965,0.0400,0.038521,0.6432,0.0100,0.3300
1.2250,0.070714,0.394703,-0.058521,-1.794506,-0.011592,2.154632,-0.690414,0.078797,0.360230,-0.065338,-1.787599,-0.010047,2.165902,-0.688112,0.078797,0.360230,-0.065338,-1.787599,-0.010047,2.165902,-0.688112,0.0400,0.038505,0.6429,0.0101,0.3290
1.2300,0.071384,0.395218,-0.059066,-1.796332,-0.011678,2.156087,-0.689564,0.079491,0.360760,-0.065913,-1.789508,-0.010136,2.167362,-0.687256,0.079491,0.360760,-0.065913,-1.789508,-0.010136,2.167362,-0.687256,0.0400,0.038489,0.6426,0.0101,0.3280
1.2350,0.072056,0.395735,-0.059613,-1.798164,-0.011764,2.157545,-0.688712,0.080186,0.361291,-0.066490,-1.791421,-0.010224,2.168826,-0.686399,0.080186,0.361291,-0.066490,-1.791421,-0.010224,2.168826,-0.686399,0.0400,0.038473,0.6422,0.0102,0.3270
1.2400,0.072731,0.396253,-0.060162,-1.800001,-0.011850,2.159008,-0.687857,0.080883,0.361824,-0.067068,-1.793339,-0.010313,2.170294,-0.685539,0.080883,0.361824,-0.067068,-1.793339,-0.010313,2.170294,-0.685539,0.0400,0.038458,0.6419,0.0103,0.3260
1.2450,0.073407,0.396773,-0.060713,-1.801843,-0.011936,2.160474,-0.687000,0.081582,0.362358,-0.067647,-1.795262,-0.010402,2.171765,-0.684677,0.081582,0.362358,-0.067647,-1.795262,-0.010402,2.171765,-0.684677,0.0400,0.038443,0.6416,0.0104,0.3250
1.2500,0.074085,0.397294,-0.061265,-1.803690,-0.012022,2.161943,-0.686142,0.082282,0.362894,-0.068228,-1.797189,-0.010492,2.173240,-0.683813,0.082282,0.362894,-0.068228,-1.797189,-0.010492,2.173240,-0.683813,0.0400,0.038428,0.6412,0.0105,0.3239
1.2550,0.074765,0.397817,-0.061818,-1.805543,-0.012109,2.163417,-0.685281,0.082984,0.363430,-0.068810,-1.799121,-0.010581,2.174718,-0.682947,0.082984,0.363430,-0.068810,-1.799121,-0.010581,2.174718,-0.682947,0.0400,0.038414,0.6409,0.0106,0.3229
1.2600,0.075448,0.398341,-0.062373,-1.807401,-0.012196,2.164893,-0.684418,0.083688,0.363968,-0.069394,-1.801056,-0.010671,2.176199,-0.682080,0.083688,0.363968,-0.069394,-1.801056,-0.010671,2.176199,-0.682080,0.0400,0.038400,0.6405,0.0106,0.3219
1.2650,0.076132,0.398866,-0.062930,-1.809264,-0.012283,2.166373,-0.683553,0.084393,0.364507,-0.069978,-1.802997,-0.010761,2.177684,-0.681210,0.084393,0.364507,-0.069978,-1.802997,-0.010761,2.177684,-0.681210,0.0400,0.038386,0.6402,0.0107,0.3209
1.2700,0.076818,0.399393,-0.063488,-1.811131,-0.012370,2.167857,-0.682686,0.085100,0.365047,-0.070564,-1.804941,-0.010851,2.179171,-0.680339,0.085100,0.365047,-0.070564,-1.804941,-0.010851,2.179171,-0.680339,0.0400,0.038373,0.6398,0.0108,0.3198
1.2750,0.077506,0.399920,-0.064047,-1.813004,-0.012458,2.169343,-0.681817,0.085808,0.365588,-0.071151,-1.806889,-0.010941,2.180662,-0.679465,0.085808,0.365588,-0.071151,-1.806889,-0.010941,2.180662,-0.679465,0.0400,0.038359,0.6395,0.0109,0.3188
1.2800,0.078195,0.400450,-0.064608,-1.814881,-0.012545,2.170833,-0.680947,0.086517,0.366131,-0.071740,-1.808841,-0.011032,2.182156,-0.678590,0.086517,0.366131,-0.071740,-1.808841,-0.011032,2.182156,-0.678590,0.0400,0.038346,0.6391,0.0110,0.3178
1.2850,0.078887,0.400980,-0.065170,-1.816763,-0.012633,2.172327,-0.680074,0.087228,0.366674,-0.072329,-1.810798,-0.011122,2.183653,-0.677713,0.087228,0.366674,-0.072329,-1.810798,-0.011122,2.183653,-0.677713,0.0400,0.038334,0.6388,0.0110,0.3168
1.2900,0.079580,0.401512,-0.065734,-1.818650,-0.012721,2.173823,-0.679200,0.087941,0.367218,-0.072920,-1.812758,-0.011213,2.185153,-0.676835,0.087941,0.367218,-0.072920,-1.812758,-0.011213,2.185153,-0.676835,0.0400,0.038321,0.6384,0.0111,0.3157
1.2950,0.080274,0.402044,-0.066299,-1.820541,-0.012809,2.175322,-0.678323,0.088654,0.367764,-0.073512,-1.814721,-0.011304,2.186655,-0.675954,0.088654,0.367764,-0.073512,-1.814721,-0.011304,2.186655,-0.675954,0.0400,0.038309,0.6380,0.0112,0.3147
1.3000,0.080971,0.402578,-0.066865,-1.822437,-0.012898,2.176824,-0.677446,0.089369,0.368311,-0.074105,-1.816689,-0.011395,2.188161,-0.675072,0.089369,0.368311,-0.074105,-1.816689,-0.011395,2.188161,-0.675072,0.0400,0.038297,0.6377,0.0113,0.3137
1.3050,0.081669,0.403114,-0.067433,-1.824337,-0.012986,2.178329,-0.676566,0.090086,0.368858,-0.074699,-1.818660,-0.011487,2.189669,-0.674189,0.090086,0.368858,-0.074699,-1.818660,-0.011487,2.189669,-0.674189,0.0400,0.038286,0.6373,0.0114,0.3126
1.3100,0.082369,0.403650,-0.068002,-1.826241,-0.013075,2.179837,-0.675685,0.090803,0.369407,-0.075294,-1.820634,-0.011578,2.191180,-0.673304,0.090803,0.369407,-0.075294,-1.820634,-0.011578,2.191180,-0.673304,0.0400,0.038274,0.6369,0.0114,0.3116
1.3150,0.083070,0.404187,-0.068572,-1.828150,-0.013164,2.181348,-0.674802,0.091522,0.369956,-0.075890,-1.822612,-0.011670,2.192693,-0.672417,0.091522,0.369956,-0.075890,-1.822612,-0.011670,2.192693,-0.672417,0.0400,0.038263,0.6365,0.0115,0.3105
1.3200,0.083773,0.404726,-0.069144,-1.830062,-0.013253,2.182862,-0.673917,0.092242,0.370506,-0.076487,-1.824593,-0.011762,2.194209,-0.671529,0.092242,0.370506,-0.076487,-1.824593,-0.011762,2.194209,-0.671529,0.0400,0.038252,0.6362,0.0116,0.3095
1.3250,0.084478,0.405265,-0.069717,-1.831979,-0.013342,2.184378,-0.673031,0.092963,0.371058,-0.077085,-1.826578,-0.011854,2.195728,-0.670640,0.092963,0.371058,-0.077085,-1.826578,-0.011854,2.195728,-0.670640,0.0400,0.038241,0.6358,0.0117,0.3085
1.3300,0.085184,0.405806,-0.070291,-1.833899,-0.013431,2.185897,-0.672144,0.093686,0.371610,-0.077684,-1.828565,-0.011946,2.197249,-0.669749,0.093686,0.371610,-0.077684,-1.828565,-0.011946,2.197249,-0.669749,0.0400,0.038231,0.6354,0.0118,0.3074
1.3350,0.085891,0.406347,-0.070866,-1.835824,-0.013521,2.187418,-0.671255,0.094409,0.372163,-0.078284,-1.830556,-0.012038,2.198772,-0.668856,0.094409,0.372163,-0.078284,-1.830556,-0.012038,2.198772,-0.668856,0.0400,0.038220,0.6350,0.0118,0.3064
1.3400,0.086600,0.406890,-0.071442,-1.837752,-0.013610,2.188942,-0.670365,0.095134,0.372717,-0.078884,-1.832549,-0.012130,2.200297,-0.667963,0.095134,0.372717,-0.078884,-1.832549,-0.012130,2.200297,-0.667963,0.0400,0.038210,0.6346,0.0119,0.3053
1.3450,0.087311,0.407433,-0.072019,-1.839683,-0.013700,2.190468,-0.669473,0.095859,0.373271,-0.079486,-1.834546,-0.012223,2.201825,-0.667068,0.095859,0.373271,-0.079486,-1.834546,-0.012223,2.201825,-0.667068,0.0400,0.038200,0.6342,0.0120,0.3043
1.3500,0.088022,0.407978,-0.072598,-1.841619,-0.013790,2.191996,-0.668580,0.096586,0.373826,-0.080088,-1.836545,-0.012315,2.203354,-0.666172,0.096586,0.373826,-0.080088,-1.836545,-0.012315,2.203354,-0.666172,0.0400,0.038190,0.6338,0.0121,0.3032
1.3550,0.088735,0.408523,-0.073177,-1.843558,-0.013880,2.193527,-0.667685,0.097313,0.374383,-0.080692,-1.838547,-0.012408,2.204886,-0.665274,0.097313,0.374383,-0.080692,-1.838547,-0.012408,2.204886,-0.665274,0.0400,0.038180,0.6334,0.0122,0.3022
1.3600,0.089450,0.409069,-0.073758,-1.845500,-0.013970,2.195060,-0.666789,0.098042,0.374939,-0.081296,-1.840551,-0.012501,2.206420,-0.664376,0.098042,0.374939,-0.081296,-1.840551,-0.012501,2.206420,-0.664376,0.0400,0.038171,0.6330,0.0122,0.3011
1.3650,0.090166,0.409616,-0.074339,-1.847446,-0.014061,2.196595,-0.665892,0.098771,0.375497,-0.081901,-1.842558,-0.012594,2.207956,-0.663476,0.098771,0.375497,-0.081901,-1.842558,-0.012594,2.207956,-0.663476,0.0400,0.038162,0.6326,0.0123,0.3001
1.3700,0.090883,0.410164,-0.074922,-1.849395,-0.014151,2.198132,-0.664994,0.099502,0.376055,-0.082506,-1.844567,-0.012687,2.209493,-0.662575,0.099502,0.376055,-0.082506,-1.844567,-0.012687,2.209493,-0.662575,0.0400,0.038152,0.6322,0.0124,0.2991
1.3750,0.091601,0.410713,-0.075505,-1.851347,-0.014241,2.199671,-0.664095,0.100233,0.376614,-0.083112,-1.846579,-0.012780,2.211033,-0.661674,0.100233,0.376614,-0.083112,-1.846579,-0.012780,2.211033,-0.661674,0.0400,0.038143,0.6317,0.0125,0.2980
1.3800,0.092320,0.411262,-0.076090,-1.853302,-0.014332,2.201212,-0.663194,0.100965,0.377174,-0.083719,-1.848593,-0.012874,2.212574,-0.660771,0.100965,0.377174,-0.083719,-1.848593,-0.012874,2.212574,-0.660771,0.0400,0.038134,0.6313,0.0125,0.2970
1.3850,0.093041,0.411812,-0.076675,-1.855260,-0.014423,2.202755,-0.662293,0.101697,0.377734,-0.084327,-1.850609,-0.012967,2.214117,-0.659867,0.101697,0.377734,-0.084327,-1.850609,-0.012967,2.214117,-0.659867,0.0400,0.038126,0.6309,0.0126,0.2959
1.3900,0.093762,0.412363,-0.077262,-1.857221,-0.014514,2.204299,-0.661390,0.102431,0.378294,-0.084935,-1.852627,-0.013061,2.215661,-0.658962,0.102431,0.378294,-0.084935,-1.852627,-0.013061,2.215661,-0.658962,0.0400,0.038117,0.6305,0.0127,0.2949
1.3950,0.094485,0.412915,-0.077849,-1.859185,-0.014605,2.205846,-0.660487,0.103165,0.378855,-0.085544,-1.854648,-0.013154,2.217207,-0.658057,0.103165,0.378855,-0.085544,-1.854648,-0.013154,2.217207,-0.658057,0.0400,0.038108,0.6301,0.0128,0.2938
1.4000,0.095209,0.413467,-0.078437,-1.861151,-0.014696,2.207393,-0.659582,0.103900,0.379417,-0.086153,-1.856670,-0.013248,2.218754,-0.657150,0.103900,0.379417,-0.086153,-1.856670,-0.013248,2.218754,-0.657150,0.0400,0.038100,0.6296,0.0128,0.2928
1.4050,0.095934,0.414020,-0.079026,-1.863121,-0.014787,2.208943,-0.658677,0.104636,0.379979,-0.086763,-1.858694,-0.013342,2.220303,-0.656243,0.104636,0.379979,-0.086763,-1.858694,-0.013342,2.220303,-0.656243,0.0400,0.038092,0.6292,0.0129,0.2917
1.4100,0.096659,0.414573,-0.079615,-1.865092,-0.014878,2.210494,-0.657771,0.105372,0.380542,-0.087374,-1.860719,-0.013436,2.221853,-0.655335,0.105372,0.380542,-0.087374,-1.860719,-0.013436,2.221853,-0.655335,0.0400,0.038084,0.6287,0.0130,0.2907
1.4150,0.097386,0.415127,-0.080206,-1.867067,-0.014969,2.212046,-0.656863,0.106109,0.381105,-0.087985,-1.862747,-0.013530,2.223404,-0.654426,0.106109,0.381105,-0.087985,-1.862747,-0.013530,2.223404,-0.654426,0.0400,0.038075,0.6283,0.0130,0.2896
1.4200,0.098114,0.415682,-0.080797,-1.869043,-0.015061,2.213600,-0.655956,0.106846,0.381669,-0.088596,-1.864775,-0.013624,2.224957,-0.653517,0.106846,0.381669,-0.088596,-1.864775,-0.013624,2.224957,-0.653517,0.0400,0.038067,0.6279,0.0131,0.2885
1.4250,0.098843,0.416237,-0.081388,-1.871022,-0.015152,2.215155,-0.655047,0.107584,0.382233,-0.089208,-1.866806,-0.013718,2.226510,-0.652607,0.107584,0.382233,-0.089208,-1.866806,-0.013718,2.226510,-0.652607,0.0400,0.038059,0.6274,0.0132,0.2875
1.4300,0.099572,0.416792,-0.081981,-1.873003,-0.015244,2.216712,-0.654137,0.108322,0.382797,-0.089820,-1.868837,-0.013812,2.228065,-0.651696,0.108322,0.382797,-0.089820,-1.868837,-0.013812,2.228065,-0.651696,0.0400,0.038052,0.6270,0.0133,0.2864
1.4350,0.100303,0.417348,-0.082574,-1.874986,-0.015335,2.218269,-0.653227,0.109061,0.383362,-0.090433,-1.870870,-0.013906,2.229620,-0.650785,0.109061,0.383362,-0.090433,-1.870870,-0.013906,2.229620,-0.650785,0.0400,0.038044,0.6265,0.0133,0.2854
1.4400,0.101034,0.417905,-0.083168,-1.876972,-0.015427,2.219828,-0.652317,0.109800,0.383927,-0.091046,-1.872904,-0.014000,2.231177,-0.649873,0.109800,0.383927,-0.091046,-1.872904,-0.014000,2.231177,-0.649873,0.0400,0.038036,0.6261,0.0134,0.2843
1.4450,0.101766,0.418462,-0.083762,-1.878959,-0.015519,2.221388,-0.651405,0.110540,0.384492,-0.091659,-1.874939,-0.014095,2.232734,-0.648961,0.110540,0.384492,-0.091659,-1.874939,-0.014095,2.232734,-0.648961,0.0400,0.038028,0.6256,0.0135,0.2833
1.4500,0.102499,0.419019,-0.084357,-1.880948,-0.015610,2.222948,-0.650493,0.111280,0.385058,-0.092273,-1.876976,-0.014189,2.234292,-0.648048,0.111280,0.385058,-0.092273,-1.876976,-0.014189,2.234292,-0.648048,0.0400,0.038021,0.6252,0.0135,0.2822
1.4550,0.103232,0.419577,-0.084953,-1.882939,-0.015702,2.224510,-0.649581,0.112020,0.385624,-0.092887,-1.879013,-0.014283,2.235851,-0.647135,0.112020,0.385624,-0.092887,-1.879013,-0.014283,2.235851,-0.647135,0.0400,0.038013,0.6247,0.0136,0.2812
1.4600,0.103966,0.420135,-0.085549,-1.884931,-0.015794,2.226072,-0.648668,0.112761,0.386190,-0.093501,-1.881050,-0.014378,2.237410,-0.646221,0.112761,0.386190,-0.093501,-1.881050,-0.014378,2.237410,-0.646221,0.0400,0.038006,0.6242,0.0137,0.2802
1.4650,0.104701,0.420694,-0.086145,-1.886925,-0.015886,2.227635,-0.647755,0.113502,0.386756,-0.094115,-1.883089,-0.014472,2.238970,-0.645307,0.113502,0.386756,-0.094115,-1.883089,-0.014472,2.238970,-0.645307,0.0400,0.037998,0.6238,0.0137,0.2791
1.4700,0.105436,0.421252,-0.086742,-1.888921,-0.015978,2.229199,-0.646841,0.114243,0.387323,-0.094730,-1.885128,-0.014567,2.240530,-0.644393,0.114243,0.387323,-0.094730,-1.885128,-0.014567,2.240530,-0.644393,0.0400,0.037991,0.6233,0.0138,0.2781
1.4750,0.106172,0.421811,-0.087340,-1.890917,-0.016070,2.230764,-0.645927,0.114984,0.387890,-0.095344,-1.887168,-0.014661,2.242091,-0.643479,0.114984,0.387890,-0.095344,-1.887168,-0.014661,2.242091,-0.643479,0.0400,0.037984,0.6228,0.0139,0.2770
1.4800,0.106909,0.422371,-0.087938,-1.892916,-0.016162,2.232329,-0.645013,0.115726,0.388456,-0.095959,-1.889208,-0.014756,2.243652,-0.642564,0.115726,0.388456,-0.095959,-1.889208,-0.014756,2.243652,-0.642564,0.0400,0.037976,0.6223,0.0139,0.2760
1.4850,0.107646,0.422930,-0.088536,-1.894915,-0.016254,2.233894,-0.644098,0.116467,0.389023,-0.096574,-1.891249,-0.014850,2.245214,-0.641650,0.116467,0.389023,-0.096574,-1.891249,-0.014850,2.245214,-0.641650,0.0400,0.037969,0.6219,0.0140,0.2749
1.4900,0.108383,0.423490,-0.089135,-1.896916,-0.016346,2.235460,-0.643183,0.117209,0.389590,-0.097189,-1.893290,-0.014945,2.246775,-0.640735,0.117209,0.389590,-0.097189,-1.893290,-0.014945,2.246775,-0.640735,0.0400,0.037962,0.6214,0.0141,0.2739
1.4950,0.109121,0.424050,-0.089734,-1.898917,-0.016438,2.237026,-0.642268,0.117951,0.390157,-0.097804,-1.895331,-0.015040,2.248337,-0.639820,0.117951,0.390157,-0.097804,-1.895331,-0.015040,2.248337,-0.639820,0.0400,0.037955,0.6209,0.0141,0.2728
1.5000,0.109860,0.424610,-0.090333,-1.900920,-0.016530,2.238592,-0.641353,0.118693,0.390724,-0.098419,-1.897372,-0.015134,2.249899,-0.638905,0.118693,0.390724,-0.098419,-1.897372,-0.015134,2.249899,-0.638905,0.0400,0.037947,0.6204,0.0142,0.2718
1.5050,0.110599,0.425170,-0.090933,-1.902923,-0.016622,2.240159,-0.640438,0.119435,0.391291,-0.099035,-1.899413,-0.015229,2.251461,-0.637990,0.119435,0.391291,-0.099035,-1.899413,-0.015229,2.251461,-0.637990,0.0400,0.037940,0.6199,0.0143,0.2708
1.5100,0.111338,0.425730,-0.091533,-1.904928,-0.016715,2.241726,-0.639522,0.120176,0.391858,-0.099650,-1.901454,-0.015323,2.253023,-0.637075,0.120176,0.391858,-0.099650,-1.901454,-0.015323,2.253023,-0.637075,0.0400,0.037933,0.6194,0.0143,0.2697
1.5150,0.112077,0.426290,-0.092133,-1.906932,-0.016807,2.243293,-0.638607,0.120918,0.392425,-0.100265,-1.903495,-0.015418,2.254584,-0.636160,0.120918,0.392425,-0.100265,-1.903495,-0.015418,2.254584,-0.636160,0.0400,0.037926,0.6189,0.0144,0.2687
1.5200,0.112817,0.426851,-0.092733,-1.908938,-0.016899,2.244859,-0.637692,0.121660,0.392992,-0.100880,-1.905535,-0.015513,2.256146,-0.635246,0.121660,0.392992,-0.100880,-1.905535,-0.015513,2.256146,-0.635246,0.0400,0.037919,0.6184,0.0144,0.2676
1.5250,0.113557,0.427411,-0.093334,-1.910944,-0.016991,2.246426,-0.636776,0.122401,0.393559,-0.101494,-1.907576,-0.015607,2.257707,-0.634331,0.122401,0.393559,-0.101494,-1.907576,-0.015607,2.257707,-0.634331,0.0400,0.037912,0.6179,0.0145,0.2666
1.5300,0.114297,0.427971,-0.093935,-1.912950,-0.017083,2.247993,-0.635861,0.123143,0.394125,-0.102109,-1.909615,-0.015702,2.259268,-0.633417,0.123143,0.394125,-0.102109,-1.909615,-0.015702,2.259268,-0.633417,0.0400,0.037905,0.6174,0.0146,0.2656
1.5350,0.115037,0.428532,-0.094536,-1.914957,-0.017175,2.249559,-0.634946,0.123884,0.394692,-0.102724,-1.911655,-0.015796,2.260828,-0.632503,0.123884,0.394692,-0.102724,-1.911655,-0.015796,2.260828,-0.632503,0.0400,0.037897,0.6169,0.0146,0.2645
1.5400,0.115778,0.429092,-0.095136,-1.916964,-0.017267,2.251125,-0.634031,0.124625,0.395258,-0.103338,-1.913693,-0.015891,2.262388,-0.631589,0.124625,0.395258,-0.103338,-1.913693,-0.015891,2.262388,-0.631589,0.0400,0.037890,0.6164,0.0147,0.2635
1.5450,0.116519,0.429652,-0.095738,-1.918971,-0.017359,2.252691,-0.633116,0.125365,0.395824,-0.103952,-1.915731,-0.015985,2.263947,-0.630675,0.125365,0.395824,-0.103952,-1.915731,-0.015985,2.263947,-0.630675,0.0400,0.037883,0.6159,0.0147,0.2625
1.5500,0.117260,0.430212,-0.096339,-1.920979,-0.017451,2.254256,-0.632202,0.126106,0.396390,-0.104566,-1.917768,-0.016079,2.265506,-0.629762,0.126106,0.396390,-0.104566,-1.917768,-0.016079,2.265506,-0.629762,0.0400,0.037876,0.6154,0.0148,0.2614
1.5550,0.118000,0.430772,-0.096940,-1.922986,-0.017543,2.255821,-0.631288,0.126846,0.396956,-0.105180,-1.919804,-0.016174,2.267064,-0.628849,0.126846,0.396956,-0.105180,-1.919804,-0.016174,2.267064,-0.628849,0.0400,0.037869,0.6149,0.0148,0.2604
1.5600,0.118741,0.431332,-0.097541,-1.924993,-0.017635,2.257385,-0.630374,0.127585,0.397521,-0.105793,-1.921839,-0.016268,2.268622,-0.627937,0.127585,0.397521,-0.105793,-1.921839,-0.016268,2.268622,-0.627937,0.0400,0.037862,0.6144,0.0149,0.2594
1.5650,0.119482,0.431892,-0.098142,-1.927000,-0.017727,2.258948,-0.629461,0.128324,0.398086,-0.106406,-1.923873,-0.016362,2.270178,-0.627025,0.128324,0.398086,-0.106406,-1.923873,-0.016362,2.270178,-0.627025,0.0400,0.037854,0.6139,0.0150,0.2584
1.5700,0.120223,0.432451,-0.098743,-1.929006,-0.017819,2.260511,-0.628548,0.129063,0.398651,-0.107019,-1.925906,-0.016457,2.271734,-0.626114,0.129063,0.398651,-0.107019,-1.925906,-0.016457,2.271734,-0.626114,0.0400,0.037847,0.6133,0.0150,0.2573
1.5750,0.120964,0.433010,-0.099344,-1.931013,-0.017911,2.262073,-0.627635,0.129802,0.399215,-0.107631,-1.927938,-0.016551,2.273288,-0.625203,0.129802,0.399215,-0.107631,-1.927938,-0.016551,2.273288,-0.625203,0.0400,0.037840,0.6128,0.0151,0.2563
1.5800,0.121704,0.433569,-0.099945,-1.933018,-0.018003,2.263635,-0.626723,0.130540,0.399779,-0.108243,-1.929968,-0.016645,2.274842,-0.624293,0.130540,0.399779,-0.108243,-1.929968,-0.016645,2.274842,-0.624293,0.0400,0.037833,0.6123,0.0151,0.2553
1.5850,0.122445,0.434128,-0.100546,-1.935024,-0.018095,2.265195,-0.625811,0.131277,0.400343,-0.108854,-1.931997,-0.016739,2.276394,-0.623384,0.131277,0.400343,-0.108854,-1.931997,-0.016739,2.276394,-0.623384,0.0400,0.037826,0.6118,0.0152,0.2543
1.5900,0.123185,0.434686,-0.101146,-1.937028,-0.018186,2.266754,-0.624900,0.132014,0.400906,-0.109465,-1.934024,-0.016833,2.277945,-0.622475,0.132014,0.400906,-0.109465,-1.934024,-0.016833,2.277945,-0.622475,0.0400,0.037818,0.6112,0.0152,0.2533
1.5950,0.123925,0.435244,-0.101747,-1.939032,-0.018278,2.268312,-0.623990,0.132750,0.401469,-0.110076,-1.936050,-0.016927,2.279495,-0.621567,0.132750,0.401469,-0.110076,-1.936050,-0.016927,2.279495,-0.621567,0.0400,0.037811,0.6107,0.0153,0.2522
1.6000,0.124665,0.435802,-0.102347,-1.941035,-0.018369,2.269870,-0.623081,0.133485,0.402031,-0.110685,-1.938074,-0.017020,2.281044,-0.620660,0.133485,0.402031,-0.110685,-1.938074,-0.017020,2.281044,-0.620660,0.0400,0.037804,0.6102,0.0153,0.2512
1.6050,0.125405,0.436359,-0.102947,-1.943037,-0.018461,2.271426,-0.622172,0.134220,0.402593,-0.111295,-1.940096,-0.017114,2.282591,-0.619753,0.134220,0.402593,-0.111295,-1.940096,-0.017114,2.282591,-0.619753,0.0400,0.037796,0.6096,0.0154,0.2502
1.6100,0.126144,0.436916,-0.103547,-1.945038,-0.018552,2.272980,-0.621263,0.134955,0.403154,-0.111904,-1.942116,-0.017208,2.284137,-0.618848,0.134955,0.403154,-0.111904,-1.942116,-0.017208,2.284137,-0.618848,0.0400,0.037789,0.6091,0.0154,0.2492
1.6150,0.126883,0.437473,-0.104146,-1.947038,-0.018644,2.274534,-0.620356,0.135688,0.403715,-0.112512,-1.944134,-0.017301,2.285682,-0.617943,0.135688,0.403715,-0.112512,-1.944134,-0.017301,2.285682,-0.617943,0.0400,0.037782,0.6086,0.0155,0.2482
1.6200,0.127621,0.438029,-0.104745,-1.949037,-0.018735,2.276086,-0.619449,0.136421,0.404275,-0.113119,-1.946150,-0.017395,2.287224,-0.617039,0.136421,0.404275,-0.113119,-1.946150,-0.017395,2.287224,-0.617039,0.0400,0.037774,0.6080,0.0155,0.2472
1.6250,0.128360,0.438584,-0.105344,-1.951034,-0.018826,2.277636,-0.618544,0.137153,0.404834,-0.113726,-1.948164,-0.017488,2.288765,-0.616136,0.137153,0.404834,-0.113726,-1.948164,-0.017488,2.288765,-0.616136,0.0400,0.037767,0.6075,0.0156,0.2462
1.6300,0.129097,0.439140,-0.105942,-1.953031,-0.018917,2.279185,-0.617639,0.137884,0.405393,-0.114333,-1.950176,-0.017581,2.290305,-0.615235,0.137884,0.405393,-0.114333,-1.950176,-0.017581,2.290305,-0.615235,0.0400,0.037760,0.6069,0.0156,0.2452
1.6350,0.129835,0.439694,-0.106540,-1.955025,-0.019008,2.280732,-0.616735,0.138614,0.405951,-0.114938,-1.952186,-0.017674,2.291842,-0.614334,0.138614,0.405951,-0.114938,-1.952186,-0.017674,2.291842,-0.614334,0.0400,0.037752,0.6064,0.0157,0.2442
1.6400,0.130571,0.440248,-0.107138,-1.957019,-0.019099,2.282278,-0.615832,0.139344,0.406509,-0.115543,-1.954193,-0.017767,2.293378,-0.613434,0.139344,0.406509,-0.115543,-1.954193,-0.017767,2.293378,-0.613434,0.0400,0.037745,0.6058,0.0157,0.2432
1.6450,0.131308,0.440801,-0.107735,-1.959010,-0.019190,2.283822,-0.614930,0.140072,0.407066,-0.116147,-1.956197,-0.017860,2.294912,-0.612536,0.140072,0.407066,-0.116147,-1.956197,-0.017860,2.294912,-0.612536,0.0400,0.037737,0.6053,0.0157,0.2422
1.6500,0.132043,0.441354,-0.108332,-1.961000,-0.019280,2.285364,-0.614029,0.140800,0.407622,-0.116750,-1.958199,-0.017953,2.296444,-0.611638,0.140800,0.407622,-0.116750,-1.958199,-0.017953,2.296444,-0.611638,0.0400,0.037729,0.6047,0.0158,0.2412
1.6550,0.132778,0.441907,-0.108928,-1.962988,-0.019371,2.286904,-0.613130,0.141526,0.408177,-0.117353,-1.960198,-0.018046,2.297973,-0.610742,0.141526,0.408177,-0.117353,-1.960198,-0.018046,2.297973,-0.610742,0.0400,0.037722,0.6042,0.0158,0.2402
1.6600,0.133513,0.442458,-0.109523,-1.964974,-0.019461,2.288443,-0.612231,0.142252,0.408732,-0.117955,-1.962194,-0.018138,2.299501,-0.609847,0.142252,0.408732,-0.117955,-1.962194,-0.018138,2.299501,-0.609847,0.0400,0.037714,0.6036,0.0159,0.2393
1.6650,0.134247,0.443009,-0.110119,-1.966959,-0.019552,2.289979,-0.611334,0.142976,0.409286,-0.118555,-1.964188,-0.018231,2.301027,-0.608954,0.142976,0.409286,-0.118555,-1.964188,-0.018231,2.301027,-0.608954,0.0400,0.037707,0.6031,0.0159,0.2383
1.6700,0.134980,0.443559,-0.110713,-1.968941,-0.019642,2.291513,-0.610438,0.143700,0.409839,-0.119155,-1.966178,-0.018323,2.302550,-0.608061,0.143700,0.409839,-0.119155,-1.966178,-0.018323,2.302550,-0.608061,0.0400,0.037699,0.6025,0.0159,0.2373
1.6750,0.135712,0.444109,-0.111307,-1.970921,-0.019732,2.293045,-0.609543,0.144422,0.410391,-0.119754,-1.968166,-0.018415,2.304071,-0.607170,0.144422,0.410391,-0.119754,-1.968166,-0.018415,2.304071,-0.607170,0.0400,0.037691,0.6020,0.0160,0.2363
1.6800,0.136444,0.444657,-0.111900,-1.972899,-0.019822,2.294575,-0.608649,0.145143,0.410942,-0.120352,-1.970150,-0.018507,2.305589,-0.606281,0.145143,0.410942,-0.120352,-1.970150,-0.018507,2.305589,-0.606281,0.0400,0.037683,0.6014,0.0160,0.2353
1.6850,0.137174,0.445205,-0.112493,-1.974874,-0.019912,2.296103,-0.607757,0.145863,0.411492,-0.120949,-1.972131,-0.018599,2.307105,-0.605393,0.145863,0.411492,-0.120949,-1.972131,-0.018599,2.307105,-0.605393,0.0400,0.037676,0.6008,0.0161,0.2344
1.6900,0.137904,0.445753,-0.113085,-1.976847,-0.020001,2.297628,-0.606866,0.146582,0.412042,-0.121545,-1.974109,-0.018690,2.308618,-0.604506,0.146582,0.412042,-0.121545,-1.974109,-0.018690,2.308618,-0.604506,0.0400,0.037668,0.6003,0.0161,0.2334
1.6950,0.138633,0.446299,-0.113676,-1.978818,-0.020091,2.299151,-0.605977,0.147300,0.412590,-0.122140,-1.976084,-0.018782,2.310129,-0.603621,0.147300,0.412590,-0.122140,-1.976084,-0.018782,2.310129,-0.603621,0.0400,0.037660,0.5997,0.0161,0.2324
1.7000,0.139362,0.446844,-0.114267,-1.980786,-0.020180,2.300671,-0.605089,0.148016,0.413138,-0.122734,-1.978055,-0.018873,2.311637,-0.602738,0.148016,0.413138,-0.122734,-1.978055,-0.018873,2.311637,-0.602738,0.0400,0.037652,0.5991,0.0162,0.2315
1.7050,0.140089,0.447389,-0.114856,-1.982751,-0.020270,2.302189,-0.604202,0.148731,0.413684,-0.123327,-1.980022,-0.018964,2.313143,-0.601856,0.148731,0.413684,-0.123327,-1.980022,-0.018964,2.313143,-0.601856,0.0400,0.037644,0.5986,0.0162,0.2305
1.7100,0.140815,0.447933,-0.115445,-1.984714,-0.020359,2.303704,-0.603317,0.149445,0.414230,-0.123919,-1.981986,-0.019055,2.314645,-0.600975,0.149445,0.414230,-0.123919,-1.981986,-0.019055,2.314645,-0.600975,0.0400,0.037637,0.5980,0.0162,0.2296
1.7150,0.141540,0.448476,-0.116034,-1.986674,-0.020448,2.305217,-0.602434,0.150157,0.414774,-0.124510,-1.983946,-0.019146,2.316145,-0.600097,0.150157,0.414774,-0.124510,-1.983946,-0.019146,2.316145,-0.600097,0.0400,0.037629,0.5974,0.0163,0.2286
1.7200,0.142265,0.449018,-0.116621,-1.988631,-0.020536,2.306726,-0.601552,0.150868,0.415318,-0.125099,-1.985902,-0.019237,2.317642,-0.599220,0.150868,0.415318,-0.125099,-1.985902,-0.019237,2.317642,-0.599220,0.0400,0.037621,0.5969,0.0163,0.2277
1.7250,0.142988,0.449559,-0.117207,-1.990584,-0.020625,2.308233,-0.600672,0.151578,0.415860,-0.125688,-1.987854,-0.019327,2.319136,-0.598345,0.151578,0.415860,-0.125688,-1.987854,-0.019327,2.319136,-0.598345,0.0400,0.037613,0.5963,0.0163,0.2267
1.7300,0.143710,0.450099,-0.117793,-1.992535,-0.020713,2.309737,-0.599793,0.152286,0.416401,-0.126275,-1.989803,-0.019418,2.320627,-0.597471,0.152286,0.416401,-0.126275,-1.989803,-0.019418,2.320627,-0.597471,0.0400,0.037605,0.5957,0.0164,0.2258
1.7350,0.144431,0.450638,-0.118378,-1.994483,-0.020802,2.311238,-0.598917,0.152992,0.416942,-0.126861,-1.991747,-0.019508,2.322115,-0.596600,0.152992,0.416942,-0.126861,-1.991747,-0.019508,2.322115,-0.596600,0.0400,0.037597,0.5951,0.0164,0.2248
1.7400,0.145151,0.451176,-0.118962,-1.996427,-0.020890,2.312737,-0.598042,0.153698,0.417481,-0.127445,-1.993687,-0.019598,2.323599,-0.595730,0.153698,0.417481,-0.127445,-1.993687,-0.019598,2.323599,-0.595730,0.0400,0.037589,0.5946,0.0164,0.2239
1.7450,0.145870,0.451713,-0.119544,-1.998368,-0.020978,2.314232,-0.597169,0.154401,0.418018,-0.128029,-1.995623,-0.019687,2.325080,-0.594863,0.154401,0.418018,-0.128029,-1.995623,-0.019687,2.325080,-0.594863,0.0400,0.037581,0.5940,0.0165,0.2230
1.7500,0.146588,0.452249,-0.120126,-2.000306,-0.021065,2.315723,-0.596297,0.155103,0.418555,-0.128611,-1.997554,-0.019777,2.326558,-0.593997,0.155103,0.418555,-0.128611,-1.997554,-0.019777,2.326558,-0.593997,0.0400,0.037573,0.5934,0.0165,0.2220
1.7550,0.147304,0.452784,-0.120707,-2.002240,-0.021153,2.317212,-0.595428,0.155803,0.419090,-0.129191,-1.999481,-0.019866,2.328033,-0.593133,0.155803,0.419090,-0.129191,-1.999481,-0.019866,2.328033,-0.593133,0.0400,0.037565,0.5928,0.0165,0.2211
1.7600,0.148019,0.453318,-0.121287,-2.004170,-0.021240,2.318698,-0.594560,0.156502,0.419624,-0.129771,-2.001404,-0.019955,2.329504,-0.592271,0.156502,0.419624,-0.129771,-2.001404,-0.019955,2.329504,-0.592271,0.0400,0.037557,0.5922,0.0166,0.2202
1.7650,0.148733,0.453850,-0.121865,-2.006097,-0.021327,2.320180,-0.593695,0.157199,0.420157,-0.130349,-2.003322,-0.020044,2.330972,-0.591411,0.157199,0.420157,-0.130349,-2.003322,-0.020044,2.330972,-0.591411,0.0400,0.037549,0.5917,0.0166,0.2192
1.7700,0.149445,0.454382,-0.122443,-2.008020,-0.021414,2.321658,-0.592831,0.157895,0.420689,-0.130926,-2.005235,-0.020133,2.332436,-0.590554,0.157895,0.420689,-0.130926,-2.005235,-0.020133,2.332436,-0.590554,0.0400,0.037541,0.5911,0.0166,0.2183
1.7750,0.150156,0.454912,-0.123020,-2.009939,-0.021501,2.323134,-0.591970,0.158588,0.421219,-0.131501,-2.007144,-0.020221,2.333896,-0.589698,0.158588,0.421219,-0.131501,-2.007144,-0.020221,2.333896,-0.589698,0.0400,0.037533,0.5905,0.0166,0.2174
1.7800,0.150866,0.455441,-0.123595,-2.011854,-0.021587,2.324605,-0.591110,0.159280,0.421748,-0.132074,-2.009048,-0.020309,2.335353,-0.588845,0.159280,0.421748,-0.132074,-2.009048,-0.020309,2.335353,-0.588845,0.0400,0.037525,0.5899,0.0167,0.2165
1.7850,0.151574,0.455969,-0.124169,-2.013766,-0.021674,2.326074,-0.590253,0.159970,0.422275,-0.132647,-2.010947,-0.020397,2.336806,-0.587993,0.159970,0.422275,-0.132647,-2.010947,-0.020397,2.336806,-0.587993,0.0400,0.037517,0.5893,0.0167,0.2156
1.7900,0.152281,0.456495,-0.124742,-2.015673,-0.021760,2.327538,-0.589398,0.160659,0.422801,-0.133217,-2.012841,-0.020485,2.338256,-0.587144,0.160659,0.422801,-0.133217,-2.012841,-0.020485,2.338256,-0.587144,0.0400,0.037509,0.5887,0.0167,0.2147
1.7950,0.152986,0.457021,-0.125314,-2.017576,-0.021846,2.328999,-0.588544,0.161345,0.423326,-0.133787,-2.014730,-0.020573,2.339701,-0.586298,0.161345,0.423326,-0.133787,-2.014730,-0.020573,2.339701,-0.586298,0.0400,0.037500,0.5882,0.0167,0.2138
1.8000,0.153689,0.457545,-0.125885,-2.019475,-0.021931,2.330456,-0.587694,0.162030,0.423849,-0.134354,-2.016613,-0.020660,2.341142,-0.585453,0.162030,0.423849,-0.134354,-2.016613,-0.020660,2.341142,-0.585453,0.0400,0.037492,0.5876,0.0167,0.2129
1.8050,0.154392,0.458067,-0.126454,-2.021369,-0.022017,2.331909,-0.586845,0.162713,0.424371,-0.134920,-2.018492,-0.020747,2.342580,-0.584611,0.162713,0.424371,-0.134920,-2.018492,-0.020747,2.342580,-0.584611,0.0400,0.037484,0.5870,0.0168,0.2120
1.8100,0.155092,0.458589,-0.127022,-2.023259,-0.022102,2.333358,-0.585999,0.163393,0.424892,-0.135485,-2.020365,-0.020834,2.344013,-0.583772,0.163393,0.424892,-0.135485,-2.020365,-0.020834,2.344013,-0.583772,0.0400,0.037477,0.5864,0.0168,0.2111
1.8150,0.155791,0.459109,-0.127589,-2.025144,-0.022187,2.334804,-0.585155,0.164072,0.425410,-0.136048,-2.022233,-0.020920,2.345442,-0.582934,0.164072,0.425410,-0.136048,-2.022233,-0.020920,2.345442,-0.582934,0.0400,0.037469,0.5858,0.0168,0.2102
1.8200,0.156489,0.459627,-0.128154,-2.027025,-0.022272,2.336245,-0.584313,0.164749,0.425928,-0.136609,-2.024095,-0.021007,2.346867,-0.582099,0.164749,0.425928,-0.136609,-2.024095,-0.021007,2.346867,-0.582099,0.0400,0.037461,0.5852,0.0168,0.2093
1.8250,0.157184,0.460145,-0.128718,-2.028902,-0.022356,2.337682,-0.583474,0.165424,0.426444,-0.137169,-2.025952,-0.021093,2.348288,-0.581267,0.165424,0.426444,-0.137169,-2.025952,-0.021093,2.348288,-0.581267,0.0400,0.037453,0.5846,0.0168,0.2085
1.8300,0.157878,0.460660,-0.129281,-2.030773,-0.022440,2.339115,-0.582637,0.166097,0.426958,-0.137727,-2.027803,-0.021179,2.349705,-0.580437,0.166097,0.426958,-0.137727,-2.027803,-0.021179,2.349705,-0.580437,0.0400,0.037445,0.5841,0.0169,0.2076
1.8350,0.158571,0.461175,-0.129842,-2.032640,-0.022524,2.340544,-0.581803,0.166767,0.427471,-0.138283,-2.029649,-0.021264,2.351117,-0.579610,0.166767,0.427471,-0.138283,-2.029649,-0.021264,2.351117,-0.579610,0.0400,0.037437,0.5835,0.0169,0.2067
1.8400,0.159261,0.461688,-0.130402,-2.034502,-0.022608,2.341969,-0.580971,0.167436,0.427982,-0.138837,-2.031488,-0.021349,2.352524,-0.578785,0.167436,0.427982,-0.138837,-2.031488,-0.021349,2.352524,-0.578785,0.0400,0.037429,0.5829,0.0169,0.2059
1.8450,0.159950,0.462199,-0.130960,-2.036358,-0.022691,2.343389,-0.580141,0.168103,0.428491,-0.139390,-2.033322,-0.021434,2.353928,-0.577963,0.168103,0.428491,-0.139390,-2.033322,-0.021434,2.353928,-0.577963,0.0400,0.037422,0.5823,0.0169,0.2050
1.8500,0.160637,0.462709,-0.131517,-2.038210,-0.022775,2.344805,-0.579315,0.168767,0.428999,-0.139941,-2.035150,-0.021519,2.355326,-0.577144,0.168767,0.428999,-0.139941,-2.035150,-0.021519,2.355326,-0.577144,0.0400,0.037414,0.5817,0.0169,0.2041
1.8550,0.161322,0.463218,-0.132073,-2.040057,-0.022858,2.346216,-0.578491,0.169429,0.429505,-0.140490,-2.036972,-0.021604,2.356721,-0.576327,0.169429,0.429505,-0.140490,-2.036972,-0.021604,2.356721,-0.576327,0.0400,0.037406,0.5811,0.0169,0.2033
1.8600,0.162005,0.463725,-0.132627,-2.041898,-0.022940,2.347623,-0.577669,0.170089,0.430009,-0.141037,-2.038788,-0.021688,2.358110,-0.575513,0.170089,0.430009,-0.141037,-2.038788,-0.021688,2.358110,-0.575513,0.0400,0.037399,0.5805,0.0170,0.2024
1.8650,0.162686,0.464230,-0.133179,-2.043734,-0.023023,2.349026,-0.576850,0.170747,0.430512,-0.141582,-2.040597,-0.021772,2.359495,-0.574702,0.170747,0.430512,-0.141582,-2.040597,-0.021772,2.359495,-0.574702,0.0400,0.037391,0.5799,0.0170,0.2016
1.8700,0.163366,0.464734,-0.133730,-2.045565,-0.023105,2.350424,-0.576034,0.171402,0.431013,-0.142126,-2.042401,-0.021855,2.360875,-0.573894,0.171402,0.431013,-0.142126,-2.042401,-0.021855,2.360875,-0.573894,0.0400,0.037384,0.5793,0.0170,0.2007
1.8750,0.164043,0.465236,-0.134279,-2.047391,-0.023187,2.351817,-0.575221,0.172055,0.431512,-0.142667,-2.044198,-0.021938,2.362250,-0.573088,0.172055,0.431512,-0.142667,-2.044198,-0.021938,2.362250,-0.573088,0.0400,0.037376,0.5787,0.0170,0.1999
1.8800,0.164718,0.465736,-0.134827,-2.049210,-0.023268,2.353205,-0.574410,0.172706,0.432010,-0.143207,-2.045989,-0.022021,2.363620,-0.572285,0.172706,0.432010,-0.143207,-2.045989,-0.022021,2.363620,-0.572285,0.0400,0.037369,0.5782,0.0170,0.1991
1.8850,0.165392,0.466235,-0.135373,-2.051025,-0.023350,2.354589,-0.573602,0.173355,0.432506,-0.143745,-2.047773,-0.022104,2.364986,-0.571485,0.173355,0.432506,-0.143745,-2.047773,-0.022104,2.364986,-0.571485,0.0400,0.037362,0.5776,0.0170,0.1982
1.8900,0.166063,0.466732,-0.135917,-2.052833,-0.023431,2.355967,-0.572797,0.174001,0.432999,-0.144281,-2.049551,-0.022186,2.366346,-0.570689,0.174001,0.432999,-0.144281,-2.049551,-0.022186,2.366346,-0.570689,0.0400,0.037354,0.5770,0.0170,0.1974
1.8950,0.166732,0.467228,-0.136460,-2.054636,-0.023511,2.357341,-0.571995,0.174644,0.433491,-0.144814,-2.051322,-0.022269,2.367701,-0.569895,0.174644,0.433491,-0.144814,-2.051322,-0.022269,2.367701,-0.569895,0.0400,0.037347,0.5764,0.0170,0.1966
1.9000,0.167399,0.467722,-0.137000,-2.056433,-0.023592,2.358710,-0.571196,0.175286,0.433982,-0.145346,-2.053087,-0.022350,2.369051,-0.569104,0.175286,0.433982,-0.145346,-2.053087,-0.022350,2.369051,-0.569104,0.0400,0.037340,0.5758,0.0170,0.1958
1.9050,0.168064,0.468214,-0.137540,-2.058224,-0.023672,2.360074,-0.570400,0.175925,0.434470,-0.145876,-2.054844,-0.022432,2.370397,-0.568316,0.175925,0.434470,-0.145876,-2.054844,-0.022432,2.370397,-0.568316,0.0400,0.037333,0.5752,0.0170,0.1950
1.9100,0.168727,0.468704,-0.138077,-2.060010,-0.023752,2.361433,-0.569606,0.176561,0.434956,-0.146403,-2.056595,-0.022513,2.371736,-0.567531,0.176561,0.434956,-0.146403,-2.056595,-0.022513,2.371736,-0.567531,0.0400,0.037327,0.5746,0.0171,0.1941
1.9150,0.169388,0.469193,-0.138613,-2.061789,-0.023831,2.362787,-0.568816,0.177195,0.435441,-0.146929,-2.058339,-0.022594,2.373071,-0.566749,0.177195,0.435441,-0.146929,-2.058339,-0.022594,2.373071,-0.566749,0.0400,0.037320,0.5740,0.0171,0.1933
1.9200,0.170046,0.469680,-0.139147,-2.063562,-0.023911,2.364135,-0.568029,0.177826,0.435923,-0.147453,-2.060077,-0.022674,2.374400,-0.565970,0.177826,0.435923,-0.147453,-2.060077,-0.022674,2.374400,-0.565970,0.0400,0.037313,0.5735,0.0171,0.1925
1.9250,0.170703,0.470165,-0.139679,-2.065329,-0.023989,2.365478,-0.567244,0.178455,0.436404,-0.147974,-2.061807,-0.022754,2.375724,-0.565195,0.178455,0.436404,-0.147974,-2.061807,-0.022754,2.375724,-0.565195,0.0400,0.037307,0.5729,0.0171,0.1917
1.9300,0.171357,0.470648,-0.140209,-2.067089,-0.024068,2.366816,-0.566463,0.179081,0.436883,-0.148493,-2.063530,-0.022834,2.377042,-0.564422,0.179081,0.436883,-0.148493,-2.063530,-0.022834,2.377042,-0.564422,0.0400,0.037300,0.5723,0.0171,0.1909
1.9350,0.172008,0.471129,-0.140737,-2.068844,-0.024146,2.368149,-0.565685,0.179705,0.437359,-0.149010,-2.065246,-0.022914,2.378355,-0.563653,0.179705,0.437359,-0.149010,-2.065246,-0.022914,2.378355,-0.563653,0.0400,0.037294,0.5717,0.0171,0.1902
1.9400,0.172658,0.471609,-0.141264,-2.070592,-0.024224,2.369476,-0.564911,0.180326,0.437834,-0.149525,-2.066954,-0.022993,2.379663,-0.562887,0.180326,0.437834,-0.149525,-2.066954,-0.022993,2.379663,-0.562887,0.0400,0.037288,0.5711,0.0171,0.1894
1.9450,0.173305,0.472086,-0.141788,-2.072333,-0.024302,2.370798,-0.564139,0.180944,0.438307,-0.150038,-2.068655,-0.023072,2.380965,-0.562125,0.180944,0.438307,-0.150038,-2.068655,-0.023072,2.380965,-0.562125,0.0400,0.037282,0.5705,0.0171,0.1886
1.9500,0.173949,0.472562,-0.142311,-2.074068,-0.024379,2.372114,-0.563371,0.181560,0.438777,-0.150548,-2.070349,-0.023150,2.382261,-0.561365,0.181560,0.438777,-0.150548,-2.070349,-0.023150,2.382261,-0.561365,0.0400,0.037276,0.5699,0.0171,0.1878
1.9550,0.174591,0.473036,-0.142832,-2.075796,-0.024456,2.373425,-0.562605,0.182173,0.439246,-0.151057,-2.072036,-0.023228,2.383551,-0.560609,0.182173,0.439246,-0.151057,-2.072036,-0.023228,2.383551,-0.560609,0.0400,0.037270,0.5694,0.0171,0.1870
1.9600,0.175231,0.473508,-0.143350,-2.077518,-0.024533,2.374730,-0.561844,0.182783,0.439712,-0.151563,-2.073715,-0.023306,2.384836,-0.559857,0.182783,0.439712,-0.151563,-2.073715,-0.023306,2.384836,-0.559857,0.0400,0.037265,0.5688,0.0171,0.1863
1.9650,0.175869,0.473978,-0.143867,-2.079233,-0.024609,2.376030,-0.561085,0.183390,0.440177,-0.152066,-2.075387,-0.023384,2.386115,-0.559107,0.183390,0.440177,-0.152066,-2.075387,-0.023384,2.386115,-0.559107,0.0400,0.037259,0.5682,0.0171,0.1855
1.9700,0.176503,0.474446,-0.144382,-2.080941,-0.024685,2.377323,-0.560330,0.183995,0.440639,-0.152568,-2.077050,-0.023461,2.387388,-0.558361,0.183995,0.440639,-0.152568,-2.077050,-0.023461,2.387388,-0.558361,0.0400,0.037254,0.5676,0.0171,0.1848
1.9750,0.177136,0.474912,-0.144895,-2.082642,-0.024761,2.378611,-0.559578,0.184597,0.441099,-0.153067,-2.078707,-0.023538,2.388656,-0.557619,0.184597,0.441099,-0.153067,-2.078707,-0.023538,2.388656,-0.557619,0.0400,0.037249,0.5670,0.0171,0.1840
1.9800,0.177766,0.475376,-0.145405,-2.084337,-0.024836,2.379894,-0.558830,0.185196,0.441557,-0.153564,-2.080355,-0.023614,2.389917,-0.556880,0.185196,0.441557,-0.153564,-2.080355,-0.023614,2.389917,-0.556880,0.0400,0.037244,0.5665,0.0171,0.1833
1.9850,0.178393,0.475838,-0.145914,-2.086024,-0.024911,2.381170,-0.558085,0.185792,0.442013,-0.154058,-2.081996,-0.023690,2.391173,-0.556145,0.185792,0.442013,-0.154058,-2.081996,-0.023690,2.391173,-0.556145,0.0400,0.037240,0.5659,0.0171,0.1825
1.9900,0.179018,0.476298,-0.146421,-2.087704,-0.024986,2.382440,-0.557343,0.186386,0.442466,-0.154550,-2.083628,-0.023766,2.392422,-0.555413,0.186386,0.442466,-0.154550,-2.083628,-0.023766,2.392422,-0.555413,0.0400,0.037235,0.5653,0.0171,0.1818
1.9950,0.179640,0.476756,-0.146925,-2.089377,-0.025060,2.383705,-0.556605,0.186976,0.442917,-0.155040,-2.085253,-0.023841,2.393665,-0.554684,0.186976,0.442917,-0.155040,-2.085253,-0.023841,2.393665,-0.554684,0.0400,0.037231,0.5647,0.0171,0.1810
2.0000,0.180259,0.477212,-0.147427,-2.091043,-0.025134,2.384963,-0.555870,0.187564,0.443367,-0.155527,-2.086870,-0.023916,2.394902,-0.553960,0.187564,0.443367,-0.155527,-2.086870,-0.023916,2.394902,-0.553960,0.0400,0.037226,0.5642,0.0171,0.1803
2.0050,0.180876,0.477666,-0.147927,-2.092702,-0.025208,2.386216,-0.555139,0.188149,0.443814,-0.156012,-2.088479,-0.023990,2.396133,-0.553239,0.188149,0.443814,-0.156012,-2.088479,-0.023990,2.396133,-0.553239,0.0400,0.037222,0.5636,0.0171,0.1796
2.0100,0.181490,0.478117,-0.148425,-2.094353,-0.025281,2.387462,-0.554412,0.188730,0.444258,-0.156494,-2.090079,-0.024065,2.397358,-0.552521,0.188730,0.444258,-0.156494,-2.090079,-0.024065,2.397358,-0.552521,0.0400,0.037219,0.5630,0.0171,0.1789
2.0150,0.182102,0.478567,-0.148921,-2.095997,-0.025354,2.388702,-0.553688,0.189309,0.444701,-0.156974,-2.091671,-0.024138,2.398577,-0.551807,0.189309,0.444701,-0.156974,-2.091671,-0.024138,2.398577,-0.551807,0.0400,0.037215,0.5624,0.0171,0.1781
2.0200,0.182710,0.479014,-0.149415,-2.097634,-0.025426,2.389936,-0.552968,0.189885,0.445141,-0.157451,-2.093256,-0.024212,2.399789,-0.551097,0.189885,0.445141,-0.157451,-2.093256,-0.024212,2.399789,-0.551097,0.0400,0.037212,0.5619,0.0171,0.1774
