alvinuday/Neuromorphic-Robot-Control/mjpc/arm_mpc_log.csv
t_sim,q1,q2,q3,q4,q5,q6,q7,q1_ref,q2_ref,q3_ref,q4_ref,q5_ref,q6_ref,q7_ref,tau1,tau2,tau3,tau4,tau5,tau6,tau7,gripper_cmd,tracking_error,ee_x,ee_y,ee_z
0.0000,0.000000,0.300000,0.000000,-1.570790,0.000000,2.000000,-0.785300,0.000000,0.300000,0.000000,-1.570790,0.000000,2.000000,-0.785300,0.000000,0.300000,0.000000,-1.570790,0.000000,2.000000,-0.785300,0.0400,0.000000,0.6778,0.0000,0.3783
0.0050,0.000005,0.300220,-0.000004,-1.571000,-0.000033,2.000038,-0.785300,0.000000,0.300000,0.000000,-1.570793,-0.000001,2.000002,-0.785304,0.000000,0.300000,0.000000,-1.570793,-0.000001,2.000002,-0.785304,0.0400,0.000306,0.6778,0.0000,0.3783
0.0100,0.000012,0.300649,-0.000009,-1.571387,-0.000100,2.000068,-0.785301,0.000001,0.299998,0.000003,-1.570812,-0.000010,2.000018,-0.785332,0.000001,0.299998,0.000003,-1.570812,-0.000010,2.000018,-0.785332,0.0400,0.000876,0.6778,-0.0000,0.3780
0.0150,0.000021,0.301273,-0.000013,-1.571929,-0.000200,2.000057,-0.785304,0.000002,0.299992,0.000011,-1.570863,-0.000034,2.000060,-0.785406,0.000002,0.299992,0.000011,-1.570863,-0.000034,2.000060,-0.785406,0.0400,0.001678,0.6777,-0.0000,0.3776
0.0200,0.000030,0.302076,-0.000017,-1.572605,-0.000331,1.999979,-0.785313,0.000005,0.299981,0.000026,-1.570962,-0.000080,2.000141,-0.785549,0.000005,0.299981,0.000026,-1.570962,-0.000080,2.000141,-0.785549,0.0400,0.002690,0.6776,-0.0000,0.3769
0.0250,0.000040,0.303041,-0.000021,-1.573401,-0.000490,1.999820,-0.785334,0.000010,0.299964,0.000051,-1.571122,-0.000154,2.000273,-0.785782,0.000010,0.299964,0.000051,-1.571122,-0.000154,2.000273,-0.785782,0.0400,0.003898,0.6775,-0.0000,0.3760
0.0300,0.000049,0.304151,-0.000024,-1.574306,-0.000674,1.999576,-0.785379,0.000017,0.299938,0.000087,-1.571357,-0.000264,2.000467,-0.786123,0.000017,0.299938,0.000087,-1.571357,-0.000264,2.000467,-0.786123,0.0400,0.005290,0.6773,-0.0001,0.3749
0.0350,0.000057,0.305387,-0.000026,-1.575312,-0.000880,1.999252,-0.785462,0.000026,0.299902,0.000137,-1.571680,-0.000414,2.000733,-0.786593,0.000026,0.299902,0.000137,-1.571680,-0.000414,2.000733,-0.786593,0.0400,0.006855,0.6771,-0.0001,0.3737
0.0400,0.000064,0.306732,-0.000027,-1.576411,-0.001107,1.998860,-0.785599,0.000039,0.299855,0.000202,-1.572104,-0.000611,2.001082,-0.787208,0.000039,0.299855,0.000202,-1.572104,-0.000611,2.001082,-0.787208,0.0400,0.008583,0.6769,-0.0001,0.3723
0.0450,0.000070,0.308169,-0.000026,-1.577598,-0.001353,1.998420,-0.785809,0.000054,0.299796,0.000284,-1.572640,-0.000861,2.001523,-0.787987,0.000054,0.299796,0.000284,-1.572640,-0.000861,2.001523,-0.787987,0.0400,0.010459,0.6766,-0.0001,0.3708
0.0500,0.000073,0.309680,-0.000022,-1.578870,-0.001620,1.997958,-0.786116,0.000074,0.299724,0.000386,-1.573299,-0.001167,2.002066,-0.788945,0.000074,0.299724,0.000386,-1.573299,-0.001167,2.002066,-0.788945,0.0400,0.012466,0.6762,-0.0002,0.3692
0.0550,0.000075,0.311250,-0.000016,-1.580224,-0.001909,1.997502,-0.786541,0.000097,0.299637,0.000508,-1.574092,-0.001536,2.002718,-0.790097,0.000097,0.299637,0.000508,-1.574092,-0.001536,2.002718,-0.790097,0.0400,0.014586,0.6759,-0.0002,0.3674
0.0600,0.000074,0.312864,-0.000006,-1.581657,-0.002225,1.997085,-0.787110,0.000124,0.299534,0.000652,-1.575028,-0.001972,2.003489,-0.791457,0.000124,0.299534,0.000652,-1.575028,-0.001972,2.003489,-0.791457,0.0400,0.016795,0.6755,-0.0003,0.3657
0.0650,0.000071,0.314507,0.000009,-1.583168,-0.002572,1.996738,-0.787846,0.000156,0.299414,0.000819,-1.576117,-0.002479,2.004386,-0.793039,0.000156,0.299414,0.000819,-1.576117,-0.002479,2.004386,-0.793039,0.0400,0.019070,0.6752,-0.0003,0.3638
0.0700,0.000065,0.316164,0.000028,-1.584756,-0.002956,1.996495,-0.788772,0.000193,0.299276,0.001011,-1.577367,-0.003061,2.005416,-0.794856,0.000193,0.299276,0.001011,-1.577367,-0.003061,2.005416,-0.794856,0.0400,0.021386,0.6748,-0.0003,0.3619
0.0750,0.000056,0.317824,0.000055,-1.586420,-0.003385,1.996386,-0.789912,0.000235,0.299120,0.001229,-1.578787,-0.003721,2.006584,-0.796918,0.000235,0.299120,0.001229,-1.578787,-0.003721,2.006584,-0.796918,0.0400,0.023722,0.6744,-0.0004,0.3600
0.0800,0.000044,0.319472,0.000088,-1.588160,-0.003866,1.996439,-0.791286,0.000282,0.298944,0.001475,-1.580383,-0.004464,2.007899,-0.799237,0.000282,0.298944,0.001475,-1.580383,-0.004464,2.007899,-0.799237,0.0400,0.026053,0.6740,-0.0005,0.3580
0.0850,0.000029,0.321099,0.000130,-1.589976,-0.004407,1.996681,-0.792912,0.000334,0.298749,0.001749,-1.582163,-0.005293,2.009364,-0.801823,0.000334,0.298749,0.001749,-1.582163,-0.005293,2.009364,-0.801823,0.0400,0.028361,0.6736,-0.0005,0.3560
0.0900,0.000012,0.322692,0.000182,-1.591868,-0.005016,1.997134,-0.794807,0.000392,0.298532,0.002051,-1.584133,-0.006209,2.010986,-0.804685,0.000392,0.298532,0.002051,-1.584133,-0.006209,2.010986,-0.804685,0.0400,0.030628,0.6732,-0.0006,0.3541
0.0950,-0.000008,0.324243,0.000244,-1.593836,-0.005701,1.997815,-0.796986,0.000455,0.298293,0.002384,-1.586299,-0.007217,2.012769,-0.807832,0.000455,0.298293,0.002384,-1.586299,-0.007217,2.012769,-0.807832,0.0400,0.032841,0.6729,-0.0007,0.3521
0.1000,-0.000030,0.325740,0.000318,-1.595882,-0.006470,1.998738,-0.799461,0.000525,0.298033,0.002748,-1.588666,-0.008319,2.014718,-0.811270,0.000525,0.298033,0.002748,-1.588666,-0.008319,2.014718,-0.811270,0.0400,0.034989,0.6725,-0.0007,0.3502
0.1050,-0.000054,0.327177,0.000405,-1.598007,-0.007330,1.999914,-0.802242,0.000600,0.297750,0.003144,-1.591238,-0.009516,2.016836,-0.815007,0.000600,0.297750,0.003144,-1.591238,-0.009516,2.016836,-0.815007,0.0400,0.037064,0.6722,-0.0008,0.3482
0.1100,-0.000080,0.328544,0.000507,-1.600213,-0.008286,2.001349,-0.805337,0.000682,0.297444,0.003571,-1.594020,-0.010811,2.019127,-0.819049,0.000682,0.297444,0.003571,-1.594020,-0.010811,2.019127,-0.819049,0.0400,0.039064,0.6719,-0.0009,0.3464
0.1150,-0.000107,0.329835,0.000623,-1.602501,-0.009343,2.003045,-0.808753,0.000770,0.297114,0.004032,-1.597016,-0.012205,2.021593,-0.823402,0.000770,0.297114,0.004032,-1.597016,-0.012205,2.021593,-0.823402,0.0400,0.040987,0.6717,-0.0010,0.3445
0.1200,-0.000135,0.331044,0.000756,-1.604875,-0.010507,2.005003,-0.812493,0.000864,0.296761,0.004526,-1.600229,-0.013700,2.024239,-0.828069,0.000864,0.296761,0.004526,-1.600229,-0.013700,2.024239,-0.828069,0.0400,0.042836,0.6714,-0.0011,0.3427
0.1250,-0.000165,0.332164,0.000907,-1.607336,-0.011780,2.007219,-0.816562,0.000965,0.296383,0.005054,-1.603661,-0.015297,2.027065,-0.833056,0.000965,0.296383,0.005054,-1.603661,-0.015297,2.027065,-0.833056,0.0400,0.044615,0.6712,-0.0012,0.3409
0.1300,-0.000194,0.333191,0.001077,-1.609889,-0.013164,2.009689,-0.820962,0.001072,0.295981,0.005615,-1.607315,-0.016997,2.030073,-0.838364,0.001072,0.295981,0.005615,-1.607315,-0.016997,2.030073,-0.838364,0.0400,0.046329,0.6710,-0.0013,0.3392
0.1350,-0.000223,0.334120,0.001266,-1.612537,-0.014661,2.012407,-0.825693,0.001186,0.295554,0.006212,-1.611192,-0.018802,2.033266,-0.843997,0.001186,0.295554,0.006212,-1.611192,-0.018802,2.033266,-0.843997,0.0400,0.047988,0.6708,-0.0015,0.3375
0.1400,-0.000252,0.334949,0.001476,-1.615284,-0.016272,2.015364,-0.830758,0.001306,0.295103,0.006842,-1.615295,-0.020711,2.036643,-0.849957,0.001306,0.295103,0.006842,-1.615295,-0.020711,2.036643,-0.849957,0.0400,0.049599,0.6707,-0.0016,0.3359
0.1450,-0.000280,0.335675,0.001709,-1.618133,-0.017995,2.018553,-0.836156,0.001433,0.294627,0.007508,-1.619623,-0.022725,2.040207,-0.856245,0.001433,0.294627,0.007508,-1.619623,-0.022725,2.040207,-0.856245,0.0400,0.051172,0.6706,-0.0017,0.3343
0.1500,-0.000307,0.336295,0.001964,-1.621090,-0.019832,2.021966,-0.841886,0.001567,0.294126,0.008208,-1.624177,-0.024844,2.043957,-0.862862,0.001567,0.294126,0.008208,-1.624177,-0.024844,2.043957,-0.862862,0.0400,0.052716,0.6704,-0.0018,0.3327
0.1550,-0.000331,0.336809,0.002244,-1.624160,-0.021779,2.025594,-0.847950,0.001707,0.293600,0.008943,-1.628958,-0.027069,2.047893,-0.869807,0.001707,0.293600,0.008943,-1.628958,-0.027069,2.047893,-0.869807,0.0400,0.054240,0.6703,-0.0020,0.3312
0.1600,-0.000353,0.337216,0.002549,-1.627346,-0.023837,2.029431,-0.854346,0.001854,0.293049,0.009713,-1.633964,-0.029399,2.052015,-0.877081,0.001854,0.293049,0.009713,-1.633964,-0.029399,2.052015,-0.877081,0.0400,0.055755,0.6702,-0.0021,0.3297
0.1650,-0.000373,0.337516,0.002880,-1.630655,-0.026003,2.033468,-0.861074,0.002008,0.292473,0.010517,-1.639196,-0.031834,2.056322,-0.884681,0.002008,0.292473,0.010517,-1.639196,-0.031834,2.056322,-0.884681,0.0400,0.057266,0.6702,-0.0022,0.3283
0.1700,-0.000389,0.337710,0.003238,-1.634091,-0.028275,2.037701,-0.868132,0.002168,0.291873,0.011356,-1.644651,-0.034372,2.060814,-0.892607,0.002168,0.291873,0.011356,-1.644651,-0.034372,2.060814,-0.892607,0.0400,0.058783,0.6701,-0.0023,0.3269
0.1750,-0.000401,0.337800,0.003623,-1.637660,-0.030652,2.042122,-0.875520,0.002334,0.291248,0.012229,-1.650329,-0.037015,2.065489,-0.900857,0.002334,0.291248,0.012229,-1.650329,-0.037015,2.065489,-0.900857,0.0400,0.060312,0.6700,-0.0024,0.3255
0.1800,-0.000410,0.337787,0.004038,-1.641365,-0.033131,2.046729,-0.883237,0.002507,0.290599,0.013135,-1.656228,-0.039760,2.070346,-0.909426,0.002507,0.290599,0.013135,-1.656228,-0.039760,2.070346,-0.909426,0.0400,0.061858,0.6699,-0.0025,0.3242
0.1850,-0.000413,0.337673,0.004482,-1.645213,-0.035712,2.051516,-0.891281,0.002687,0.289926,0.014076,-1.662344,-0.042606,2.075382,-0.918312,0.002687,0.289926,0.014076,-1.662344,-0.042606,2.075382,-0.918312,0.0400,0.063425,0.6698,-0.0026,0.3229
0.1900,-0.000411,0.337463,0.004956,-1.649208,-0.038393,2.056482,-0.899650,0.002873,0.289229,0.015049,-1.668677,-0.045553,2.080596,-0.927512,0.002873,0.289229,0.015049,-1.668677,-0.045553,2.080596,-0.927512,0.0400,0.065017,0.6697,-0.0026,0.3216
0.1950,-0.000403,0.337158,0.005462,-1.653355,-0.041172,2.061623,-0.908342,0.003065,0.288509,0.016056,-1.675222,-0.048599,2.085985,-0.937021,0.003065,0.288509,0.016056,-1.675222,-0.048599,2.085985,-0.937021,0.0400,0.066636,0.6696,-0.0027,0.3203
0.2000,-0.000389,0.336764,0.005999,-1.657657,-0.044048,2.066936,-0.917354,0.003263,0.287766,0.017094,-1.681976,-0.051742,2.091546,-0.946833,0.003263,0.287766,0.017094,-1.681976,-0.051742,2.091546,-0.946833,0.0400,0.068282,0.6695,-0.0027,0.3190
0.2050,-0.000369,0.336283,0.006568,-1.662120,-0.047020,2.072422,-0.926682,0.003467,0.287000,0.018164,-1.688936,-0.054981,2.097276,-0.956945,0.003467,0.287000,0.018164,-1.688936,-0.054981,2.097276,-0.956945,0.0400,0.069957,0.6694,-0.0028,0.3177
0.2100,-0.000341,0.335720,0.007170,-1.666747,-0.050088,2.078076,-0.936323,0.003677,0.286212,0.019265,-1.696097,-0.058313,2.103173,-0.967349,0.003677,0.286212,0.019265,-1.696097,-0.058313,2.103173,-0.967349,0.0400,0.071659,0.6692,-0.0028,0.3165
0.2150,-0.000306,0.335079,0.007805,-1.671541,-0.053250,2.083899,-0.946273,0.003893,0.285402,0.020397,-1.703457,-0.061738,2.109232,-0.978041,0.003893,0.285402,0.020397,-1.703457,-0.061738,2.109232,-0.978041,0.0400,0.073387,0.6691,-0.0027,0.3152
0.2200,-0.000263,0.334366,0.008473,-1.676506,-0.056505,2.089888,-0.956527,0.004115,0.284571,0.021558,-1.711009,-0.065253,2.115450,-0.989013,0.004115,0.284571,0.021558,-1.711009,-0.065253,2.115450,-0.989013,0.0400,0.075138,0.6689,-0.0027,0.3139
0.2250,-0.000211,0.333584,0.009175,-1.681644,-0.059853,2.096040,-0.967078,0.004342,0.283720,0.022748,-1.718749,-0.068855,2.121824,-1.000259,0.004342,0.283720,0.022748,-1.718749,-0.068855,2.121824,-1.000259,0.0400,0.076909,0.6687,-0.0026,0.3126
0.2300,-0.000150,0.332739,0.009912,-1.686958,-0.063292,2.102354,-0.977921,0.004575,0.282848,0.023966,-1.726673,-0.072542,2.128348,-1.011771,0.004575,0.282848,0.023966,-1.726673,-0.072542,2.128348,-1.011771,0.0400,0.078698,0.6684,-0.0025,0.3113
0.2350,-0.000081,0.331836,0.010682,-1.692449,-0.066821,2.108826,-0.989050,0.004812,0.281956,0.025212,-1.734775,-0.076313,2.135018,-1.023541,0.004812,0.281956,0.025212,-1.734775,-0.076313,2.135018,-1.023541,0.0400,0.080500,0.6682,-0.0024,0.3100
0.2400,-0.000002,0.330879,0.011487,-1.698120,-0.070440,2.115452,-1.000456,0.005055,0.281046,0.026484,-1.743049,-0.080163,2.141831,-1.035562,0.005055,0.281046,0.026484,-1.743049,-0.080163,2.141831,-1.035562,0.0400,0.082311,0.6679,-0.0023,0.3086
0.2450,0.000087,0.329873,0.012326,-1.703972,-0.074146,2.122229,-1.012133,0.005303,0.280117,0.027781,-1.751489,-0.084091,2.148780,-1.047824,0.005303,0.280117,0.027781,-1.751489,-0.084091,2.148780,-1.047824,0.0400,0.084127,0.6676,-0.0021,0.3072
0.2500,0.000186,0.328823,0.013200,-1.710005,-0.077937,2.129153,-1.024071,0.005555,0.279171,0.029104,-1.760090,-0.088094,2.155862,-1.060320,0.005555,0.279171,0.029104,-1.760090,-0.088094,2.155862,-1.060320,0.0400,0.085943,0.6673,-0.0019,0.3058
0.2550,0.000295,0.327734,0.014108,-1.716219,-0.081812,2.136217,-1.036264,0.005812,0.278207,0.030450,-1.768846,-0.092168,2.163071,-1.073040,0.005812,0.278207,0.030450,-1.768846,-0.092168,2.163071,-1.073040,0.0400,0.087754,0.6669,-0.0017,0.3043
0.2600,0.000414,0.326611,0.015051,-1.722616,-0.085768,2.143417,-1.048701,0.006074,0.277228,0.031819,-1.777749,-0.096311,2.170401,-1.085975,0.006074,0.277228,0.031819,-1.777749,-0.096311,2.170401,-1.085975,0.0400,0.089556,0.6665,-0.0014,0.3028
0.2650,0.000545,0.325457,0.016027,-1.729193,-0.089803,2.150747,-1.061373,0.006339,0.276232,0.033209,-1.786793,-0.100520,2.177848,-1.099114,0.006339,0.276232,0.033209,-1.786793,-0.100520,2.177848,-1.099114,0.0400,0.091342,0.6661,-0.0012,0.3012
0.2700,0.000686,0.324278,0.017037,-1.735952,-0.093914,2.158200,-1.074271,0.006608,0.275222,0.034620,-1.795972,-0.104792,2.185406,-1.112450,0.006608,0.275222,0.034620,-1.795972,-0.104792,2.185406,-1.112450,0.0400,0.093109,0.6656,-0.0008,0.2996
0.2750,0.000838,0.323077,0.018081,-1.742889,-0.098098,2.165769,-1.087385,0.006882,0.274198,0.036051,-1.805278,-0.109122,2.193068,-1.125970,0.006882,0.274198,0.036051,-1.805278,-0.109122,2.193068,-1.125970,0.0400,0.094850,0.6651,-0.0005,0.2980
0.2800,0.001002,0.321858,0.019157,-1.750005,-0.102352,2.173448,-1.100705,0.007158,0.273161,0.037500,-1.814704,-0.113509,2.200829,-1.139664,0.007158,0.273161,0.037500,-1.814704,-0.113509,2.200829,-1.139664,0.0400,0.096560,0.6646,-0.0001,0.2962
0.2850,0.001177,0.320626,0.020267,-1.757296,-0.106672,2.181230,-1.114220,0.007438,0.272112,0.038967,-1.824244,-0.117948,2.208683,-1.153523,0.007438,0.272112,0.038967,-1.824244,-0.117948,2.208683,-1.153523,0.0400,0.098235,0.6640,0.0003,0.2945
0.2900,0.001363,0.319383,0.021408,-1.764760,-0.111055,2.189106,-1.127919,0.007721,0.271050,0.040450,-1.833888,-0.122436,2.216624,-1.167535,0.007721,0.271050,0.040450,-1.833888,-0.122436,2.216624,-1.167535,0.0400,0.099870,0.6633,0.0008,0.2926
0.2950,0.001561,0.318134,0.022581,-1.772395,-0.115497,2.197071,-1.141793,0.008007,0.269978,0.041947,-1.843631,-0.126970,2.224646,-1.181689,0.008007,0.269978,0.041947,-1.843631,-0.126970,2.224646,-1.181689,0.0400,0.101458,0.6626,0.0013,0.2907
0.3000,0.001771,0.316881,0.023786,-1.780197,-0.119995,2.205116,-1.155830,0.008296,0.268896,0.043459,-1.853463,-0.131546,2.232742,-1.195974,0.008296,0.268896,0.043459,-1.853463,-0.131546,2.232742,-1.195974,0.0400,0.102996,0.6619,0.0018,0.2888
0.3050,0.001992,0.315628,0.025021,-1.788164,-0.124543,2.213235,-1.170020,0.008587,0.267805,0.044983,-1.863378,-0.136160,2.240905,-1.210379,0.008587,0.267805,0.044983,-1.863378,-0.136160,2.240905,-1.210379,0.0400,0.104478,0.6611,0.0024,0.2868
0.3100,0.002224,0.314377,0.026285,-1.796290,-0.129140,2.221420,-1.184350,0.008880,0.266706,0.046519,-1.873368,-0.140809,2.249130,-1.224891,0.008880,0.266706,0.046519,-1.873368,-0.140809,2.249130,-1.224891,0.0400,0.105900,0.6602,0.0030,0.2847
0.3150,0.002468,0.313131,0.027579,-1.804572,-0.133780,2.229664,-1.198809,0.009175,0.265600,0.048065,-1.883423,-0.145488,2.257409,-1.239500,0.009175,0.265600,0.048065,-1.883423,-0.145488,2.257409,-1.239500,0.0400,0.107257,0.6593,0.0036,0.2825
0.3200,0.002723,0.311892,0.028901,-1.813005,-0.138459,2.237959,-1.213386,0.009472,0.264487,0.049620,-1.893537,-0.150195,2.265736,-1.254194,0.009472,0.264487,0.049620,-1.893537,-0.150195,2.265736,-1.254194,0.0400,0.108545,0.6584,0.0043,0.2803
0.3250,0.002990,0.310663,0.030251,-1.821585,-0.143175,2.246299,-1.228070,0.009770,0.263369,0.051183,-1.903701,-0.154925,2.274105,-1.268960,0.009770,0.263369,0.051183,-1.903701,-0.154925,2.274105,-1.268960,0.0400,0.109759,0.6574,0.0050,0.2780
0.3300,0.003268,0.309445,0.031627,-1.830305,-0.147922,2.254677,-1.242848,0.010069,0.262246,0.052752,-1.913906,-0.159674,2.282508,-1.283787,0.010069,0.262246,0.052752,-1.913906,-0.159674,2.282508,-1.283787,0.0400,0.110897,0.6563,0.0058,0.2757
0.3350,0.003557,0.308241,0.033029,-1.839161,-0.152697,2.263087,-1.257709,0.010370,0.261119,0.054326,-1.924145,-0.164439,2.290938,-1.298663,0.010370,0.261119,0.054326,-1.924145,-0.164439,2.290938,-1.298663,0.0400,0.111953,0.6551,0.0066,0.2733
0.3400,0.003857,0.307051,0.034456,-1.848146,-0.157496,2.271521,-1.272640,0.010671,0.259990,0.055904,-1.934409,-0.169215,2.299389,-1.313575,0.010671,0.259990,0.055904,-1.934409,-0.169215,2.299389,-1.313575,0.0400,0.112926,0.6539,0.0074,0.2708
0.3450,0.004168,0.305878,0.035907,-1.857254,-0.162315,2.279973,-1.287629,0.010973,0.258858,0.057485,-1.944690,-0.174000,2.307854,-1.328511,0.010973,0.258858,0.057485,-1.944690,-0.174000,2.307854,-1.328511,0.0400,0.113811,0.6526,0.0083,0.2682
0.3500,0.004489,0.304722,0.037380,-1.866479,-0.167150,2.288437,-1.302665,0.011275,0.257726,0.059067,-1.954980,-0.178788,2.316326,-1.343460,0.011275,0.257726,0.059067,-1.954980,-0.178788,2.316326,-1.343460,0.0400,0.114607,0.6513,0.0092,0.2657
0.3550,0.004821,0.303584,0.038875,-1.875815,-0.171998,2.296906,-1.317735,0.011577,0.256594,0.060648,-1.965269,-0.183576,2.324798,-1.358408,0.011577,0.256594,0.060648,-1.965269,-0.183576,2.324798,-1.358408,0.0400,0.115309,0.6499,0.0101,0.2630
0.3600,0.005162,0.302466,0.040390,-1.885252,-0.176855,2.305374,-1.332827,0.011879,0.255463,0.062229,-1.975550,-0.188361,2.333263,-1.373345,0.011879,0.255463,0.062229,-1.975550,-0.188361,2.333263,-1.373345,0.0400,0.115917,0.6485,0.0111,0.2603
0.3650,0.005514,0.301366,0.041925,-1.894786,-0.181716,2.313835,-1.347928,0.012180,0.254333,0.063807,-1.985814,-0.193137,2.341714,-1.388257,0.012180,0.254333,0.063807,-1.985814,-0.193137,2.341714,-1.388257,0.0400,0.116429,0.6469,0.0121,0.2575
0.3700,0.005874,0.300287,0.043478,-1.904407,-0.186579,2.322283,-1.363026,0.012480,0.253207,0.065381,-1.996054,-0.197902,2.350145,-1.403133,0.012480,0.253207,0.065381,-1.996054,-0.197902,2.350145,-1.403133,0.0400,0.116842,0.6453,0.0131,0.2547
0.3750,0.006244,0.299228,0.045048,-1.914109,-0.191439,2.330711,-1.378109,0.012780,0.252084,0.066950,-2.006259,-0.202652,2.358547,-1.417959,0.012780,0.252084,0.066950,-2.006259,-0.202652,2.358547,-1.417959,0.0400,0.117155,0.6437,0.0142,0.2519
0.3800,0.006623,0.298190,0.046633,-1.923883,-0.196293,2.339113,-1.393164,0.013078,0.250965,0.068513,-2.016423,-0.207381,2.366916,-1.432726,0.013078,0.250965,0.068513,-2.016423,-0.207381,2.366916,-1.432726,0.0400,0.117368,0.6420,0.0152,0.2490
0.3850,0.007010,0.297171,0.048233,-1.933722,-0.201136,2.347484,-1.408178,0.013375,0.249853,0.070068,-2.026537,-0.212088,2.375243,-1.447419,0.013375,0.249853,0.070068,-2.026537,-0.212088,2.375243,-1.447419,0.0400,0.117479,0.6402,0.0164,0.2461
0.3900,0.007406,0.296173,0.049845,-1.943616,-0.205965,2.355816,-1.423141,0.013670,0.248746,0.071614,-2.036592,-0.216767,2.383522,-1.462028,0.013670,0.248746,0.071614,-2.036592,-0.216767,2.383522,-1.462028,0.0400,0.117488,0.6383,0.0175,0.2431
0.3950,0.007808,0.295194,0.051469,-1.953558,-0.210777,2.364105,-1.438038,0.013963,0.247647,0.073150,-2.046581,-0.221416,2.391747,-1.476541,0.013963,0.247647,0.073150,-2.046581,-0.221416,2.391747,-1.476541,0.0400,0.117396,0.6364,0.0187,0.2401
0.4000,0.008218,0.294234,0.053103,-1.963538,-0.215566,2.372343,-1.452859,0.014254,0.246556,0.074674,-2.056496,-0.226030,2.399911,-1.490945,0.014254,0.246556,0.074674,-2.056496,-0.226030,2.399911,-1.490945,0.0400,0.117201,0.6345,0.0199,0.2371
0.4050,0.008635,0.293293,0.054746,-1.973549,-0.220330,2.380525,-1.467591,0.014543,0.245474,0.076186,-2.066329,-0.230606,2.408006,-1.505230,0.014543,0.245474,0.076186,-2.066329,-0.230606,2.408006,-1.505230,0.0400,0.116905,0.6324,0.0211,0.2340
0.4100,0.009058,0.292369,0.056397,-1.983581,-0.225065,2.388646,-1.482222,0.014829,0.244402,0.077684,-2.076071,-0.235140,2.416028,-1.519384,0.014829,0.244402,0.077684,-2.076071,-0.235140,2.416028,-1.519384,0.0400,0.116508,0.6304,0.0223,0.2309
0.4150,0.009487,0.291463,0.058053,-1.993626,-0.229766,2.396698,-1.496741,0.015112,0.243341,0.079166,-2.085716,-0.239628,2.423969,-1.533396,0.015112,0.243341,0.079166,-2.085716,-0.239628,2.423969,-1.533396,0.0400,0.116010,0.6282,0.0235,0.2279
0.4200,0.009920,0.290573,0.059713,-2.003674,-0.234430,2.404676,-1.511135,0.015392,0.242291,0.080633,-2.095255,-0.244067,2.431823,-1.547255,0.015392,0.242291,0.080633,-2.095255,-0.244067,2.431823,-1.547255,0.0400,0.115414,0.6260,0.0248,0.2248
0.4250,0.010359,0.289699,0.061376,-2.013717,-0.239054,2.412575,-1.525393,0.015668,0.241254,0.082082,-2.104682,-0.248454,2.439584,-1.560950,0.015668,0.241254,0.082082,-2.104682,-0.248454,2.439584,-1.560950,0.0400,0.114719,0.6238,0.0261,0.2217
0.4300,0.010801,0.288839,0.063041,-2.023746,-0.243632,2.420388,-1.539504,0.015941,0.240230,0.083513,-2.113988,-0.252784,2.447247,-1.574470,0.015941,0.240230,0.083513,-2.113988,-0.252784,2.447247,-1.574470,0.0400,0.113929,0.6215,0.0273,0.2186
0.4350,0.011248,0.287993,0.064705,-2.033751,-0.248163,2.428110,-1.553456,0.016211,0.239220,0.084924,-2.123166,-0.257056,2.454804,-1.587805,0.016211,0.239220,0.084924,-2.123166,-0.257056,2.454804,-1.587805,0.0400,0.113044,0.6191,0.0286,0.2155
0.4400,0.011697,0.287159,0.066367,-2.043724,-0.252641,2.435736,-1.567239,0.016476,0.238225,0.086315,-2.132211,-0.261265,2.462251,-1.600945,0.016476,0.238225,0.086315,-2.132211,-0.261265,2.462251,-1.600945,0.0400,0.112066,0.6168,0.0299,0.2124
0.4450,0.012148,0.286337,0.068026,-2.053655,-0.257063,2.443260,-1.580841,0.016737,0.237245,0.087683,-2.141114,-0.265408,2.469581,-1.613880,0.016737,0.237245,0.087683,-2.141114,-0.265408,2.469581,-1.613880,0.0400,0.110998,0.6143,0.0312,0.2093
0.4500,0.012601,0.285526,0.069680,-2.063537,-0.261427,2.450676,-1.594253,0.016994,0.236282,0.089029,-2.149869,-0.269482,2.476790,-1.626600,0.016994,0.236282,0.089029,-2.149869,-0.269482,2.476790,-1.626600,0.0400,0.109841,0.6119,0.0326,0.2062
0.4550,0.013055,0.284724,0.071328,-2.073359,-0.265727,2.457980,-1.607464,0.017247,0.235335,0.090352,-2.158470,-0.273485,2.483872,-1.639095,0.017247,0.235335,0.090352,-2.158470,-0.273485,2.483872,-1.639095,0.0400,0.108599,0.6094,0.0339,0.2032
0.4600,0.013510,0.283932,0.072967,-2.083114,-0.269961,2.465166,-1.620464,0.017494,0.234407,0.091649,-2.166911,-0.277413,2.490821,-1.651358,0.017494,0.234407,0.091649,-2.166911,-0.277413,2.490821,-1.651358,0.0400,0.107274,0.6068,0.0352,0.2002
0.4650,0.013964,0.283147,0.074596,-2.092793,-0.274125,2.472230,-1.633243,0.017737,0.233496,0.092922,-2.175185,-0.281263,2.497634,-1.663379,0.017737,0.233496,0.092922,-2.175185,-0.281263,2.497634,-1.663379,0.0400,0.105869,0.6043,0.0365,0.1972
0.4700,0.014417,0.282370,0.076214,-2.102386,-0.278217,2.479167,-1.645791,0.017975,0.232605,0.094167,-2.183287,-0.285034,2.504304,-1.675149,0.017975,0.232605,0.094167,-2.183287,-0.285034,2.504304,-1.675149,0.0400,0.104387,0.6017,0.0378,0.1942
0.4750,0.014869,0.281599,0.077820,-2.111886,-0.282233,2.485972,-1.658100,0.018208,0.231733,0.095385,-2.191210,-0.288721,2.510829,-1.686661,0.018208,0.231733,0.095385,-2.191210,-0.288721,2.510829,-1.686661,0.0400,0.102831,0.5991,0.0391,0.1913
0.4800,0.015319,0.280834,0.079410,-2.121285,-0.286169,2.492641,-1.670161,0.018435,0.230881,0.096575,-2.198951,-0.292323,2.517202,-1.697906,0.018435,0.230881,0.096575,-2.198951,-0.292323,2.517202,-1.697906,0.0400,0.101205,0.5964,0.0403,0.1884
0.4850,0.015765,0.280075,0.080985,-2.130574,-0.290023,2.499169,-1.681965,0.018656,0.230050,0.097737,-2.206503,-0.295838,2.523420,-1.708878,0.018656,0.230050,0.097737,-2.206503,-0.295838,2.523420,-1.708878,0.0400,0.099513,0.5938,0.0416,0.1856
0.4900,0.016209,0.279320,0.082542,-2.139746,-0.293792,2.505553,-1.693504,0.018872,0.229241,0.098868,-2.213862,-0.299263,2.529479,-1.719570,0.018872,0.229241,0.098868,-2.213862,-0.299263,2.529479,-1.719570,0.0400,0.097758,0.5911,0.0429,0.1828
0.4950,0.016647,0.278569,0.084080,-2.148792,-0.297474,2.511788,-1.704770,0.019082,0.228452,0.099969,-2.221024,-0.302595,2.535376,-1.729975,0.019082,0.228452,0.099969,-2.221024,-0.302595,2.535376,-1.729975,0.0400,0.095945,0.5885,0.0441,0.1800
0.5000,0.017082,0.277822,0.085597,-2.157706,-0.301065,2.517870,-1.715756,0.019287,0.227687,0.101039,-2.227984,-0.305834,2.541107,-1.740086,0.019287,0.227687,0.101039,-2.227984,-0.305834,2.541107,-1.740086,0.0400,0.094077,0.5858,0.0453,0.1773
0.5050,0.017510,0.277079,0.087092,-2.166480,-0.304564,2.523796,-1.726454,0.019485,0.226943,0.102077,-2.234738,-0.308977,2.546668,-1.749899,0.019485,0.226943,0.102077,-2.234738,-0.308977,2.546668,-1.749899,0.0400,0.092160,0.5831,0.0465,0.1746
0.5100,0.017933,0.276339,0.088563,-2.175106,-0.307967,2.529563,-1.736859,0.019677,0.226223,0.103084,-2.241283,-0.312023,2.552056,-1.759407,0.019677,0.226223,0.103084,-2.241283,-0.312023,2.552056,-1.759407,0.0400,0.090198,0.5805,0.0477,0.1721
0.5150,0.018348,0.275602,0.090010,-2.183579,-0.311273,2.535166,-1.746963,0.019863,0.225527,0.104057,-2.247615,-0.314970,2.557270,-1.768607,0.019863,0.225527,0.104057,-2.247615,-0.314970,2.557270,-1.768607,0.0400,0.088196,0.5778,0.0489,0.1695
0.5200,0.018756,0.274869,0.091430,-2.191891,-0.314479,2.540604,-1.756762,0.020042,0.224854,0.104998,-2.253732,-0.317816,2.562306,-1.777494,0.020042,0.224854,0.104998,-2.253732,-0.317816,2.562306,-1.777494,0.0400,0.086159,0.5752,0.0500,0.1670
0.5250,0.019156,0.274139,0.092823,-2.200037,-0.317584,2.545873,-1.766250,0.020215,0.224204,0.105904,-2.259630,-0.320561,2.567163,-1.786063,0.020215,0.224204,0.105904,-2.259630,-0.320561,2.567163,-1.786063,0.0400,0.084094,0.5726,0.0511,0.1646
0.5300,0.019548,0.273412,0.094186,-2.208010,-0.320586,2.550971,-1.775421,0.020382,0.223580,0.106777,-2.265308,-0.323204,2.571838,-1.794312,0.020382,0.223580,0.106777,-2.265308,-0.323204,2.571838,-1.794312,0.0400,0.082005,0.5700,0.0522,0.1623
0.5350,0.019931,0.272690,0.095519,-2.215805,-0.323483,2.555894,-1.784273,0.020542,0.222979,0.107616,-2.270764,-0.325742,2.576330,-1.802238,0.020542,0.222979,0.107616,-2.270764,-0.325742,2.576330,-1.802238,0.0400,0.079899,0.5674,0.0532,0.1600
0.5400,0.020303,0.271971,0.096821,-2.223416,-0.326273,2.560642,-1.792800,0.020696,0.222404,0.108421,-2.275996,-0.328177,2.580637,-1.809839,0.020696,0.222404,0.108421,-2.275996,-0.328177,2.580637,-1.809839,0.0400,0.077782,0.5649,0.0542,0.1578
0.5450,0.020666,0.271257,0.098090,-2.230838,-0.328956,2.565212,-1.800999,0.020843,0.221853,0.109190,-2.281002,-0.330507,2.584759,-1.817112,0.020843,0.221853,0.109190,-2.281002,-0.330507,2.584759,-1.817112,0.0400,0.075661,0.5624,0.0552,0.1556
0.5500,0.021018,0.270547,0.099326,-2.238066,-0.331530,2.569602,-1.808869,0.020983,0.221327,0.109925,-2.285783,-0.332732,2.588696,-1.824058,0.020983,0.221327,0.109925,-2.285783,-0.332732,2.588696,-1.824058,0.0400,0.073543,0.5599,0.0562,0.1535
0.5550,0.021359,0.269844,0.100527,-2.245097,-0.333994,2.573810,-1.816405,0.021117,0.220826,0.110625,-2.290337,-0.334851,2.592446,-1.830674,0.021117,0.220826,0.110625,-2.290337,-0.334851,2.592446,-1.830674,0.0400,0.071436,0.5574,0.0571,0.1515
0.5600,0.021688,0.269146,0.101692,-2.251926,-0.336348,2.577837,-1.823608,0.021244,0.220349,0.111291,-2.294665,-0.336865,2.596009,-1.836962,0.021244,0.220349,0.111291,-2.294665,-0.336865,2.596009,-1.836962,0.0400,0.069346,0.5550,0.0580,0.1495
0.5650,0.022006,0.268455,0.102821,-2.258550,-0.338591,2.581681,-1.830475,0.021364,0.219898,0.111922,-2.298768,-0.338774,2.599387,-1.842922,0.021364,0.219898,0.111922,-2.298768,-0.338774,2.599387,-1.842922,0.0400,0.067282,0.5527,0.0588,0.1476
0.5700,0.022311,0.267771,0.103913,-2.264964,-0.340722,2.585341,-1.837006,0.021478,0.219471,0.112518,-2.302645,-0.340579,2.602579,-1.848556,0.021478,0.219471,0.112518,-2.302645,-0.340579,2.602579,-1.848556,0.0400,0.065253,0.5504,0.0597,0.1458
0.5750,0.022604,0.267095,0.104967,-2.271166,-0.342742,2.588817,-1.843201,0.021585,0.219069,0.113079,-2.306299,-0.342279,2.605588,-1.853864,0.021585,0.219069,0.113079,-2.306299,-0.342279,2.605588,-1.853864,0.0400,0.063267,0.5481,0.0604,0.1441
0.5800,0.022884,0.266428,0.105982,-2.277154,-0.344650,2.592110,-1.849061,0.021686,0.218692,0.113607,-2.309731,-0.343876,2.608414,-1.858850,0.021686,0.218692,0.113607,-2.309731,-0.343876,2.608414,-1.858850,0.0400,0.061333,0.5459,0.0612,0.1424
0.5850,0.023150,0.265770,0.106958,-2.282925,-0.346447,2.595220,-1.854587,0.021780,0.218338,0.114101,-2.312944,-0.345371,2.611059,-1.863518,0.021780,0.218338,0.114101,-2.312944,-0.345371,2.611059,-1.863518,0.0400,0.059460,0.5438,0.0619,0.1408
0.5900,0.023404,0.265122,0.107894,-2.288478,-0.348134,2.598147,-1.859781,0.021868,0.218009,0.114562,-2.315939,-0.346766,2.613525,-1.867870,0.021868,0.218009,0.114562,-2.315939,-0.346766,2.613525,-1.867870,0.0400,0.057658,0.5417,0.0626,0.1392
0.5950,0.023643,0.264485,0.108791,-2.293811,-0.349710,2.600894,-1.864646,0.021950,0.217702,0.114989,-2.318722,-0.348060,2.615816,-1.871912,0.021950,0.217702,0.114989,-2.318722,-0.348060,2.615816,-1.871912,0.0400,0.055934,0.5397,0.0632,0.1377
0.6000,0.023869,0.263860,0.109647,-2.298923,-0.351177,2.603461,-1.869185,0.022025,0.217419,0.115385,-2.321294,-0.349257,2.617934,-1.875649,0.022025,0.217419,0.115385,-2.321294,-0.349257,2.617934,-1.875649,0.0400,0.054300,0.5377,0.0638,0.1363
0.6050,0.024082,0.263247,0.110462,-2.303813,-0.352537,2.605851,-1.873403,0.022095,0.217159,0.115749,-2.323661,-0.350359,2.619883,-1.879088,0.022095,0.217159,0.115749,-2.323661,-0.350359,2.619883,-1.879088,0.0400,0.052763,0.5358,0.0644,0.1350
0.6100,0.024280,0.262647,0.111236,-2.308482,-0.353790,2.608065,-1.877302,0.022158,0.216921,0.116082,-2.325826,-0.351367,2.621666,-1.882234,0.022158,0.216921,0.116082,-2.325826,-0.351367,2.621666,-1.882234,0.0400,0.051331,0.5340,0.0649,0.1337
0.6150,0.024465,0.262061,0.111970,-2.312929,-0.354938,2.610108,-1.880891,0.022216,0.216704,0.116385,-2.327796,-0.352283,2.623288,-1.885096,0.022216,0.216704,0.116385,-2.327796,-0.352283,2.623288,-1.885096,0.0400,0.050013,0.5322,0.0654,0.1325
0.6200,0.024635,0.261489,0.112663,-2.317156,-0.355984,2.611982,-1.884173,0.022268,0.216508,0.116658,-2.329576,-0.353112,2.624754,-1.887682,0.022268,0.216508,0.116658,-2.329576,-0.353112,2.624754,-1.887682,0.0400,0.048814,0.5305,0.0658,0.1313
0.6250,0.024792,0.260931,0.113315,-2.321163,-0.356929,2.613691,-1.887157,0.022315,0.216332,0.116904,-2.331173,-0.353855,2.626068,-1.890001,0.022315,0.216332,0.116904,-2.331173,-0.353855,2.626068,-1.890001,0.0400,0.047739,0.5289,0.0663,0.1303
0.6300,0.024934,0.260389,0.113926,-2.324951,-0.357776,2.615240,-1.889850,0.022357,0.216176,0.117122,-2.332592,-0.354515,2.627237,-1.892064,0.022357,0.216176,0.117122,-2.332592,-0.354515,2.627237,-1.892064,0.0400,0.046792,0.5273,0.0666,0.1292
0.6350,0.025063,0.259862,0.114497,-2.328524,-0.358527,2.616632,-1.892260,0.022393,0.216039,0.117314,-2.333843,-0.355097,2.628266,-1.893880,0.022393,0.216039,0.117314,-2.333843,-0.355097,2.628266,-1.893880,0.0400,0.045974,0.5258,0.0670,0.1283
0.6400,0.025178,0.259351,0.115029,-2.331883,-0.359186,2.617873,-1.894397,0.022425,0.215919,0.117482,-2.334932,-0.355604,2.629163,-1.895462,0.022425,0.215919,0.117482,-2.334932,-0.355604,2.629163,-1.895462,0.0400,0.045285,0.5244,0.0673,0.1274
0.6450,0.025279,0.258857,0.115521,-2.335032,-0.359755,2.618969,-1.896271,0.022453,0.215816,0.117626,-2.335868,-0.356040,2.629934,-1.896823,0.022453,0.215816,0.117626,-2.335868,-0.356040,2.629934,-1.896823,0.0400,0.044721,0.5231,0.0676,0.1265
0.6500,0.025367,0.258378,0.115974,-2.337973,-0.360239,2.619926,-1.897893,0.022476,0.215729,0.117747,-2.336661,-0.356409,2.630587,-1.897975,0.022476,0.215729,0.117747,-2.336661,-0.356409,2.630587,-1.897975,0.0400,0.044278,0.5218,0.0678,0.1257
0.6550,0.025441,0.257916,0.116389,-2.340711,-0.360641,2.620751,-1.899274,0.022495,0.215656,0.117849,-2.337320,-0.356715,2.631129,-1.898932,0.022495,0.215656,0.117849,-2.337320,-0.356715,2.631129,-1.898932,0.0400,0.043949,0.5206,0.0681,0.1250
0.6600,0.025503,0.257471,0.116767,-2.343250,-0.360965,2.621450,-1.900428,0.022511,0.215597,0.117931,-2.337856,-0.356965,2.631571,-1.899711,0.022511,0.215597,0.117931,-2.337856,-0.356965,2.631571,-1.899711,0.0400,0.043724,0.5195,0.0682,0.1243
0.6650,0.025551,0.257042,0.117108,-2.345594,-0.361216,2.622031,-1.901367,0.022524,0.215550,0.117996,-2.338280,-0.357162,2.631920,-1.900327,0.022524,0.215550,0.117996,-2.338280,-0.357162,2.631920,-1.900327,0.0400,0.043592,0.5185,0.0684,0.1237
0.6700,0.025587,0.256628,0.117413,-2.347750,-0.361398,2.622503,-1.902106,0.022533,0.215515,0.118046,-2.338603,-0.357312,2.632186,-1.900796,0.022533,0.215515,0.118046,-2.338603,-0.357312,2.632186,-1.900796,0.0400,0.043541,0.5175,0.0685,0.1231
0.6750,0.025610,0.256231,0.117684,-2.349723,-0.361515,2.622875,-1.902660,0.022540,0.215489,0.118082,-2.338838,-0.357422,2.632379,-1.901138,0.022540,0.215489,0.118082,-2.338838,-0.357422,2.632379,-1.901138,0.0400,0.043559,0.5166,0.0687,0.1226
0.6800,0.025621,0.255848,0.117920,-2.351519,-0.361574,2.623155,-1.903046,0.022545,0.215471,0.118107,-2.338998,-0.357496,2.632511,-1.901370,0.022545,0.215471,0.118107,-2.338998,-0.357496,2.632511,-1.901370,0.0400,0.043630,0.5157,0.0687,0.1221
0.6850,0.025620,0.255481,0.118124,-2.353146,-0.361580,2.623353,-1.903280,0.022548,0.215461,0.118122,-2.339097,-0.357542,2.632592,-1.901513,0.022548,0.215461,0.118122,-2.339097,-0.357542,2.632592,-1.901513,0.0400,0.043740,0.5150,0.0688,0.1217
0.6900,0.025608,0.255127,0.118297,-2.354610,-0.361538,2.623480,-1.903381,0.022549,0.215455,0.118130,-2.339148,-0.357566,2.632634,-1.901588,0.022549,0.215455,0.118130,-2.339148,-0.357566,2.632634,-1.901588,0.0400,0.043877,0.5143,0.0688,0.1213
0.6950,0.025584,0.254787,0.118440,-2.355921,-0.361455,2.623546,-1.903368,0.022550,0.215453,0.118133,-2.339167,-0.357575,2.632650,-1.901615,0.022550,0.215453,0.118133,-2.339167,-0.357575,2.632650,-1.901615,0.0400,0.044024,0.5136,0.0689,0.1210
0.7000,0.025549,0.254459,0.118554,-2.357085,-0.361336,2.623564,-1.903260,0.022550,0.215453,0.118133,-2.339170,-0.357576,2.632652,-1.901620,0.022550,0.215453,0.118133,-2.339170,-0.357576,2.632652,-1.901620,0.0400,0.044171,0.5131,0.0689,0.1207
0.7050,0.025503,0.254142,0.118641,-2.358113,-0.361190,2.623545,-1.903079,0.022551,0.215456,0.118132,-2.339169,-0.357579,2.632655,-1.901617,0.022551,0.215456,0.118132,-2.339169,-0.357579,2.632655,-1.901617,0.0400,0.044301,0.5126,0.0688,0.1205
0.7100,0.025447,0.253835,0.118703,-2.359014,-0.361023,2.623502,-1.902846,0.022557,0.215482,0.118122,-2.339166,-0.357598,2.632677,-1.901602,0.022557,0.215482,0.118122,-2.339166,-0.357598,2.632677,-1.901602,0.0400,0.044397,0.5121,0.0688,0.1203
0.7150,0.025381,0.253538,0.118740,-2.359798,-0.360842,2.623448,-1.902582,0.022573,0.215549,0.118097,-2.339157,-0.357648,2.632733,-1.901563,0.022573,0.215549,0.118097,-2.339157,-0.357648,2.632733,-1.901563,0.0400,0.044441,0.5117,0.0688,0.1201
0.7200,0.025307,0.253251,0.118753,-2.360474,-0.360658,2.623397,-1.902305,0.022603,0.215676,0.118050,-2.339141,-0.357743,2.632841,-1.901488,0.022603,0.215676,0.118050,-2.339141,-0.357743,2.632841,-1.901488,0.0400,0.044420,0.5114,0.0687,0.1200
0.7250,0.025226,0.252974,0.118743,-2.361050,-0.360481,2.623364,-1.902027,0.022652,0.215881,0.117974,-2.339114,-0.357895,2.633013,-1.901368,0.022652,0.215881,0.117974,-2.339114,-0.357895,2.633013,-1.901368,0.0400,0.044323,0.5111,0.0686,0.1199
0.7300,0.025140,0.252710,0.118709,-2.361534,-0.360323,2.623364,-1.901758,0.022723,0.216179,0.117863,-2.339076,-0.358116,2.633264,-1.901193,0.022723,0.216179,0.117863,-2.339076,-0.358116,2.633264,-1.901193,0.0400,0.044143,0.5109,0.0686,0.1198
0.7350,0.025052,0.252460,0.118651,-2.361934,-0.360198,2.623413,-1.901500,0.022820,0.216583,0.117713,-2.339024,-0.358417,2.633604,-1.900955,0.022820,0.216583,0.117713,-2.339024,-0.358417,2.633604,-1.900955,0.0400,0.043878,0.5107,0.0685,0.1198
0.7400,0.024963,0.252230,0.118569,-2.362256,-0.360119,2.623525,-1.901253,0.022945,0.217106,0.117519,-2.338956,-0.358807,2.634044,-1.900647,0.022945,0.217106,0.117519,-2.338956,-0.358807,2.634044,-1.900647,0.0400,0.043526,0.5106,0.0684,0.1198
0.7450,0.024877,0.252024,0.118461,-2.362505,-0.360102,2.623718,-1.901011,0.023101,0.217760,0.117276,-2.338872,-0.359293,2.634595,-1.900263,0.023101,0.217760,0.117276,-2.338872,-0.359293,2.634595,-1.900263,0.0400,0.043089,0.5105,0.0683,0.1198
0.7500,0.024796,0.251848,0.118327,-2.362687,-0.360161,2.624005,-1.900762,0.023290,0.218554,0.116981,-2.338770,-0.359884,2.635263,-1.899796,0.023290,0.218554,0.116981,-2.338770,-0.359884,2.635263,-1.899796,0.0400,0.042572,0.5105,0.0682,0.1198
0.7550,0.024724,0.251707,0.118164,-2.362806,-0.360311,2.624401,-1.900495,0.023515,0.219496,0.116631,-2.338648,-0.360585,2.636056,-1.899242,0.023515,0.219496,0.116631,-2.338648,-0.360585,2.636056,-1.899242,0.0400,0.041982,0.5105,0.0681,0.1198
0.7600,0.024663,0.251610,0.117972,-2.362865,-0.360565,2.624919,-1.900195,0.023777,0.220594,0.116223,-2.338506,-0.361402,2.636980,-1.898597,0.023777,0.220594,0.116223,-2.338506,-0.361402,2.636980,-1.898597,0.0400,0.041327,0.5105,0.0680,0.1199
0.7650,0.024616,0.251563,0.117750,-2.362869,-0.360936,2.625572,-1.899846,0.024078,0.221854,0.115755,-2.338344,-0.362339,2.638040,-1.897857,0.024078,0.221854,0.115755,-2.338344,-0.362339,2.638040,-1.897857,0.0400,0.040617,0.5106,0.0679,0.1200
0.7700,0.024586,0.251574,0.117495,-2.362819,-0.361434,2.626370,-1.899431,0.024418,0.223279,0.115225,-2.338160,-0.363400,2.639241,-1.897018,0.024418,0.223279,0.115225,-2.338160,-0.363400,2.639241,-1.897018,0.0400,0.039865,0.5108,0.0678,0.1201
0.7750,0.024576,0.251651,0.117207,-2.362719,-0.362070,2.627322,-1.898936,0.024799,0.224875,0.114633,-2.337954,-0.364587,2.640584,-1.896080,0.024799,0.224875,0.114633,-2.337954,-0.364587,2.640584,-1.896080,0.0400,0.039081,0.5110,0.0677,0.1201
0.7800,0.024588,0.251803,0.116885,-2.362571,-0.362850,2.628437,-1.898346,0.025221,0.226643,0.113976,-2.337726,-0.365902,2.642072,-1.895041,0.025221,0.226643,0.113976,-2.337726,-0.365902,2.642072,-1.895041,0.0400,0.038280,0.5112,0.0677,0.1202
0.7850,0.024626,0.252037,0.116526,-2.362377,-0.363781,2.629719,-1.897649,0.025685,0.228585,0.113254,-2.337475,-0.367347,2.643707,-1.893900,0.025685,0.228585,0.113254,-2.337475,-0.367347,2.643707,-1.893900,0.0400,0.037475,0.5115,0.0676,0.1203
0.7900,0.024691,0.252361,0.116130,-2.362139,-0.364867,2.631173,-1.896835,0.026190,0.230701,0.112468,-2.337202,-0.368922,2.645488,-1.892656,0.026190,0.230701,0.112468,-2.337202,-0.368922,2.645488,-1.892656,0.0400,0.036681,0.5118,0.0675,0.1203
0.7950,0.024786,0.252784,0.115696,-2.361860,-0.366109,2.632801,-1.895898,0.026737,0.232991,0.111617,-2.336906,-0.370625,2.647415,-1.891310,0.026737,0.232991,0.111617,-2.336906,-0.370625,2.647415,-1.891310,0.0400,0.035915,0.5122,0.0675,0.1204
0.8000,0.024912,0.253312,0.115222,-2.361540,-0.367508,2.634604,-1.894831,0.027324,0.235452,0.110703,-2.336589,-0.372457,2.649487,-1.889862,0.027324,0.235452,0.110703,-2.336589,-0.372457,2.649487,-1.889862,0.0400,0.035192,0.5126,0.0675,0.1204
0.8050,0.025073,0.253953,0.114708,-2.361183,-0.369063,2.636580,-1.893632,0.027953,0.238084,0.109725,-2.336249,-0.374415,2.651703,-1.888315,0.027953,0.238084,0.109725,-2.336249,-0.374415,2.651703,-1.888315,0.0400,0.034529,0.5130,0.0674,0.1204
0.8100,0.025268,0.254714,0.114152,-2.360789,-0.370771,2.638728,-1.892303,0.028621,0.240882,0.108686,-2.335888,-0.376497,2.654058,-1.886671,0.028621,0.240882,0.108686,-2.335888,-0.376497,2.654058,-1.886671,0.0400,0.033942,0.5134,0.0674,0.1204
0.8150,0.025501,0.255601,0.113555,-2.360361,-0.372628,2.641042,-1.890843,0.029327,0.243843,0.107586,-2.335506,-0.378700,2.656550,-1.884930,0.029327,0.243843,0.107586,-2.335506,-0.378700,2.656550,-1.884930,0.0400,0.033446,0.5139,0.0674,0.1203
0.8200,0.025770,0.256619,0.112915,-2.359900,-0.374631,2.643518,-1.889258,0.030072,0.246961,0.106427,-2.335104,-0.381020,2.659175,-1.883097,0.030072,0.246961,0.106427,-2.335104,-0.381020,2.659175,-1.883097,0.0400,0.033055,0.5144,0.0674,0.1202
0.8250,0.026079,0.257774,0.112231,-2.359408,-0.376773,2.646150,-1.887553,0.030853,0.250231,0.105212,-2.334682,-0.383453,2.661927,-1.881175,0.030853,0.250231,0.105212,-2.334682,-0.383453,2.661927,-1.881175,0.0400,0.032781,0.5149,0.0675,0.1201
0.8300,0.026427,0.259070,0.111505,-2.358889,-0.379050,2.648930,-1.885733,0.031668,0.253647,0.103943,-2.334241,-0.385995,2.664803,-1.879167,0.031668,0.253647,0.103943,-2.334241,-0.385995,2.664803,-1.879167,0.0400,0.032632,0.5154,0.0675,0.1199
0.8350,0.026814,0.260512,0.110734,-2.358343,-0.381454,2.651852,-1.883805,0.032517,0.257202,0.102622,-2.333782,-0.388640,2.667795,-1.877077,0.032517,0.257202,0.102622,-2.333782,-0.388640,2.667795,-1.877077,0.0400,0.032613,0.5159,0.0676,0.1196
0.8400,0.027241,0.262101,0.109920,-2.357772,-0.383978,2.654905,-1.881777,0.033397,0.260889,0.101253,-2.333306,-0.391383,2.670899,-1.874909,0.033397,0.260889,0.101253,-2.333306,-0.391383,2.670899,-1.874909,0.0400,0.032724,0.5165,0.0676,0.1193
0.8450,0.027708,0.263842,0.109061,-2.357180,-0.386617,2.658083,-1.879657,0.034307,0.264699,0.099837,-2.332814,-0.394218,2.674106,-1.872670,0.034307,0.264699,0.099837,-2.332814,-0.394218,2.674106,-1.872670,0.0400,0.032960,0.5170,0.0677,0.1190
0.8500,0.028214,0.265735,0.108159,-2.356568,-0.389363,2.661375,-1.877452,0.035244,0.268624,0.098379,-2.332308,-0.397139,2.677410,-1.870362,0.035244,0.268624,0.098379,-2.332308,-0.397139,2.677410,-1.870362,0.0400,0.033314,0.5175,0.0678,0.1186
0.8550,0.028759,0.267782,0.107213,-2.355938,-0.392209,2.664773,-1.875169,0.036206,0.272656,0.096881,-2.331788,-0.400138,2.680804,-1.867992,0.036206,0.272656,0.096881,-2.331788,-0.400138,2.680804,-1.867992,0.0400,0.033773,0.5181,0.0679,0.1181
0.8600,0.029341,0.269984,0.106224,-2.355294,-0.395149,2.668266,-1.872816,0.037192,0.276784,0.095347,-2.331255,-0.403210,2.684279,-1.865565,0.037192,0.276784,0.095347,-2.331255,-0.403210,2.684279,-1.865565,0.0400,0.034322,0.5186,0.0680,0.1176
0.8650,0.029961,0.272339,0.105193,-2.354637,-0.398174,2.671845,-1.870400,0.038198,0.280999,0.093782,-2.330711,-0.406346,2.687827,-1.863087,0.038198,0.280999,0.093782,-2.330711,-0.406346,2.687827,-1.863087,0.0400,0.034945,0.5191,0.0681,0.1170
0.8700,0.030617,0.274848,0.104120,-2.353969,-0.401279,2.675501,-1.867926,0.039223,0.285291,0.092187,-2.330157,-0.409540,2.691439,-1.860564,0.039223,0.285291,0.092187,-2.330157,-0.409540,2.691439,-1.860564,0.0400,0.035623,0.5196,0.0682,0.1163
0.8750,0.031307,0.277507,0.103006,-2.353294,-0.404456,2.679223,-1.865402,0.040263,0.289649,0.090568,-2.329595,-0.412782,2.695108,-1.858002,0.040263,0.289649,0.090568,-2.329595,-0.412782,2.695108,-1.858002,0.0400,0.036338,0.5201,0.0683,0.1156
0.8800,0.032030,0.280315,0.101852,-2.352614,-0.407697,2.683003,-1.862834,0.041317,0.294063,0.088928,-2.329025,-0.416067,2.698823,-1.855408,0.041317,0.294063,0.088928,-2.329025,-0.416067,2.698823,-1.855408,0.0400,0.037070,0.5206,0.0684,0.1148
0.8850,0.032785,0.283269,0.100661,-2.351930,-0.410996,2.686830,-1.860226,0.042381,0.298522,0.087272,-2.328450,-0.419384,2.702577,-1.852787,0.042381,0.298522,0.087272,-2.328450,-0.419384,2.702577,-1.852787,0.0400,0.037802,0.5210,0.0686,0.1139
0.8900,0.033569,0.286364,0.099432,-2.351246,-0.414345,2.690695,-1.857585,0.043454,0.303014,0.085602,-2.327870,-0.422727,2.706358,-1.850146,0.043454,0.303014,0.085602,-2.327870,-0.422727,2.706358,-1.850146,0.0400,0.038517,0.5215,0.0687,0.1129
0.8950,0.034381,0.289597,0.098168,-2.350563,-0.417736,2.694589,-1.854916,0.044532,0.307529,0.083925,-2.327287,-0.426086,2.710159,-1.847491,0.044532,0.307529,0.083925,-2.327287,-0.426086,2.710159,-1.847491,0.0400,0.039198,0.5218,0.0688,0.1119
0.9000,0.035219,0.292962,0.096871,-2.349884,-0.421162,2.698502,-1.852225,0.045612,0.312056,0.082243,-2.326703,-0.429454,2.713969,-1.844830,0.045612,0.312056,0.082243,-2.326703,-0.429454,2.713969,-1.844830,0.0400,0.039832,0.5222,0.0690,0.1108
0.9050,0.036081,0.296453,0.095543,-2.349211,-0.424615,2.702424,-1.849517,0.046693,0.316582,0.080562,-2.326119,-0.432822,2.717779,-1.842170,0.046693,0.316582,0.080562,-2.326119,-0.432822,2.717779,-1.842170,0.0400,0.040406,0.5225,0.0691,0.1096
0.9100,0.036964,0.300064,0.094185,-2.348546,-0.428086,2.706347,-1.846798,0.047771,0.321097,0.078884,-2.325536,-0.436182,2.721580,-1.839515,0.047771,0.321097,0.078884,-2.325536,-0.436182,2.721580,-1.839515,0.0400,0.040907,0.5228,0.0692,0.1084
0.9150,0.037867,0.303788,0.092801,-2.347892,-0.431567,2.710261,-1.844074,0.048843,0.325590,0.077215,-2.324956,-0.439524,2.725361,-1.836874,0.048843,0.325590,0.077215,-2.324956,-0.439524,2.725361,-1.836874,0.0400,0.041327,0.5231,0.0693,0.1071
0.9200,0.038787,0.307618,0.091392,-2.347249,-0.435050,2.714156,-1.841352,0.049908,0.330049,0.075559,-2.324381,-0.442842,2.729114,-1.834253,0.049908,0.330049,0.075559,-2.324381,-0.442842,2.729114,-1.834253,0.0400,0.041657,0.5233,0.0694,0.1057
0.9250,0.039721,0.311545,0.089961,-2.346619,-0.438525,2.718024,-1.838636,0.050962,0.334463,0.073919,-2.323811,-0.446126,2.732830,-1.831659,0.050962,0.334463,0.073919,-2.323811,-0.446126,2.732830,-1.831659,0.0400,0.041890,0.5234,0.0696,0.1043
0.9300,0.040669,0.315562,0.088511,-2.346006,-0.441985,2.721855,-1.835934,0.052002,0.338821,0.072300,-2.323249,-0.449369,2.736498,-1.829097,0.052002,0.338821,0.072300,-2.323249,-0.449369,2.736498,-1.829097,0.0400,0.042021,0.5236,0.0697,0.1028
0.9350,0.041626,0.319659,0.087045,-2.345409,-0.445421,2.725640,-1.833253,0.053027,0.343113,0.070705,-2.322695,-0.452562,2.740111,-1.826574,0.053027,0.343113,0.070705,-2.322695,-0.452562,2.740111,-1.826574,0.0400,0.042047,0.5237,0.0698,0.1012
0.9400,0.042591,0.323827,0.085566,-2.344831,-0.448823,2.729371,-1.830599,0.054033,0.347328,0.069139,-2.322151,-0.455698,2.743659,-1.824096,0.054033,0.347328,0.069139,-2.322151,-0.455698,2.743659,-1.824096,0.0400,0.041966,0.5237,0.0698,0.0996
0.9450,0.043561,0.328057,0.084077,-2.344273,-0.452184,2.733037,-1.827978,0.055019,0.351456,0.067606,-2.321618,-0.458770,2.747134,-1.821669,0.055019,0.351456,0.067606,-2.321618,-0.458770,2.747134,-1.821669,0.0400,0.041775,0.5237,0.0699,0.0979
0.9500,0.044534,0.332339,0.082581,-2.343736,-0.455494,2.736632,-1.825397,0.055981,0.355487,0.066108,-2.321098,-0.461769,2.750528,-1.819299,0.055981,0.355487,0.066108,-2.321098,-0.461769,2.750528,-1.819299,0.0400,0.041477,0.5237,0.0700,0.0962
0.9550,0.045508,0.336662,0.081081,-2.343221,-0.458746,2.740145,-1.822863,0.056918,0.359413,0.064650,-2.320592,-0.464690,2.753832,-1.816991,0.056918,0.359413,0.064650,-2.320592,-0.464690,2.753832,-1.816991,0.0400,0.041073,0.5236,0.0701,0.0945
0.9600,0.046480,0.341017,0.079581,-2.342730,-0.461930,2.743570,-1.820382,0.057828,0.363223,0.063234,-2.320100,-0.467525,2.757039,-1.814752,0.057828,0.363223,0.063234,-2.320100,-0.467525,2.757039,-1.814752,0.0400,0.040567,0.5234,0.0701,0.0927
0.9650,0.047447,0.345392,0.078084,-2.342263,-0.465040,2.746898,-1.817961,0.058708,0.366910,0.061864,-2.319624,-0.470268,2.760142,-1.812584,0.058708,0.366910,0.061864,-2.319624,-0.470268,2.760142,-1.812584,0.0400,0.039963,0.5233,0.0701,0.0908
0.9700,0.048409,0.349777,0.076593,-2.341821,-0.468067,2.750122,-1.815606,0.059557,0.370465,0.060544,-2.319165,-0.472914,2.763135,-1.810494,0.059557,0.370465,0.060544,-2.319165,-0.472914,2.763135,-1.810494,0.0400,0.039270,0.5230,0.0702,0.0890
0.9750,0.049361,0.354161,0.075112,-2.341405,-0.471005,2.753233,-1.813322,0.060372,0.373881,0.059274,-2.318725,-0.475455,2.766010,-1.808486,0.060372,0.373881,0.059274,-2.318725,-0.475455,2.766010,-1.808486,0.0400,0.038494,0.5228,0.0702,0.0871
0.9800,0.050302,0.358534,0.073644,-2.341015,-0.473846,2.756227,-1.811116,0.061153,0.377151,0.058060,-2.318302,-0.477889,2.768763,-1.806564,0.061153,0.377151,0.058060,-2.318302,-0.477889,2.768763,-1.806564,0.0400,0.037647,0.5225,0.0702,0.0852
0.9850,0.051231,0.362885,0.072192,-2.340652,-0.476584,2.759096,-1.808991,0.061897,0.380269,0.056901,-2.317900,-0.480209,2.771388,-1.804731,0.061897,0.380269,0.056901,-2.317900,-0.480209,2.771388,-1.804731,0.0400,0.036740,0.5221,0.0702,0.0833
0.9900,0.052144,0.367203,0.070759,-2.340317,-0.479213,2.761834,-1.806953,0.062604,0.383230,0.055801,-2.317518,-0.482411,2.773880,-1.802990,0.062604,0.383230,0.055801,-2.317518,-0.482411,2.773880,-1.802990,0.0400,0.035789,0.5217,0.0701,0.0814
0.9950,0.053039,0.371477,0.069349,-2.340008,-0.481727,2.764436,-1.805007,0.063272,0.386028,0.054762,-2.317157,-0.484493,2.776235,-1.801346,0.063272,0.386028,0.054762,-2.317157,-0.484493,2.776235,-1.801346,0.0400,0.034809,0.5213,0.0701,0.0795
1.0000,0.053916,0.375697,0.067965,-2.339727,-0.484121,2.766898,-1.803155,0.063900,0.388659,0.053784,-2.316817,-0.486451,2.778450,-1.799799,0.063900,0.388659,0.053784,-2.316817,-0.486451,2.778450,-1.799799,0.0400,0.033820,0.5209,0.0700,0.0775
1.0050,0.054771,0.379853,0.066610,-2.339473,-0.486391,2.769216,-1.801402,0.064488,0.391121,0.052869,-2.316500,-0.488283,2.780523,-1.798351,0.064488,0.391121,0.052869,-2.316500,-0.488283,2.780523,-1.798351,0.0400,0.032843,0.5204,0.0700,0.0756
1.0100,0.055604,0.383935,0.065286,-2.339246,-0.488533,2.771385,-1.799750,0.065035,0.393411,0.052019,-2.316204,-0.489987,2.782450,-1.797005,0.065035,0.393411,0.052019,-2.316204,-0.489987,2.782450,-1.797005,0.0400,0.031902,0.5198,0.0699,0.0737
1.0150,0.056412,0.387933,0.063996,-2.339046,-0.490544,2.773405,-1.798202,0.065540,0.395527,0.051233,-2.315931,-0.491561,2.784231,-1.795761,0.065540,0.395527,0.051233,-2.315931,-0.491561,2.784231,-1.795761,0.0400,0.031023,0.5193,0.0698,0.0718
1.0200,0.057194,0.391839,0.062744,-2.338872,-0.492420,2.775271,-1.796760,0.066004,0.397469,0.050511,-2.315680,-0.493006,2.785866,-1.794620,0.066004,0.397469,0.050511,-2.315680,-0.493006,2.785866,-1.794620,0.0400,0.030232,0.5187,0.0697,0.0700
1.0250,0.057949,0.395642,0.061530,-2.338724,-0.494160,2.776984,-1.795425,0.066426,0.399237,0.049854,-2.315452,-0.494321,2.787354,-1.793581,0.066426,0.399237,0.049854,-2.315452,-0.494321,2.787354,-1.793581,0.0400,0.029558,0.5181,0.0695,0.0681
1.0300,0.058675,0.399336,0.060359,-2.338601,-0.495763,2.778543,-1.794198,0.066807,0.400832,0.049262,-2.315246,-0.495509,2.788697,-1.792643,0.066807,0.400832,0.049262,-2.315246,-0.495509,2.788697,-1.792643,0.0400,0.029027,0.5175,0.0694,0.0663
1.0350,0.059371,0.402911,0.059231,-2.338502,-0.497226,2.779947,-1.793079,0.067147,0.402258,0.048732,-2.315062,-0.496570,2.789897,-1.791804,0.067147,0.402258,0.048732,-2.315062,-0.496570,2.789897,-1.791804,0.0400,0.028663,0.5169,0.0692,0.0646
1.0400,0.060036,0.406361,0.058148,-2.338426,-0.498551,2.781200,-1.792069,0.067448,0.403518,0.048264,-2.314900,-0.497507,2.790957,-1.791064,0.067448,0.403518,0.048264,-2.314900,-0.497507,2.790957,-1.791064,0.0400,0.028487,0.5162,0.0691,0.0628
1.0450,0.060669,0.409679,0.057112,-2.338372,-0.499738,2.782302,-1.791165,0.067710,0.404616,0.047856,-2.314758,-0.498324,2.791882,-1.790419,0.067710,0.404616,0.047856,-2.314758,-0.498324,2.791882,-1.790419,0.0400,0.028510,0.5156,0.0689,0.0612
1.0500,0.061270,0.412858,0.056125,-2.338338,-0.500789,2.783256,-1.790367,0.067935,0.405558,0.047506,-2.314637,-0.499025,2.792675,-1.789865,0.067935,0.405558,0.047506,-2.314637,-0.499025,2.792675,-1.789865,0.0400,0.028738,0.5149,0.0687,0.0595
1.0550,0.061837,0.415895,0.055186,-2.338324,-0.501705,2.784067,-1.789673,0.068124,0.406352,0.047211,-2.314534,-0.499615,2.793343,-1.789398,0.068124,0.406352,0.047211,-2.314534,-0.499615,2.793343,-1.789398,0.0400,0.029166,0.5142,0.0686,0.0580
1.0600,0.062371,0.418783,0.054298,-2.338327,-0.502490,2.784739,-1.789079,0.068280,0.407005,0.046968,-2.314450,-0.500102,2.793893,-1.789014,0.068280,0.407005,0.046968,-2.314450,-0.500102,2.793893,-1.789014,0.0400,0.029782,0.5136,0.0684,0.0565
1.0650,0.062872,0.421518,0.053460,-2.338345,-0.503148,2.785278,-1.788582,0.068405,0.407529,0.046774,-2.314382,-0.500491,2.794334,-1.788706,0.068405,0.407529,0.046774,-2.314382,-0.500491,2.794334,-1.788706,0.0400,0.030567,0.5129,0.0682,0.0550
1.0700,0.063340,0.424100,0.052673,-2.338378,-0.503685,2.785692,-1.788179,0.068502,0.407933,0.046624,-2.314330,-0.500792,2.794674,-1.788468,0.068502,0.407933,0.046624,-2.314330,-0.500792,2.794674,-1.788468,0.0400,0.031497,0.5122,0.0679,0.0536
1.0750,0.063774,0.426524,0.051936,-2.338423,-0.504104,2.785988,-1.787863,0.068573,0.408231,0.046513,-2.314292,-0.501013,2.794925,-1.788293,0.068573,0.408231,0.046513,-2.314292,-0.501013,2.794925,-1.788293,0.0400,0.032543,0.5116,0.0677,0.0523
1.0800,0.064175,0.428789,0.051249,-2.338478,-0.504415,2.786174,-1.787630,0.068622,0.408435,0.046437,-2.314265,-0.501166,2.795097,-1.788173,0.068622,0.408435,0.046437,-2.314265,-0.501166,2.795097,-1.788173,0.0400,0.033674,0.5110,0.0675,0.0511
1.0850,0.064545,0.430897,0.050611,-2.338540,-0.504624,2.786262,-1.787472,0.068652,0.408563,0.046390,-2.314249,-0.501261,2.795204,-1.788098,0.068652,0.408563,0.046390,-2.314249,-0.501261,2.795204,-1.788098,0.0400,0.034860,0.5103,0.0673,0.0499
1.0900,0.064883,0.432847,0.050020,-2.338607,-0.504740,2.786263,-1.787384,0.068668,0.408630,0.046365,-2.314240,-0.501311,2.795261,-1.788059,0.068668,0.408630,0.046365,-2.314240,-0.501311,2.795261,-1.788059,0.0400,0.036071,0.5097,0.0671,0.0488
1.0950,0.065192,0.434642,0.049475,-2.338677,-0.504774,2.786189,-1.787355,0.068674,0.408655,0.046355,-2.314237,-0.501330,2.795282,-1.788044,0.068674,0.408655,0.046355,-2.314237,-0.501330,2.795282,-1.788044,0.0400,0.037276,0.5092,0.0669,0.0478
1.1000,0.065473,0.436284,0.048974,-2.338747,-0.504737,2.786054,-1.787377,0.068675,0.408659,0.046354,-2.314236,-0.501332,2.795285,-1.788041,0.068675,0.408659,0.046354,-2.314236,-0.501332,2.795285,-1.788041,0.0400,0.038448,0.5086,0.0667,0.0468
1.1050,0.065727,0.437778,0.048513,-2.338814,-0.504641,2.785873,-1.787441,0.068675,0.408660,0.046353,-2.314236,-0.501333,2.795286,-1.788041,0.068675,0.408660,0.046353,-2.314236,-0.501333,2.795286,-1.788041,0.0400,0.039562,0.5081,0.0665,0.0459
1.1100,0.065957,0.439130,0.048091,-2.338874,-0.504499,2.785661,-1.787536,0.068678,0.408667,0.046350,-2.314234,-0.501337,2.795291,-1.788037,0.068678,0.408667,0.046350,-2.314234,-0.501337,2.795291,-1.788037,0.0400,0.040602,0.5076,0.0663,0.0451
1.1150,0.066164,0.440345,0.047703,-2.338926,-0.504326,2.785436,-1.787649,0.068685,0.408687,0.046341,-2.314228,-0.501347,2.795304,-1.788026,0.068685,0.408687,0.046341,-2.314228,-0.501347,2.795304,-1.788026,0.0400,0.041555,0.5072,0.0661,0.0444
1.1200,0.066352,0.441431,0.047348,-2.338966,-0.504134,2.785215,-1.787771,0.068699,0.408723,0.046323,-2.314216,-0.501366,2.795330,-1.788006,0.068699,0.408723,0.046323,-2.314216,-0.501366,2.795330,-1.788006,0.0400,0.042414,0.5068,0.0659,0.0437
1.1250,0.066521,0.442395,0.047020,-2.338991,-0.503938,2.785012,-1.787891,0.068721,0.408782,0.046295,-2.314197,-0.501398,2.795371,-1.787973,0.068721,0.408782,0.046295,-2.314197,-0.501398,2.795371,-1.787973,0.0400,0.043171,0.5064,0.0658,0.0431
1.1300,0.066675,0.443247,0.046718,-2.338999,-0.503750,2.784842,-1.788000,0.068752,0.408869,0.046253,-2.314170,-0.501443,2.795431,-1.787925,0.068752,0.408869,0.046253,-2.314170,-0.501443,2.795431,-1.787925,0.0400,0.043822,0.5061,0.0656,0.0426
1.1350,0.066815,0.443993,0.046439,-2.338988,-0.503578,2.784716,-1.788089,0.068796,0.408987,0.046197,-2.314132,-0.501506,2.795513,-1.787859,0.068796,0.408987,0.046197,-2.314132,-0.501506,2.795513,-1.787859,0.0400,0.044364,0.5058,0.0655,0.0422
1.1400,0.066944,0.444644,0.046179,-2.338955,-0.503433,2.784646,-1.788153,0.068853,0.409141,0.046123,-2.314083,-0.501587,2.795620,-1.787773,0.068853,0.409141,0.046123,-2.314083,-0.501587,2.795620,-1.787773,0.0400,0.044796,0.5056,0.0654,0.0418
1.1450,0.067065,0.445206,0.045935,-2.338899,-0.503321,2.784639,-1.788186,0.068924,0.409334,0.046030,-2.314021,-0.501690,2.795754,-1.787665,0.068924,0.409334,0.046030,-2.314021,-0.501690,2.795754,-1.787665,0.0400,0.045118,0.5054,0.0652,0.0415
1.1500,0.067178,0.445690,0.045707,-2.338818,-0.503247,2.784700,-1.788184,0.069011,0.409570,0.045917,-2.313946,-0.501815,2.795918,-1.787533,0.069011,0.409570,0.045917,-2.313946,-0.501815,2.795918,-1.787533,0.0400,0.045332,0.5053,0.0652,0.0412
1.1550,0.067287,0.446104,0.045489,-2.338712,-0.503215,2.784834,-1.788145,0.069115,0.409852,0.045781,-2.313856,-0.501964,2.796114,-1.787376,0.069115,0.409852,0.045781,-2.313856,-0.501964,2.796114,-1.787376,0.0400,0.045440,0.5052,0.0651,0.0410
1.1600,0.067394,0.446456,0.045282,-2.338578,-0.503226,2.785042,-1.788067,0.069237,0.410183,0.045623,-2.313751,-0.502139,2.796344,-1.787191,0.069237,0.410183,0.045623,-2.313751,-0.502139,2.796344,-1.787191,0.0400,0.045446,0.5052,0.0650,0.0408
1.1650,0.067500,0.446756,0.045081,-2.338417,-0.503282,2.785323,-1.787950,0.069377,0.410565,0.045440,-2.313630,-0.502341,2.796609,-1.786978,0.069377,0.410565,0.045440,-2.313630,-0.502341,2.796609,-1.786978,0.0400,0.045355,0.5052,0.0650,0.0407
1.1700,0.067609,0.447010,0.044886,-2.338228,-0.503382,2.785675,-1.787795,0.069538,0.411000,0.045231,-2.313491,-0.502572,2.796912,-1.786735,0.069538,0.411000,0.045231,-2.313491,-0.502572,2.796912,-1.786735,0.0400,0.045173,0.5053,0.0650,0.0406
1.1750,0.067721,0.447228,0.044693,-2.338011,-0.503525,2.786095,-1.787601,0.069719,0.411491,0.044995,-2.313335,-0.502832,2.797253,-1.786462,0.069719,0.411491,0.044995,-2.313335,-0.502832,2.797253,-1.786462,0.0400,0.044905,0.5054,0.0650,0.0405
1.1800,0.067838,0.447417,0.044502,-2.337767,-0.503710,2.786580,-1.787371,0.069920,0.412038,0.044733,-2.313160,-0.503122,2.797633,-1.786156,0.069920,0.412038,0.044733,-2.313160,-0.503122,2.797633,-1.786156,0.0400,0.044559,0.5055,0.0650,0.0405
1.1850,0.067963,0.447586,0.044310,-2.337494,-0.503933,2.787124,-1.787105,0.070144,0.412644,0.044442,-2.312967,-0.503443,2.798054,-1.785818,0.070144,0.412644,0.044442,-2.312967,-0.503443,2.798054,-1.785818,0.0400,0.044143,0.5057,0.0650,0.0405
1.1900,0.068097,0.447740,0.044115,-2.337195,-0.504194,2.787723,-1.786804,0.070389,0.413310,0.044123,-2.312755,-0.503795,2.798516,-1.785447,0.070389,0.413310,0.044123,-2.312755,-0.503795,2.798516,-1.785447,0.0400,0.043664,0.5059,0.0650,0.0406
1.1950,0.068242,0.447888,0.043915,-2.336869,-0.504489,2.788371,-1.786471,0.070656,0.414035,0.043774,-2.312524,-0.504179,2.799021,-1.785042,0.070656,0.414035,0.043774,-2.312524,-0.504179,2.799021,-1.785042,0.0400,0.043129,0.5061,0.0651,0.0406
1.2000,0.068398,0.448037,0.043709,-2.336518,-0.504817,2.789063,-1.786105,0.070946,0.414822,0.043397,-2.312274,-0.504596,2.799567,-1.784603,0.070946,0.414822,0.043397,-2.312274,-0.504596,2.799567,-1.784603,0.0400,0.042547,0.5063,0.0651,0.0407
1.2050,0.068568,0.448193,0.043495,-2.336142,-0.505177,2.789796,-1.785707,0.071259,0.415670,0.042990,-2.312004,-0.505045,2.800156,-1.784130,0.071259,0.415670,0.042990,-2.312004,-0.505045,2.800156,-1.784130,0.0400,0.041926,0.5066,0.0652,0.0408
1.2100,0.068751,0.448362,0.043271,-2.335744,-0.505567,2.790564,-1.785278,0.071594,0.416579,0.042554,-2.311714,-0.505526,2.800788,-1.783623,0.071594,0.416579,0.042554,-2.311714,-0.505526,2.800788,-1.783623,0.0400,0.041273,0.5069,0.0653,0.0409
1.2150,0.068950,0.448550,0.043035,-2.335324,-0.505986,2.791365,-1.784818,0.071952,0.417549,0.042088,-2.311405,-0.506040,2.801462,-1.783081,0.071952,0.417549,0.042088,-2.311405,-0.506040,2.801462,-1.783081,0.0400,0.040596,0.5072,0.0653,0.0410
1.2200,0.069164,0.448763,0.042787,-2.334883,-0.506433,2.792195,-1.784326,0.072332,0.418581,0.041594,-2.311077,-0.506586,2.802179,-1.782506,0.072332,0.418581,0.041594,-2.311077,-0.506586,2.802179,-1.782506,0.0400,0.039902,0.5075,0.0654,0.0410
1.2250,0.069395,0.449007,0.042524,-2.334423,-0.506909,2.793053,-1.783804,0.072734,0.419673,0.041070,-2.310729,-0.507165,2.802938,-1.781896,0.072734,0.419673,0.041070,-2.310729,-0.507165,2.802938,-1.781896,0.0400,0.039199,0.5078,0.0655,0.0411
1.2300,0.069643,0.449286,0.042245,-2.333946,-0.507414,2.793937,-1.783249,0.073159,0.420825,0.040517,-2.310362,-0.507775,2.803738,-1.781254,0.073159,0.420825,0.040517,-2.310362,-0.507775,2.803738,-1.781254,0.0400,0.038494,0.5081,0.0656,0.0412
1.2350,0.069909,0.449605,0.041949,-2.333453,-0.507948,2.794845,-1.782663,0.073605,0.422036,0.039936,-2.309976,-0.508416,2.804579,-1.780578,0.073605,0.422036,0.039936,-2.309976,-0.508416,2.804579,-1.780578,0.0400,0.037792,0.5084,0.0657,0.0413
1.2400,0.070192,0.449968,0.041635,-2.332945,-0.508511,2.795777,-1.782044,0.074073,0.423305,0.039327,-2.309572,-0.509088,2.805461,-1.779870,0.074073,0.423305,0.039327,-2.309572,-0.509088,2.805461,-1.779870,0.0400,0.037100,0.5088,0.0658,0.0413
1.2450,0.070494,0.450378,0.041301,-2.332424,-0.509104,2.796734,-1.781393,0.074561,0.424630,0.038691,-2.309150,-0.509790,2.806382,-1.779131,0.074561,0.424630,0.038691,-2.309150,-0.509790,2.806382,-1.779131,0.0400,0.036424,0.5091,0.0659,0.0414
1.2500,0.070814,0.450840,0.040947,-2.331892,-0.509729,2.797714,-1.780708,0.075070,0.426011,0.038029,-2.308711,-0.510521,2.807341,-1.778360,0.075070,0.426011,0.038029,-2.308711,-0.510521,2.807341,-1.778360,0.0400,0.035768,0.5094,0.0660,0.0414
1.2550,0.071152,0.451357,0.040572,-2.331349,-0.510384,2.798719,-1.779991,0.075599,0.427445,0.037341,-2.308254,-0.511280,2.808337,-1.777560,0.075599,0.427445,0.037341,-2.308254,-0.511280,2.808337,-1.777560,0.0400,0.035137,0.5097,0.0661,0.0414
1.2600,0.071509,0.451930,0.040174,-2.330796,-0.511071,2.799748,-1.779241,0.076146,0.428931,0.036628,-2.307781,-0.512067,2.809370,-1.776731,0.076146,0.428931,0.036628,-2.307781,-0.512067,2.809370,-1.776731,0.0400,0.034535,0.5100,0.0662,0.0414
1.2650,0.071884,0.452563,0.039754,-2.330236,-0.511790,2.800803,-1.778459,0.076713,0.430467,0.035891,-2.307291,-0.512881,2.810437,-1.775874,0.076713,0.430467,0.035891,-2.307291,-0.512881,2.810437,-1.775874,0.0400,0.033966,0.5103,0.0663,0.0413
1.2700,0.072277,0.453258,0.039311,-2.329669,-0.512541,2.801883,-1.777646,0.077296,0.432051,0.035131,-2.306787,-0.513720,2.811537,-1.774990,0.077296,0.432051,0.035131,-2.306787,-0.513720,2.811537,-1.774990,0.0400,0.033431,0.5106,0.0665,0.0413
1.2750,0.072688,0.454015,0.038844,-2.329096,-0.513323,2.802989,-1.776801,0.077897,0.433681,0.034349,-2.306268,-0.514583,2.812670,-1.774081,0.077897,0.433681,0.034349,-2.306268,-0.514583,2.812670,-1.774081,0.0400,0.032934,0.5109,0.0666,0.0411
1.2800,0.073117,0.454836,0.038354,-2.328518,-0.514136,2.804120,-1.775927,0.078514,0.435354,0.033546,-2.305735,-0.515469,2.813832,-1.773147,0.078514,0.435354,0.033546,-2.305735,-0.515469,2.813832,-1.773147,0.0400,0.032476,0.5112,0.0667,0.0410
1.2850,0.073563,0.455722,0.037840,-2.327935,-0.514979,2.805278,-1.775024,0.079146,0.437069,0.032723,-2.305189,-0.516377,2.815024,-1.772191,0.079146,0.437069,0.032723,-2.305189,-0.516377,2.815024,-1.772191,0.0400,0.032057,0.5115,0.0668,0.0409
1.2900,0.074027,0.456673,0.037302,-2.327350,-0.515851,2.806460,-1.774094,0.079792,0.438822,0.031882,-2.304631,-0.517305,2.816242,-1.771212,0.079792,0.438822,0.031882,-2.304631,-0.517305,2.816242,-1.771212,0.0400,0.031678,0.5117,0.0669,0.0407
1.2950,0.074507,0.457690,0.036740,-2.326761,-0.516751,2.807668,-1.773138,0.080451,0.440611,0.031024,-2.304061,-0.518253,2.817485,-1.770214,0.080451,0.440611,0.031024,-2.304061,-0.518253,2.817485,-1.770214,0.0400,0.031340,0.5119,0.0670,0.0404
1.3000,0.075004,0.458771,0.036155,-2.326171,-0.517678,2.808898,-1.772158,0.081123,0.442434,0.030149,-2.303480,-0.519218,2.818751,-1.769197,0.081123,0.442434,0.030149,-2.303480,-0.519218,2.818751,-1.769197,0.0400,0.031040,0.5122,0.0670,0.0402
1.3050,0.075517,0.459917,0.035547,-2.325578,-0.518629,2.810151,-1.771156,0.081806,0.444288,0.029260,-2.302890,-0.520200,2.820039,-1.768163,0.081806,0.444288,0.029260,-2.302890,-0.520200,2.820039,-1.768163,0.0400,0.030779,0.5124,0.0671,0.0399
1.3100,0.076045,0.461128,0.034916,-2.324985,-0.519603,2.811425,-1.770133,0.082500,0.446169,0.028357,-2.302291,-0.521196,2.821346,-1.767113,0.082500,0.446169,0.028357,-2.302291,-0.521196,2.821346,-1.767113,0.0400,0.030554,0.5126,0.0672,0.0396
1.3150,0.076588,0.462400,0.034263,-2.324390,-0.520598,2.812718,-1.769091,0.083202,0.448075,0.027443,-2.301684,-0.522205,2.822670,-1.766050,0.083202,0.448075,0.027443,-2.301684,-0.522205,2.822670,-1.766050,0.0400,0.030363,0.5127,0.0673,0.0392
1.3200,0.077145,0.463734,0.033589,-2.323796,-0.521611,2.814029,-1.768031,0.083913,0.450003,0.026518,-2.301070,-0.523226,2.824010,-1.764974,0.083913,0.450003,0.026518,-2.301070,-0.523226,2.824010,-1.764974,0.0400,0.030206,0.5129,0.0674,0.0389
1.3250,0.077716,0.465128,0.032894,-2.323201,-0.522642,2.815355,-1.766957,0.084630,0.451950,0.025584,-2.300450,-0.524257,2.825363,-1.763888,0.084630,0.451950,0.025584,-2.300450,-0.524257,2.825363,-1.763888,0.0400,0.030078,0.5131,0.0674,0.0385
1.3300,0.078300,0.466579,0.032178,-2.322607,-0.523687,2.816694,-1.765869,0.085354,0.453912,0.024642,-2.299825,-0.525297,2.826726,-1.762793,0.085354,0.453912,0.024642,-2.299825,-0.525297,2.826726,-1.762793,0.0400,0.029979,0.5132,0.0675,0.0380
1.3350,0.078896,0.468086,0.031444,-2.322013,-0.524744,2.818045,-1.764770,0.086082,0.455888,0.023695,-2.299196,-0.526343,2.828099,-1.761691,0.086082,0.455888,0.023695,-2.299196,-0.526343,2.828099,-1.761691,0.0400,0.029904,0.5133,0.0676,0.0375
1.3400,0.079504,0.469647,0.030692,-2.321421,-0.525813,2.819405,-1.763661,0.086813,0.457872,0.022742,-2.298564,-0.527394,2.829478,-1.760583,0.086813,0.457872,0.022742,-2.298564,-0.527394,2.829478,-1.760583,0.0400,0.029852,0.5134,0.0676,0.0370
1.3450,0.080123,0.471259,0.029922,-2.320829,-0.526889,2.820771,-1.762543,0.087547,0.459864,0.021787,-2.297930,-0.528448,2.830861,-1.759472,0.087547,0.459864,0.021787,-2.297930,-0.528448,2.830861,-1.759472,0.0400,0.029820,0.5135,0.0677,0.0365
1.3500,0.080752,0.472919,0.029136,-2.320239,-0.527972,2.822141,-1.761420,0.088282,0.461858,0.020830,-2.297294,-0.529505,2.832247,-1.758360,0.088282,0.461858,0.020830,-2.297294,-0.529505,2.832247,-1.758360,0.0400,0.029805,0.5136,0.0677,0.0360
1.3550,0.081391,0.474625,0.028336,-2.319651,-0.529060,2.823515,-1.760291,0.089017,0.463853,0.019873,-2.296659,-0.530561,2.833632,-1.757247,0.089017,0.463853,0.019873,-2.296659,-0.530561,2.833632,-1.757247,0.0400,0.029805,0.5136,0.0678,0.0354
1.3600,0.082037,0.476373,0.027521,-2.319064,-0.530150,2.824888,-1.759160,0.089751,0.465844,0.018918,-2.296025,-0.531615,2.835016,-1.756136,0.089751,0.465844,0.018918,-2.296025,-0.531615,2.835016,-1.756136,0.0400,0.029817,0.5137,0.0678,0.0348
1.3650,0.082692,0.478162,0.026693,-2.318480,-0.531240,2.826259,-1.758028,0.090483,0.467829,0.017965,-2.295393,-0.532666,2.836395,-1.755029,0.090483,0.467829,0.017965,-2.295393,-0.532666,2.836395,-1.755029,0.0400,0.029840,0.5137,0.0679,0.0342
1.3700,0.083353,0.479987,0.025854,-2.317899,-0.532330,2.827626,-1.756897,0.091211,0.469804,0.017018,-2.294764,-0.533712,2.837767,-1.753926,0.091211,0.469804,0.017018,-2.294764,-0.533712,2.837767,-1.753926,0.0400,0.029872,0.5137,0.0679,0.0335
1.3750,0.084020,0.481845,0.025005,-2.317321,-0.533417,2.828986,-1.755768,0.091934,0.471767,0.016076,-2.294139,-0.534752,2.839131,-1.752831,0.091934,0.471767,0.016076,-2.294139,-0.534752,2.839131,-1.752831,0.0400,0.029911,0.5137,0.0679,0.0329
1.3800,0.084691,0.483734,0.024146,-2.316746,-0.534500,2.830339,-1.754643,0.092652,0.473713,0.015142,-2.293519,-0.535783,2.840484,-1.751745,0.092652,0.473713,0.015142,-2.293519,-0.535783,2.840484,-1.751745,0.0400,0.029955,0.5137,0.0679,0.0322
1.3850,0.085367,0.485649,0.023280,-2.316174,-0.535576,2.831681,-1.753524,0.093362,0.475641,0.014217,-2.292905,-0.536804,2.841823,-1.750669,0.093362,0.475641,0.014217,-2.292905,-0.536804,2.841823,-1.750669,0.0400,0.030003,0.5137,0.0680,0.0315
1.3900,0.086045,0.487588,0.022408,-2.315607,-0.536645,2.833012,-1.752413,0.094065,0.477547,0.013303,-2.292298,-0.537813,2.843147,-1.749606,0.094065,0.477547,0.013303,-2.292298,-0.537813,2.843147,-1.749606,0.0400,0.030055,0.5136,0.0680,0.0307
1.3950,0.086726,0.489547,0.021530,-2.315044,-0.537704,2.834328,-1.751311,0.094758,0.479429,0.012400,-2.291699,-0.538809,2.844454,-1.748556,0.094758,0.479429,0.012400,-2.291699,-0.538809,2.844454,-1.748556,0.0400,0.030110,0.5136,0.0680,0.0300
1.4000,0.087408,0.491522,0.020649,-2.314485,-0.538753,2.835629,-1.750221,0.095441,0.481282,0.011511,-2.291109,-0.539791,2.845742,-1.747522,0.095441,0.481282,0.011511,-2.291109,-0.539791,2.845742,-1.747522,0.0400,0.030166,0.5135,0.0680,0.0293
1.4050,0.088089,0.493510,0.019766,-2.313932,-0.539789,2.836913,-1.749143,0.096113,0.483105,0.010636,-2.290528,-0.540756,2.847009,-1.746505,0.096113,0.483105,0.010636,-2.290528,-0.540756,2.847009,-1.746505,0.0400,0.030225,0.5134,0.0680,0.0285
1.4100,0.088770,0.495507,0.018882,-2.313385,-0.540811,2.838177,-1.748080,0.096772,0.484894,0.009778,-2.289958,-0.541704,2.848252,-1.745507,0.096772,0.484894,0.009778,-2.289958,-0.541704,2.848252,-1.745507,0.0400,0.030286,0.5133,0.0680,0.0277
1.4150,0.089449,0.497510,0.017998,-2.312843,-0.541817,2.839420,-1.747032,0.097419,0.486647,0.008937,-2.289400,-0.542632,2.849470,-1.744529,0.097419,0.486647,0.008937,-2.289400,-0.542632,2.849470,-1.744529,0.0400,0.030350,0.5132,0.0679,0.0270
1.4200,0.090125,0.499515,0.017117,-2.312308,-0.542807,2.840641,-1.746003,0.098051,0.488362,0.008114,-2.288854,-0.543540,2.850661,-1.743572,0.098051,0.488362,0.008114,-2.288854,-0.543540,2.850661,-1.743572,0.0400,0.030417,0.5131,0.0679,0.0262
1.4250,0.090797,0.501519,0.016238,-2.311780,-0.543778,2.841838,-1.744993,0.098667,0.490035,0.007311,-2.288321,-0.544426,2.851824,-1.742638,0.098667,0.490035,0.007311,-2.288321,-0.544426,2.851824,-1.742638,0.0400,0.030488,0.5130,0.0679,0.0254
1.4300,0.091464,0.503518,0.015365,-2.311259,-0.544729,2.843008,-1.744004,0.099268,0.491665,0.006529,-2.287802,-0.545289,2.852956,-1.741729,0.099268,0.491665,0.006529,-2.287802,-0.545289,2.852956,-1.741729,0.0400,0.030564,0.5129,0.0679,0.0246
1.4350,0.092126,0.505509,0.014498,-2.310745,-0.545658,2.844152,-1.743038,0.099852,0.493249,0.005769,-2.287297,-0.546128,2.854057,-1.740845,0.099852,0.493249,0.005769,-2.287297,-0.546128,2.854057,-1.740845,0.0400,0.030645,0.5127,0.0678,0.0238
1.4400,0.092781,0.507488,0.013638,-2.310241,-0.546565,2.845266,-1.742095,0.100418,0.494785,0.005032,-2.286808,-0.546942,2.855124,-1.739988,0.100418,0.494785,0.005032,-2.286808,-0.546942,2.855124,-1.739988,0.0400,0.030734,0.5126,0.0678,0.0230
1.4450,0.093428,0.509453,0.012788,-2.309744,-0.547448,2.846349,-1.741178,0.100966,0.496271,0.004319,-2.286335,-0.547729,2.856156,-1.739159,0.100966,0.496271,0.004319,-2.286335,-0.547729,2.856156,-1.739159,0.0400,0.030832,0.5125,0.0678,0.0222
1.4500,0.094067,0.511399,0.011947,-2.309257,-0.548306,2.847401,-1.740288,0.101494,0.497706,0.003631,-2.285878,-0.548488,2.857153,-1.738359,0.101494,0.497706,0.003631,-2.285878,-0.548488,2.857153,-1.738359,0.0400,0.030939,0.5123,0.0677,0.0214
1.4550,0.094697,0.513323,0.011118,-2.308780,-0.549137,2.848419,-1.739425,0.102003,0.499086,0.002969,-2.285439,-0.549219,2.858112,-1.737589,0.102003,0.499086,0.002969,-2.285439,-0.549219,2.858112,-1.737589,0.0400,0.031059,0.5121,0.0677,0.0206
1.4600,0.095316,0.515223,0.010302,-2.308312,-0.549940,2.849402,-1.738591,0.102492,0.500412,0.002333,-2.285016,-0.549921,2.859033,-1.736849,0.102492,0.500412,0.002333,-2.285016,-0.549921,2.859033,-1.736849,0.0400,0.031191,0.5120,0.0676,0.0198
1.4650,0.095924,0.517095,0.009499,-2.307856,-0.550715,2.850350,-1.737788,0.102959,0.501680,0.001724,-2.284612,-0.550593,2.859914,-1.736141,0.102959,0.501680,0.001724,-2.284612,-0.550593,2.859914,-1.736141,0.0400,0.031337,0.5118,0.0676,0.0191
1.4700,0.096520,0.518936,0.008712,-2.307410,-0.551459,2.851260,-1.737016,0.103405,0.502891,0.001143,-2.284227,-0.551234,2.860756,-1.735466,0.103405,0.502891,0.001143,-2.284227,-0.551234,2.860756,-1.735466,0.0400,0.031499,0.5116,0.0675,0.0183
1.4750,0.097104,0.520744,0.007941,-2.306975,-0.552174,2.852132,-1.736275,0.103830,0.504043,0.000591,-2.283860,-0.551844,2.861556,-1.734823,0.103830,0.504043,0.000591,-2.283860,-0.551844,2.861556,-1.734823,0.0400,0.031679,0.5115,0.0675,0.0176
1.4800,0.097674,0.522515,0.007188,-2.306552,-0.552856,2.852964,-1.735568,0.104232,0.505135,0.000067,-2.283512,-0.552423,2.862315,-1.734214,0.104232,0.505135,0.000067,-2.283512,-0.552423,2.862315,-1.734214,0.0400,0.031876,0.5113,0.0674,0.0168
1.4850,0.098194,0.523972,0.006568,-2.306126,-0.553423,2.854378,-1.734932,0.104613,0.506167,-0.000428,-2.283184,-0.552969,2.863031,-1.733638,0.104613,0.506167,-0.000428,-2.283184,-0.552969,2.863031,-1.733638,0.0400,0.031785,0.5111,0.0673,0.0161
1.4900,0.098708,0.525178,0.006035,-2.305718,-0.553938,2.856112,-1.734420,0.104970,0.507137,-0.000894,-2.282875,-0.553483,2.863706,-1.733097,0.104970,0.507137,-0.000894,-2.282875,-0.553483,2.863706,-1.733097,0.0400,0.031530,0.5111,0.0674,0.0156
1.4950,0.099234,0.526185,0.005566,-2.305330,-0.554443,2.857976,-1.734044,0.105306,0.508047,-0.001330,-2.282585,-0.553964,2.864338,-1.732589,0.105306,0.508047,-0.001330,-2.282585,-0.553964,2.864338,-1.732589,0.0400,0.031202,0.5112,0.0676,0.0152
1.5000,0.099774,0.527002,0.005171,-2.304988,-0.554985,2.859845,-1.733842,0.105618,0.508894,-0.001737,-2.282315,-0.554413,2.864927,-1.732116,0.105618,0.508894,-0.001737,-2.282315,-0.554413,2.864927,-1.732116,0.0400,0.030870,0.5114,0.0678,0.0149
1.5050,0.100335,0.527684,0.004828,-2.304662,-0.555568,2.861614,-1.733766,0.105908,0.509681,-0.002114,-2.282064,-0.554830,2.865473,-1.731677,0.105908,0.509681,-0.002114,-2.282064,-0.554830,2.865473,-1.731677,0.0400,0.030558,0.5116,0.0681,0.0148
1.5100,0.100916,0.528270,0.004526,-2.304326,-0.556189,2.863220,-1.733766,0.106175,0.510407,-0.002463,-2.281833,-0.555214,2.865977,-1.731273,0.106175,0.510407,-0.002463,-2.281833,-0.555214,2.865977,-1.731273,0.0400,0.030271,0.5119,0.0685,0.0146
1.5150,0.101510,0.528789,0.004258,-2.303968,-0.556834,2.864626,-1.733797,0.106421,0.511072,-0.002782,-2.281621,-0.555567,2.866439,-1.730901,0.106421,0.511072,-0.002782,-2.281621,-0.555567,2.866439,-1.730901,0.0400,0.030004,0.5121,0.0688,0.0146
1.5200,0.102112,0.529260,0.004020,-2.303580,-0.557485,2.865820,-1.733823,0.106644,0.511678,-0.003072,-2.281429,-0.555887,2.866860,-1.730563,0.106644,0.511678,-0.003072,-2.281429,-0.555887,2.866860,-1.730563,0.0400,0.029748,0.5123,0.0692,0.0145
1.5250,0.102717,0.529695,0.003810,-2.303161,-0.558125,2.866802,-1.733814,0.106846,0.512226,-0.003335,-2.281254,-0.556177,2.867241,-1.730258,0.106846,0.512226,-0.003335,-2.281254,-0.556177,2.867241,-1.730258,0.0400,0.029492,0.5125,0.0695,0.0145
1.5300,0.103317,0.530102,0.003623,-2.302712,-0.558734,2.867583,-1.733753,0.107027,0.512716,-0.003571,-2.281098,-0.556437,2.867582,-1.729984,0.107027,0.512716,-0.003571,-2.281098,-0.556437,2.867582,-1.729984,0.0400,0.029231,0.5127,0.0698,0.0145
1.5350,0.103911,0.530506,0.003446,-2.302219,-0.559284,2.868185,-1.733604,0.107187,0.513152,-0.003780,-2.280959,-0.556668,2.867884,-1.729741,0.107187,0.513152,-0.003780,-2.280959,-0.556668,2.867884,-1.729741,0.0400,0.028947,0.5130,0.0702,0.0144
1.5400,0.104490,0.530903,0.003283,-2.301696,-0.559763,2.868629,-1.733373,0.107328,0.513534,-0.003963,-2.280838,-0.556870,2.868150,-1.729528,0.107328,0.513534,-0.003963,-2.280838,-0.556870,2.868150,-1.729528,0.0400,0.028648,0.5132,0.0705,0.0144
1.5450,0.105050,0.531288,0.003132,-2.301157,-0.560162,2.868939,-1.733072,0.107450,0.513864,-0.004121,-2.280732,-0.557045,2.868379,-1.729343,0.107450,0.513864,-0.004121,-2.280732,-0.557045,2.868379,-1.729343,0.0400,0.028339,0.5133,0.0707,0.0144
1.5500,0.105587,0.531662,0.002994,-2.300613,-0.560474,2.869141,-1.732715,0.107554,0.514146,-0.004257,-2.280642,-0.557195,2.868575,-1.729186,0.107554,0.514146,-0.004257,-2.280642,-0.557195,2.868575,-1.729186,0.0400,0.028028,0.5135,0.0710,0.0144
1.5550,0.106098,0.532021,0.002866,-2.300071,-0.560700,2.869259,-1.732320,0.107641,0.514382,-0.004370,-2.280567,-0.557320,2.868739,-1.729054,0.107641,0.514382,-0.004370,-2.280567,-0.557320,2.868739,-1.729054,0.0400,0.027724,0.5137,0.0712,0.0144
1.5600,0.106583,0.532366,0.002747,-2.299538,-0.560841,2.869314,-1.731904,0.107712,0.514576,-0.004463,-2.280506,-0.557422,2.868874,-1.728947,0.107712,0.514576,-0.004463,-2.280506,-0.557422,2.868874,-1.728947,0.0400,0.027434,0.5139,0.0715,0.0143
1.5650,0.107038,0.532695,0.002634,-2.299020,-0.560904,2.869326,-1.731487,0.107768,0.514729,-0.004536,-2.280457,-0.557503,2.868980,-1.728861,0.107768,0.514729,-0.004536,-2.280457,-0.557503,2.868980,-1.728861,0.0400,0.027164,0.5140,0.0717,0.0143
1.5700,0.107464,0.533008,0.002527,-2.298519,-0.560897,2.869312,-1.731083,0.107812,0.514847,-0.004593,-2.280419,-0.557566,2.869063,-1.728795,0.107812,0.514847,-0.004593,-2.280419,-0.557566,2.869063,-1.728795,0.0400,0.026919,0.5142,0.0719,0.0143
1.5750,0.107860,0.533305,0.002423,-2.298039,-0.560829,2.869284,-1.730708,0.107844,0.514934,-0.004635,-2.280392,-0.557612,2.869123,-1.728747,0.107844,0.514934,-0.004635,-2.280392,-0.557612,2.869123,-1.728747,0.0400,0.026702,0.5144,0.0720,0.0143
1.5800,0.108224,0.533587,0.002321,-2.297581,-0.560712,2.869253,-1.730372,0.107866,0.514993,-0.004663,-2.280373,-0.557643,2.869164,-1.728714,0.107866,0.514993,-0.004663,-2.280373,-0.557643,2.869164,-1.728714,0.0400,0.026513,0.5145,0.0722,0.0142
1.5850,0.108557,0.533854,0.002221,-2.297145,-0.560558,2.869226,-1.730083,0.107879,0.515030,-0.004681,-2.280361,-0.557662,2.869189,-1.728693,0.107879,0.515030,-0.004681,-2.280361,-0.557662,2.869189,-1.728693,0.0400,0.026353,0.5146,0.0723,0.0142
1.5900,0.108859,0.534105,0.002121,-2.296733,-0.560376,2.869209,-1.729846,0.107886,0.515049,-0.004690,-2.280355,-0.557673,2.869202,-1.728683,0.107886,0.515049,-0.004690,-2.280355,-0.557673,2.869202,-1.728683,0.0400,0.026218,0.5148,0.0725,0.0142
1.5950,0.109131,0.534341,0.002020,-2.296343,-0.560179,2.869205,-1.729663,0.107889,0.515056,-0.004693,-2.280353,-0.557676,2.869207,-1.728679,0.107889,0.515056,-0.004693,-2.280353,-0.557676,2.869207,-1.728679,0.0400,0.026105,0.5149,0.0726,0.0142
1.6000,0.109373,0.534562,0.001918,-2.295976,-0.559976,2.869215,-1.729530,0.107889,0.515057,-0.004694,-2.280352,-0.557677,2.869208,-1.728678,0.107889,0.515057,-0.004694,-2.280352,-0.557677,2.869208,-1.728678,0.0400,0.026009,0.5150,0.0727,0.0142
1.6050,0.109587,0.534770,0.001814,-2.295629,-0.559776,2.869239,-1.729446,0.107889,0.515057,-0.004694,-2.280352,-0.557677,2.869208,-1.728678,0.107889,0.515057,-0.004694,-2.280352,-0.557677,2.869208,-1.728678,0.0400,0.025927,0.5152,0.0727,0.0142
1.6100,0.109774,0.534963,0.001707,-2.295303,-0.559586,2.869276,-1.729404,0.107889,0.515057,-0.004694,-2.280352,-0.557677,2.869208,-1.728678,0.107889,0.515057,-0.004694,-2.280352,-0.557677,2.869208,-1.728678,0.0400,0.025855,0.5153,0.0728,0.0142
1.6150,0.109935,0.535143,0.001597,-2.294996,-0.559413,2.869326,-1.729395,0.107889,0.515057,-0.004694,-2.280352,-0.557677,2.869208,-1.728678,0.107889,0.515057,-0.004694,-2.280352,-0.557677,2.869208,-1.728678,0.0400,0.025792,0.5154,0.0728,0.0142
1.6200,0.110072,0.535311,0.001484,-2.294707,-0.559260,2.869386,-1.729414,0.107889,0.515057,-0.004694,-2.280352,-0.557677,2.869208,-1.728678,0.107889,0.515057,-0.004694,-2.280352,-0.557677,2.869208,-1.728678,0.0400,0.025735,0.5155,0.0729,0.0142
1.6250,0.110187,0.535467,0.001367,-2.294435,-0.559130,2.869454,-1.729451,0.107889,0.515057,-0.004694,-2.280352,-0.557677,2.869208,-1.728678,0.107889,0.515057,-0.004694,-2.280352,-0.557677,2.869208,-1.728678,0.0400,0.025684,0.5156,0.0729,0.0142
1.6300,0.110281,0.535612,0.001248,-2.294178,-0.559025,2.869529,-1.729498,0.107889,0.515057,-0.004694,-2.280352,-0.557677,2.869208,-1.728678,0.107889,0.515057,-0.004694,-2.280352,-0.557677,2.869208,-1.728678,0.0400,0.025637,0.5157,0.0729,0.0142
1.6350,0.110357,0.535745,0.001125,-2.293936,-0.558944,2.869607,-1.729550,0.107889,0.515057,-0.004694,-2.280352,-0.557677,2.869208,-1.728678,0.107889,0.515057,-0.004694,-2.280352,-0.557677,2.869208,-1.728678,0.0400,0.025593,0.5159,0.0729,0.0142
1.6400,0.110416,0.535869,0.001001,-2.293708,-0.558886,2.869688,-1.729599,0.107889,0.515057,-0.004694,-2.280352,-0.557677,2.869208,-1.728678,0.107889,0.515057,-0.004694,-2.280352,-0.557677,2.869208,-1.728678,0.0400,0.025551,0.5160,0.0729,0.0142
1.6450,0.110459,0.535983,0.000874,-2.293492,-0.558848,2.869769,-1.729641,0.107889,0.515057,-0.004694,-2.280352,-0.557677,2.869208,-1.728678,0.107889,0.515057,-0.004694,-2.280352,-0.557677,2.869208,-1.728678,0.0399,0.025510,0.5161,0.0729,0.0142
1.6500,0.110489,0.536088,0.000746,-2.293289,-0.558827,2.869849,-1.729674,0.107889,0.515057,-0.004694,-2.280352,-0.557677,2.869208,-1.728678,0.107889,0.515057,-0.004694,-2.280352,-0.557677,2.869208,-1.728678,0.0399,0.025470,0.5162,0.0728,0.0142
1.6550,0.110506,0.536185,0.000617,-2.293096,-0.558819,2.869926,-1.729694,0.107889,0.515057,-0.004694,-2.280352,-0.557677,2.869208,-1.728678,0.107889,0.515057,-0.004694,-2.280352,-0.557677,2.869208,-1.728678,0.0399,0.025430,0.5163,0.0728,0.0142
1.6600,0.110512,0.536273,0.000488,-2.292914,-0.558822,2.870000,-1.729700,0.107889,0.515057,-0.004694,-2.280352,-0.557677,2.869208,-1.728678,0.107889,0.515057,-0.004694,-2.280352,-0.557677,2.869208,-1.728678,0.0399,0.025390,0.5164,0.0727,0.0142
1.6650,0.110508,0.536355,0.000360,-2.292742,-0.558830,2.870070,-1.729693,0.107889,0.515057,-0.004694,-2.280352,-0.557677,2.869208,-1.728678,0.107889,0.515057,-0.004694,-2.280352,-0.557677,2.869208,-1.728678,0.0398,0.025349,0.5165,0.0727,0.0142
1.6700,0.110497,0.536430,0.000232,-2.292579,-0.558841,2.870135,-1.729674,0.107889,0.515057,-0.004694,-2.280352,-0.557677,2.869208,-1.728678,0.107889,0.515057,-0.004694,-2.280352,-0.557677,2.869208,-1.728678,0.0398,0.025309,0.5166,0.0726,0.0142
1.6750,0.110478,0.536498,0.000105,-2.292424,-0.558852,2.870195,-1.729644,0.107889,0.515057,-0.004694,-2.280352,-0.557677,2.869208,-1.728678,0.107889,0.515057,-0.004694,-2.280352,-0.557677,2.869208,-1.728678,0.0397,0.025268,0.5166,0.0726,0.0143
1.6800,0.110453,0.536562,-0.000019,-2.292277,-0.558859,2.870250,-1.729604,0.107889,0.515057,-0.004694,-2.280352,-0.557677,2.869208,-1.728678,0.107889,0.515057,-0.004694,-2.280352,-0.557677,2.869208,-1.728678,0.0397,0.025227,0.5167,0.0725,0.0143
1.6850,0.110424,0.536620,-0.000142,-2.292137,-0.558862,2.870300,-1.729558,0.107889,0.515057,-0.004694,-2.280352,-0.557677,2.869208,-1.728678,0.107889,0.515057,-0.004694,-2.280352,-0.557677,2.869208,-1.728678,0.0396,0.025186,0.5168,0.0724,0.0143
1.6900,0.110390,0.536674,-0.000262,-2.292004,-0.558858,2.870346,-1.729507,0.107889,0.515057,-0.004694,-2.280352,-0.557677,2.869208,-1.728678,0.107889,0.515057,-0.004694,-2.280352,-0.557677,2.869208,-1.728678,0.0395,0.025146,0.5169,0.0723,0.0143
1.6950,0.110353,0.536724,-0.000379,-2.291877,-0.558847,2.870389,-1.729454,0.107889,0.515057,-0.004694,-2.280352,-0.557677,2.869208,-1.728678,0.107889,0.515057,-0.004694,-2.280352,-0.557677,2.869208,-1.728678,0.0395,0.025106,0.5170,0.0723,0.0143
1.7000,0.110313,0.536770,-0.000493,-2.291756,-0.558829,2.870428,-1.729399,0.107889,0.515057,-0.004694,-2.280352,-0.557677,2.869208,-1.728678,0.107889,0.515057,-0.004694,-2.280352,-0.557677,2.869208,-1.728678,0.0394,0.025067,0.5170,0.0722,0.0143
1.7050,0.110272,0.536814,-0.000603,-2.291640,-0.558803,2.870464,-1.729347,0.107889,0.515057,-0.004694,-2.280352,-0.557677,2.869208,-1.728678,0.107889,0.515057,-0.004694,-2.280352,-0.557677,2.869208,-1.728678,0.0393,0.025029,0.5171,0.0721,0.0143
1.7100,0.110229,0.536855,-0.000711,-2.291529,-0.558771,2.870499,-1.729296,0.107889,0.515057,-0.004694,-2.280352,-0.557677,2.869208,-1.728678,0.107889,0.515057,-0.004694,-2.280352,-0.557677,2.869208,-1.728678,0.0392,0.024993,0.5172,0.0720,0.0143
1.7150,0.110185,0.536894,-0.000814,-2.291422,-0.558733,2.870532,-1.729249,0.107889,0.515057,-0.004694,-2.280352,-0.557677,2.869208,-1.728678,0.107889,0.515057,-0.004694,-2.280352,-0.557677,2.869208,-1.728678,0.0391,0.024958,0.5172,0.0719,0.0144
1.7200,0.110141,0.536931,-0.000914,-2.291319,-0.558691,2.870564,-1.729206,0.107889,0.515057,-0.004694,-2.280352,-0.557677,2.869208,-1.728678,0.107889,0.515057,-0.004694,-2.280352,-0.557677,2.869208,-1.728678,0.0390,0.024925,0.5173,0.0719,0.0144
1.7250,0.110097,0.536967,-0.001010,-2.291220,-0.558646,2.870596,-1.729168,0.107889,0.515057,-0.004694,-2.280352,-0.557677,2.869208,-1.728678,0.107889,0.515057,-0.004694,-2.280352,-0.557677,2.869208,-1.728678,0.0388,0.024894,0.5174,0.0718,0.0144
1.7300,0.110053,0.537002,-0.001103,-2.291124,-0.558599,2.870628,-1.729133,0.107889,0.515057,-0.004694,-2.280352,-0.557677,2.869208,-1.728678,0.107889,0.515057,-0.004694,-2.280352,-0.557677,2.869208,-1.728678,0.0387,0.024865,0.5174,0.0717,0.0144
1.7350,0.110010,0.537035,-0.001191,-2.291031,-0.558551,2.870660,-1.729103,0.107889,0.515057,-0.004694,-2.280352,-0.557677,2.869208,-1.728678,0.107889,0.515057,-0.004694,-2.280352,-0.557677,2.869208,-1.728678,0.0386,0.024838,0.5175,0.0717,0.0144
1.7400,0.109968,0.537069,-0.001275,-2.290942,-0.558505,2.870693,-1.729077,0.107889,0.515057,-0.004694,-2.280352,-0.557677,2.869208,-1.728678,0.107889,0.515057,-0.004694,-2.280352,-0.557677,2.869208,-1.728678,0.0384,0.024813,0.5175,0.0716,0.0144
1.7450,0.109927,0.537101,-0.001355,-2.290855,-0.558459,2.870727,-1.729053,0.107889,0.515057,-0.004694,-2.280352,-0.557677,2.869208,-1.728678,0.107889,0.515057,-0.004694,-2.280352,-0.557677,2.869208,-1.728678,0.0383,0.024791,0.5176,0.0715,0.0144
1.7500,0.109887,0.537134,-0.001431,-2.290770,-0.558417,2.870762,-1.729032,0.107889,0.515057,-0.004694,-2.280352,-0.557677,2.869208,-1.728678,0.107889,0.515057,-0.004694,-2.280352,-0.557677,2.869208,-1.728678,0.0381,0.024772,0.5176,0.0715,0.0144
1.7550,0.109849,0.537166,-0.001504,-2.290688,-0.558378,2.870798,-1.729013,0.107889,0.515057,-0.004694,-2.280352,-0.557677,2.869208,-1.728678,0.107889,0.515057,-0.004694,-2.280352,-0.557677,2.869208,-1.728678,0.0379,0.024754,0.5177,0.0714,0.0145
1.7600,0.109813,0.537198,-0.001571,-2.290608,-0.558342,2.870836,-1.728994,0.107889,0.515057,-0.004694,-2.280352,-0.557677,2.869208,-1.728678,0.107889,0.515057,-0.004694,-2.280352,-0.557677,2.869208,-1.728678,0.0377,0.024740,0.5177,0.0713,0.0145
1.7650,0.109778,0.537230,-0.001635,-2.290530,-0.558310,2.870874,-1.728976,0.107889,0.515057,-0.004694,-2.280352,-0.557677,2.869208,-1.728678,0.107889,0.515057,-0.004694,-2.280352,-0.557677,2.869208,-1.728678,0.0375,0.024727,0.5178,0.0713,0.0145
1.7700,0.109745,0.537263,-0.001695,-2.290455,-0.558282,2.870914,-1.728958,0.107889,0.515057,-0.004694,-2.280352,-0.557677,2.869208,-1.728678,0.107889,0.515057,-0.004694,-2.280352,-0.557677,2.869208,-1.728678,0.0373,0.024717,0.5178,0.0712,0.0145
1.7750,0.109715,0.537295,-0.001751,-2.290381,-0.558258,2.870954,-1.728940,0.107889,0.515057,-0.004694,-2.280352,-0.557677,2.869208,-1.728678,0.107889,0.515057,-0.004694,-2.280352,-0.557677,2.869208,-1.728678,0.0371,0.024709,0.5179,0.0712,0.0145
1.7800,0.109686,0.537328,-0.001802,-2.290309,-0.558237,2.870995,-1.728921,0.107889,0.515057,-0.004694,-2.280352,-0.557677,2.869208,-1.728678,0.107889,0.515057,-0.004694,-2.280352,-0.557677,2.869208,-1.728678,0.0369,0.024704,0.5179,0.0712,0.0145
1.7850,0.109660,0.537361,-0.001850,-2.290239,-0.558219,2.871037,-1.728901,0.107889,0.515057,-0.004694,-2.280352,-0.557677,2.869208,-1.728678,0.107889,0.515057,-0.004694,-2.280352,-0.557677,2.869208,-1.728678,0.0367,0.024701,0.5180,0.0711,0.0145
1.7900,0.109636,0.537394,-0.001893,-2.290171,-0.558204,2.871079,-1.728880,0.107889,0.515057,-0.004694,-2.280352,-0.557677,2.869208,-1.728678,0.107889,0.515057,-0.004694,-2.280352,-0.557677,2.869208,-1.728678,0.0365,0.024699,0.5180,0.0711,0.0145
1.7950,0.109615,0.537428,-0.001933,-2.290105,-0.558191,2.871121,-1.728858,0.107889,0.515057,-0.004694,-2.280352,-0.557677,2.869208,-1.728678,0.107889,0.515057,-0.004694,-2.280352,-0.557677,2.869208,-1.728678,0.0362,0.024700,0.5180,0.0711,0.0145
1.8000,0.109595,0.537461,-0.001969,-2.290040,-0.558180,2.871164,-1.728835,0.107889,0.515057,-0.004694,-2.280352,-0.557677,2.869208,-1.728678,0.107889,0.515057,-0.004694,-2.280352,-0.557677,2.869208,-1.728678,0.0360,0.024703,0.5181,0.0710,0.0145
1.8050,0.109578,0.537496,-0.002000,-2.289977,-0.558170,2.871206,-1.728812,0.107889,0.515057,-0.004694,-2.280352,-0.557677,2.869208,-1.728678,0.107889,0.515057,-0.004694,-2.280352,-0.557677,2.869208,-1.728678,0.0357,0.024708,0.5181,0.0710,0.0145
1.8100,0.109564,0.537530,-0.002028,-2.289916,-0.558160,2.871249,-1.728788,0.107889,0.515057,-0.004694,-2.280352,-0.557677,2.869208,-1.728678,0.107889,0.515057,-0.004694,-2.280352,-0.557677,2.869208,-1.728678,0.0354,0.024715,0.5181,0.0710,0.0145
1.8150,0.109551,0.537565,-0.002053,-2.289856,-0.558151,2.871291,-1.728763,0.107889,0.515057,-0.004694,-2.280352,-0.557677,2.869208,-1.728678,0.107889,0.515057,-0.004694,-2.280352,-0.557677,2.869208,-1.728678,0.0352,0.024723,0.5182,0.0710,0.0145
1.8200,0.109541,0.537600,-0.002073,-2.289798,-0.558142,2.871333,-1.728738,0.107889,0.515057,-0.004694,-2.280352,-0.557677,2.869208,-1.728678,0.107889,0.515057,-0.004694,-2.280352,-0.557677,2.869208,-1.728678,0.0349,0.024733,0.5182,0.0710,0.0145
1.8250,0.109533,0.537636,-0.002090,-2.289741,-0.558133,2.871374,-1.728714,0.107889,0.515057,-0.004694,-2.280352,-0.557677,2.869208,-1.728678,0.107889,0.515057,-0.004694,-2.280352,-0.557677,2.869208,-1.728678,0.0346,0.024745,0.5182,0.0709,0.0145
1.8300,0.109528,0.537671,-0.002104,-2.289686,-0.558124,2.871416,-1.728689,0.107889,0.515057,-0.004694,-2.280352,-0.557677,2.869208,-1.728678,0.107889,0.515057,-0.004694,-2.280352,-0.557677,2.869208,-1.728678,0.0343,0.024759,0.5183,0.0709,0.0145
1.8350,0.109524,0.537708,-0.002114,-2.289632,-0.558114,2.871456,-1.728665,0.107889,0.515057,-0.004694,-2.280352,-0.557677,2.869208,-1.728678,0.107889,0.515057,-0.004694,-2.280352,-0.557677,2.869208,-1.728678,0.0340,0.024774,0.5183,0.0709,0.0145
1.8400,0.109523,0.537744,-0.002121,-2.289580,-0.558103,2.871497,-1.728642,0.107889,0.515057,-0.004694,-2.280352,-0.557677,2.869208,-1.728678,0.107889,0.515057,-0.004694,-2.280352,-0.557677,2.869208,-1.728678,0.0336,0.024790,0.5183,0.0709,0.0145
1.8450,0.109523,0.537781,-0.002125,-2.289529,-0.558092,2.871536,-1.728619,0.107889,0.515057,-0.004694,-2.280352,-0.557677,2.869208,-1.728678,0.107889,0.515057,-0.004694,-2.280352,-0.557677,2.869208,-1.728678,0.0333,0.024808,0.5183,0.0709,0.0145
1.8500,0.109526,0.537818,-0.002126,-2.289480,-0.558081,2.871576,-1.728597,0.107889,0.515057,-0.004694,-2.280352,-0.557677,2.869208,-1.728678,0.107889,0.515057,-0.004694,-2.280352,-0.557677,2.869208,-1.728678,0.0330,0.024828,0.5184,0.0709,0.0145
1.8550,0.109530,0.537855,-0.002124,-2.289431,-0.558070,2.871615,-1.728575,0.107889,0.515057,-0.004694,-2.280352,-0.557677,2.869208,-1.728678,0.107889,0.515057,-0.004694,-2.280352,-0.557677,2.869208,-1.728678,0.0326,0.024848,0.5184,0.0709,0.0145
1.8600,0.109537,0.537893,-0.002119,-2.289385,-0.558059,2.871653,-1.728555,0.107889,0.515057,-0.004694,-2.280352,-0.557677,2.869208,-1.728678,0.107889,0.515057,-0.004694,-2.280352,-0.557677,2.869208,-1.728678,0.0323,0.024870,0.5184,0.0710,0.0145
1.8650,0.109545,0.537931,-0.002112,-2.289339,-0.558047,2.871692,-1.728535,0.107889,0.515057,-0.004694,-2.280352,-0.557677,2.869208,-1.728678,0.107889,0.515057,-0.004694,-2.280352,-0.557677,2.869208,-1.728678,0.0319,0.024894,0.5184,0.0710,0.0145
1.8700,0.109555,0.537969,-0.002101,-2.289295,-0.558036,2.871730,-1.728515,0.107889,0.515057,-0.004694,-2.280352,-0.557677,2.869208,-1.728678,0.107889,0.515057,-0.004694,-2.280352,-0.557677,2.869208,-1.728678,0.0316,0.024918,0.5184,0.0710,0.0145
1.8750,0.109566,0.538007,-0.002088,-2.289252,-0.558026,2.871767,-1.728497,0.107889,0.515057,-0.004694,-2.280352,-0.557677,2.869208,-1.728678,0.107889,0.515057,-0.004694,-2.280352,-0.557677,2.869208,-1.728678,0.0312,0.024944,0.5185,0.0710,0.0145
1.8800,0.109580,0.538046,-0.002073,-2.289210,-0.558016,2.871805,-1.728478,0.107889,0.515057,-0.004694,-2.280352,-0.557677,2.869208,-1.728678,0.107889,0.515057,-0.004694,-2.280352,-0.557677,2.869208,-1.728678,0.0308,0.024971,0.5185,0.0710,0.0145
1.8850,0.109594,0.538085,-0.002056,-2.289170,-0.558006,2.871842,-1.728461,0.107889,0.515057,-0.004694,-2.280352,-0.557677,2.869208,-1.728678,0.107889,0.515057,-0.004694,-2.280352,-0.557677,2.869208,-1.728678,0.0304,0.025000,0.5185,0.0710,0.0145
1.8900,0.109611,0.538124,-0.002036,-2.289131,-0.557998,2.871879,-1.728444,0.107889,0.515057,-0.004694,-2.280352,-0.557677,2.869208,-1.728678,0.107889,0.515057,-0.004694,-2.280352,-0.557677,2.869208,-1.728678,0.0301,0.025029,0.5185,0.0711,0.0145
1.8950,0.109628,0.538163,-0.002013,-2.289093,-0.557990,2.871916,-1.728427,0.107889,0.515057,-0.004694,-2.280352,-0.557677,2.869208,-1.728678,0.107889,0.515057,-0.004694,-2.280352,-0.557677,2.869208,-1.728678,0.0297,0.025060,0.5185,0.0711,0.0145
1.9000,0.109647,0.538202,-0.001989,-2.289057,-0.557983,2.871953,-1.728411,0.107889,0.515057,-0.004694,-2.280352,-0.557677,2.869208,-1.728678,0.107889,0.515057,-0.004694,-2.280352,-0.557677,2.869208,-1.728678,0.0293,0.025091,0.5185,0.0711,0.0145
1.9050,0.109668,0.538242,-0.001963,-2.289021,-0.557977,2.871989,-1.728395,0.107889,0.515057,-0.004694,-2.280352,-0.557677,2.869208,-1.728678,0.107889,0.515057,-0.004694,-2.280352,-0.557677,2.869208,-1.728678,0.0289,0.025124,0.5185,0.0711,0.0145
1.9100,0.109689,0.538282,-0.001935,-2.288987,-0.557971,2.872026,-1.728379,0.107889,0.515057,-0.004694,-2.280352,-0.557677,2.869208,-1.728678,0.107889,0.515057,-0.004694,-2.280352,-0.557677,2.869208,-1.728678,0.0285,0.025158,0.5185,0.0712,0.0145
1.9150,0.109712,0.538321,-0.001905,-2.288954,-0.557967,2.872062,-1.728364,0.107889,0.515057,-0.004694,-2.280352,-0.557677,2.869208,-1.728678,0.107889,0.515057,-0.004694,-2.280352,-0.557677,2.869208,-1.728678,0.0280,0.025192,0.5186,0.0712,0.0145
1.9200,0.109736,0.538361,-0.001873,-2.288922,-0.557963,2.872098,-1.728349,0.107889,0.515057,-0.004694,-2.280352,-0.557677,2.869208,-1.728678,0.107889,0.515057,-0.004694,-2.280352,-0.557677,2.869208,-1.728678,0.0276,0.025228,0.5186,0.0712,0.0145
1.9250,0.109761,0.538402,-0.001839,-2.288892,-0.557960,2.872134,-1.728334,0.107889,0.515057,-0.004694,-2.280352,-0.557677,2.869208,-1.728678,0.107889,0.515057,-0.004694,-2.280352,-0.557677,2.869208,-1.728678,0.0272,0.025265,0.5186,0.0713,0.0145
1.9300,0.109788,0.538442,-0.001803,-2.288862,-0.557958,2.872170,-1.728319,0.107889,0.515057,-0.004694,-2.280352,-0.557677,2.869208,-1.728678,0.107889,0.515057,-0.004694,-2.280352,-0.557677,2.869208,-1.728678,0.0268,0.025302,0.5186,0.0713,0.0145
1.9350,0.109815,0.538482,-0.001766,-2.288834,-0.557956,2.872205,-1.728305,0.107889,0.515057,-0.004694,-2.280352,-0.557677,2.869208,-1.728678,0.107889,0.515057,-0.004694,-2.280352,-0.557677,2.869208,-1.728678,0.0263,0.025341,0.5186,0.0714,0.0144
1.9400,0.109844,0.538523,-0.001727,-2.288807,-0.557955,2.872240,-1.728291,0.107889,0.515057,-0.004694,-2.280352,-0.557677,2.869208,-1.728678,0.107889,0.515057,-0.004694,-2.280352,-0.557677,2.869208,-1.728678,0.0259,0.025380,0.5186,0.0714,0.0144
1.9450,0.109873,0.538564,-0.001687,-2.288781,-0.557955,2.872275,-1.728277,0.107889,0.515057,-0.004694,-2.280352,-0.557677,2.869208,-1.728678,0.107889,0.515057,-0.004694,-2.280352,-0.557677,2.869208,-1.728678,0.0255,0.025421,0.5186,0.0714,0.0144
1.9500,0.109903,0.538604,-0.001645,-2.288756,-0.557954,2.872310,-1.728264,0.107889,0.515057,-0.004694,-2.280352,-0.557677,2.869208,-1.728678,0.107889,0.515057,-0.004694,-2.280352,-0.557677,2.869208,-1.728678,0.0250,0.025462,0.5186,0.0715,0.0144
1.9550,0.109935,0.538645,-0.001602,-2.288732,-0.557954,2.872344,-1.728251,0.107889,0.515057,-0.004694,-2.280352,-0.557677,2.869208,-1.728678,0.107889,0.515057,-0.004694,-2.280352,-0.557677,2.869208,-1.728678,0.0246,0.025504,0.5186,0.0715,0.0144
1.9600,0.109967,0.538686,-0.001558,-2.288709,-0.557955,2.872378,-1.728238,0.107889,0.515057,-0.004694,-2.280352,-0.557677,2.869208,-1.728678,0.107889,0.515057,-0.004694,-2.280352,-0.557677,2.869208,-1.728678,0.0241,0.025547,0.5186,0.0716,0.0144
1.9650,0.110000,0.538727,-0.001512,-2.288687,-0.557955,2.872412,-1.728225,0.107889,0.515057,-0.004694,-2.280352,-0.557677,2.869208,-1.728678,0.107889,0.515057,-0.004694,-2.280352,-0.557677,2.869208,-1.728678,0.0237,0.025590,0.5186,0.0716,0.0144
1.9700,0.110034,0.538768,-0.001465,-2.288667,-0.557956,2.872445,-1.728213,0.107889,0.515057,-0.004694,-2.280352,-0.557677,2.869208,-1.728678,0.107889,0.515057,-0.004694,-2.280352,-0.557677,2.869208,-1.728678,0.0232,0.025634,0.5186,0.0717,0.0144
1.9750,0.110068,0.538809,-0.001417,-2.288647,-0.557957,2.872478,-1.728202,0.107889,0.515057,-0.004694,-2.280352,-0.557677,2.869208,-1.728678,0.107889,0.515057,-0.004694,-2.280352,-0.557677,2.869208,-1.728678,0.0228,0.025679,0.5186,0.0717,0.0144
1.9800,0.110103,0.538850,-0.001368,-2.288628,-0.557959,2.872510,-1.728190,0.107889,0.515057,-0.004694,-2.280352,-0.557677,2.869208,-1.728678,0.107889,0.515057,-0.004694,-2.280352,-0.557677,2.869208,-1.728678,0.0223,0.025725,0.5186,0.0718,0.0143
1.9850,0.110139,0.538891,-0.001317,-2.288610,-0.557960,2.872542,-1.728179,0.107889,0.515057,-0.004694,-2.280352,-0.557677,2.869208,-1.728678,0.107889,0.515057,-0.004694,-2.280352,-0.557677,2.869208,-1.728678,0.0219,0.025771,0.5186,0.0718,0.0143
1.9900,0.110176,0.538932,-0.001266,-2.288594,-0.557962,2.872573,-1.728168,0.107889,0.515057,-0.004694,-2.280352,-0.557677,2.869208,-1.728678,0.107889,0.515057,-0.004694,-2.280352,-0.557677,2.869208,-1.728678,0.0214,0.025818,0.5186,0.0719,0.0143
1.9950,0.110213,0.538973,-0.001214,-2.288578,-0.557964,2.872604,-1.728158,0.107889,0.515057,-0.004694,-2.280352,-0.557677,2.869208,-1.728678,0.107889,0.515057,-0.004694,-2.280352,-0.557677,2.869208,-1.728678,0.0210,0.025866,0.5186,0.0719,0.0143
2.0000,0.110251,0.539014,-0.001161,-2.288563,-0.557967,2.872635,-1.728148,0.107889,0.515057,-0.004694,-2.280352,-0.557677,2.869208,-1.728678,0.107889,0.515057,-0.004694,-2.280352,-0.557677,2.869208,-1.728678,0.0205,0.025914,0.5186,0.0720,0.0143
2.0050,0.110289,0.539055,-0.001107,-2.288549,-0.557969,2.872665,-1.728138,0.107889,0.515057,-0.004694,-2.280352,-0.557677,2.869208,-1.728678,0.107889,0.515057,-0.004694,-2.280352,-0.557677,2.869208,-1.728678,0.0200,0.025962,0.5185,0.0721,0.0143
2.0100,0.110328,0.539096,-0.001052,-2.288536,-0.557972,2.872694,-1.728128,0.107889,0.515057,-0.004694,-2.280352,-0.557677,2.869208,-1.728678,0.107889,0.515057,-0.004694,-2.280352,-0.557677,2.869208,-1.728678,0.0196,0.026011,0.5185,0.0721,0.0143
2.0150,0.110368,0.539137,-0.000996,-2.288523,-0.557975,2.872723,-1.728119,0.107889,0.515057,-0.004694,-2.280352,-0.557677,2.869208,-1.728678,0.107889,0.515057,-0.004694,-2.280352,-0.557677,2.869208,-1.728678,0.0191,0.026061,0.5185,0.0722,0.0142
2.0200,0.110407,0.539178,-0.000940,-2.288512,-0.557979,2.872751,-1.728111,0.107889,0.515057,-0.004694,-2.280352,-0.557677,2.869208,-1.728678,0.107889,0.515057,-0.004694,-2.280352,-0.557677,2.869208,-1.728678,0.0187,0.026111,0.5185,0.0722,0.0142
2.0250,0.110448,0.539219,-0.000883,-2.288501,-0.557983,2.872779,-1.728102,0.107889,0.515057,-0.004694,-2.280352,-0.557677,2.869208,-1.728678,0.107889,0.515057,-0.004694,-2.280352,-0.557677,2.869208,-1.728678,0.0182,0.026162,0.5185,0.0723,0.0142
2.0300,0.110488,0.539259,-0.000826,-2.288492,-0.557987,2.872806,-1.728094,0.107889,0.515057,-0.004694,-2.280352,-0.557677,2.869208,-1.728678,0.107889,0.515057,-0.004694,-2.280352,-0.557677,2.869208,-1.728678,0.0178,0.026213,0.5185,0.0723,0.0142
2.0350,0.110529,0.539300,-0.000768,-2.288483,-0.557991,2.872832,-1.728086,0.107889,0.515057,-0.004694,-2.280352,-0.557677,2.869208,-1.728678,0.107889,0.515057,-0.004694,-2.280352,-0.557677,2.869208,-1.728678,0.0173,0.026264,0.5185,0.0724,0.0142
2.0400,0.110570,0.539341,-0.000710,-2.288474,-0.557996,2.872858,-1.728078,0.107889,0.515057,-0.004694,-2.280352,-0.557677,2.869208,-1.728678,0.107889,0.515057,-0.004694,-2.280352,-0.557677,2.869208,-1.728678,0.0169,0.026315,0.5185,0.0725,0.0142
