alvinuday/Neuromorphic-Robot-Control/mjpc/mpc_log.csv
t_sim,q1,q2,q3,q4,q5,q6,q1_ref,q2_ref,q3_ref,q4_ref,q5_ref,q6_ref,tau1,tau2,tau3,tau4,tau5,tau6,tracking_error,box_x,box_y,box_z
0.0000,0.000000,0.000000,0.000000,0.000000,0.000000,0.000000,0.000000,0.000000,0.000000,0.000000,0.000000,0.000000,0.000000,0.000000,0.000000,0.000000,0.000000,0.000000,0.000000,0.2000,0.0000,0.5200
0.0200,0.000000,0.000000,0.000000,0.000000,0.000000,0.000000,0.000000,-0.000000,-0.000001,0.000000,-0.000000,0.000000,0.000135,-0.000117,-0.000398,0.000006,-0.000140,0.000040,0.000002,0.2000,0.0000,0.5178
0.0400,0.000004,-0.000000,-0.000001,0.000002,-0.000007,0.000004,0.000004,-0.000003,-0.000011,0.000000,-0.000004,0.000001,0.000536,-0.000464,-0.001580,0.000021,-0.000554,0.000155,0.000012,0.2000,0.0000,0.5118
0.0600,0.000022,-0.000003,-0.000004,0.000013,-0.000040,0.000023,0.000012,-0.000010,-0.000036,0.000000,-0.000013,0.000004,0.001193,-0.001036,-0.003530,0.000047,-0.001236,0.000342,0.000050,0.2000,0.0000,0.5018
0.0800,0.000064,-0.000008,-0.000012,0.000039,-0.000123,0.000070,0.000029,-0.000025,-0.000084,0.000001,-0.000030,0.000008,0.002101,-0.001830,-0.006234,0.000081,-0.002179,0.000599,0.000144,0.2000,0.0000,0.4878
0.1000,0.000141,-0.000018,-0.000031,0.000090,-0.000283,0.000158,0.000056,-0.000048,-0.000163,0.000002,-0.000057,0.000016,0.003255,-0.002840,-0.009674,0.000125,-0.003377,0.000924,0.000323,0.2000,0.0000,0.4750
0.1200,0.000261,-0.000035,-0.000064,0.000173,-0.000550,0.000299,0.000095,-0.000082,-0.000280,0.000004,-0.000099,0.000028,0.004649,-0.004061,-0.013836,0.000176,-0.004824,0.001315,0.000619,0.2000,0.0000,0.4752
0.1400,0.000435,-0.000061,-0.000118,0.000299,-0.000952,0.000508,0.000151,-0.000130,-0.000443,0.000006,-0.000156,0.000044,0.006279,-0.005490,-0.018703,0.000236,-0.006514,0.001770,0.001061,0.2000,0.0000,0.4772
0.1600,0.000672,-0.000098,-0.000200,0.000477,-0.001520,0.000797,0.000224,-0.000193,-0.000657,0.000009,-0.000231,0.000066,0.008139,-0.007121,-0.024262,0.000304,-0.008443,0.002289,0.001683,0.2000,0.0000,0.4785
0.1800,0.000982,-0.000149,-0.000317,0.000716,-0.002285,0.001179,0.000317,-0.000273,-0.000931,0.000013,-0.000328,0.000093,0.010224,-0.008950,-0.030496,0.000378,-0.010602,0.002868,0.002518,0.2000,0.0000,0.4792
0.2000,0.001373,-0.000215,-0.000479,0.001028,-0.003282,0.001668,0.000433,-0.000373,-0.001271,0.000018,-0.000447,0.000127,0.012528,-0.010973,-0.037390,0.000460,-0.012988,0.003507,0.003601,0.2000,0.0000,0.4796
0.2200,0.001854,-0.000301,-0.000695,0.001424,-0.004546,0.002277,0.000573,-0.000494,-0.001683,0.000023,-0.000592,0.000168,0.015046,-0.013185,-0.044930,0.000548,-0.015593,0.004203,0.004970,0.2000,0.0000,0.4798
0.2400,0.002434,-0.000408,-0.000977,0.001916,-0.006113,0.003020,0.000741,-0.000638,-0.002174,0.000030,-0.000765,0.000217,0.017774,-0.015582,-0.053100,0.000642,-0.018413,0.004956,0.006661,0.2000,0.0000,0.4798
0.2600,0.003122,-0.000541,-0.001336,0.002518,-0.008022,0.003910,0.000937,-0.000807,-0.002750,0.000038,-0.000967,0.000274,0.020706,-0.018159,-0.061886,0.000742,-0.021441,0.005764,0.008716,0.2000,0.0000,0.4799
0.2800,0.003925,-0.000702,-0.001786,0.003242,-0.010313,0.004961,0.001164,-0.001003,-0.003417,0.000047,-0.001202,0.000341,0.023838,-0.020912,-0.071273,0.000847,-0.024671,0.006626,0.011177,0.2000,0.0000,0.4799
0.3000,0.004852,-0.000896,-0.002341,0.004104,-0.013027,0.006187,0.001424,-0.001228,-0.004181,0.000058,-0.001471,0.000417,0.027164,-0.023837,-0.081246,0.000957,-0.028099,0.007540,0.014087,0.2000,0.0000,0.4799
0.3200,0.005910,-0.001127,-0.003016,0.005120,-0.016213,0.007603,0.001720,-0.001482,-0.005048,0.000070,-0.001776,0.000503,0.030680,-0.026930,-0.091791,0.001071,-0.031716,0.008506,0.017496,0.2000,0.0000,0.4799
0.3400,0.007107,-0.001399,-0.003829,0.006306,-0.019910,0.009221,0.002052,-0.001769,-0.006023,0.000083,-0.002119,0.000601,0.034381,-0.030186,-0.102894,0.001189,-0.035520,0.009521,0.021449,0.2000,0.0000,0.4799
0.3600,0.008450,-0.001718,-0.004797,0.007682,-0.024167,0.011056,0.002423,-0.002088,-0.007113,0.000099,-0.002502,0.000709,0.038262,-0.033600,-0.114541,0.001310,-0.039502,0.010586,0.025995,0.2000,0.0000,0.4799
0.3800,0.009947,-0.002087,-0.005940,0.009269,-0.029033,0.013123,0.002835,-0.002443,-0.008322,0.000115,-0.002928,0.000830,0.042318,-0.037170,-0.126717,0.001434,-0.043658,0.011700,0.031190,0.2000,0.0000,0.4799
0.4000,0.011605,-0.002514,-0.007279,0.011088,-0.034561,0.015437,0.003290,-0.002835,-0.009655,0.000134,-0.003397,0.000963,0.046545,-0.040890,-0.139408,0.001560,-0.047982,0.012862,0.037089,0.2000,0.0000,0.4799
0.4200,0.013431,-0.003005,-0.008838,0.013166,-0.040808,0.018011,0.003788,-0.003265,-0.011119,0.000154,-0.003912,0.001109,0.050939,-0.044756,-0.152600,0.001687,-0.052468,0.014071,0.043756,0.2000,0.0000,0.4799
0.4400,0.015430,-0.003565,-0.010641,0.015527,-0.047834,0.020862,0.004333,-0.003734,-0.012717,0.000176,-0.004474,0.001268,0.055495,-0.048765,-0.166281,0.001816,-0.057110,0.015329,0.051256,0.2000,0.0000,0.4799
0.4600,0.017611,-0.004202,-0.012716,0.018201,-0.055703,0.024003,0.004925,-0.004244,-0.014454,0.000200,-0.005085,0.001441,0.060209,-0.052913,-0.180435,0.001945,-0.061903,0.016634,0.059659,0.2000,0.0000,0.4799
0.4800,0.019979,-0.004923,-0.015090,0.021218,-0.064482,0.027451,0.005566,-0.004797,-0.016336,0.000226,-0.005747,0.001629,0.065076,-0.057194,-0.195050,0.002074,-0.066841,0.017988,0.069039,0.2000,0.0000,0.4799
0.5000,0.022539,-0.005736,-0.017795,0.024612,-0.074242,0.031219,0.006258,-0.005393,-0.018367,0.000254,-0.006461,0.001832,0.070092,-0.061606,-0.210113,0.002203,-0.071920,0.019392,0.079477,0.2000,0.0000,0.4799
0.5200,0.025298,-0.006649,-0.020866,0.028424,-0.085186,0.035325,0.007002,-0.006034,-0.020551,0.000285,-0.007230,0.002049,0.075260,-0.066150,-0.225609,0.002364,-0.077231,0.020843,0.091168,0.2000,0.0000,0.4799
0.5400,0.028258,-0.007660,-0.024338,0.032650,-0.097501,0.039783,0.007800,-0.006722,-0.022892,0.000317,-0.008053,0.002283,0.080559,-0.070810,-0.241526,0.002483,-0.082555,0.022345,0.104279,0.2000,0.0000,0.4799
0.5600,0.031430,-0.008783,-0.028252,0.037308,-0.110957,0.044610,0.008653,-0.007457,-0.025395,0.000352,-0.008934,0.002532,0.085995,-0.075590,-0.257851,0.002611,-0.088032,0.023896,0.118633,0.2000,0.0000,0.4799
0.5800,0.034818,-0.010036,-0.032649,0.042473,-0.125682,0.049821,0.009562,-0.008240,-0.028064,0.000389,-0.009873,0.002799,0.091562,-0.080485,-0.274571,0.002736,-0.093630,0.025500,0.134373,0.2000,0.0000,0.4799
0.6000,0.038427,-0.011430,-0.037577,0.048202,-0.141808,0.055430,0.010529,-0.009074,-0.030902,0.000428,-0.010871,0.003082,0.097256,-0.085491,-0.291673,0.002860,-0.099346,0.027160,0.151643,0.2000,0.0000,0.4799
0.6200,0.042259,-0.012979,-0.043085,0.054544,-0.159446,0.061451,0.011555,-0.009958,-0.033913,0.000470,-0.011931,0.003382,0.103073,-0.090605,-0.309144,0.002981,-0.105178,0.028877,0.170566,0.2000,0.0000,0.4799
0.6400,0.046319,-0.014693,-0.049228,0.061550,-0.178697,0.067898,0.012641,-0.010894,-0.037101,0.000514,-0.013052,0.003700,0.109010,-0.095823,-0.326973,0.003102,-0.111127,0.030653,0.191260,0.2000,0.0000,0.4799
0.6600,0.050610,-0.016588,-0.056065,0.069273,-0.199662,0.074783,0.013789,-0.011883,-0.040470,0.000561,-0.014237,0.004036,0.115063,-0.101142,-0.345146,0.003224,-0.117190,0.032490,0.213845,0.2000,0.0000,0.4799
0.6800,0.055106,-0.018662,-0.063662,0.077778,-0.223449,0.082122,0.014999,-0.012926,-0.044022,0.000610,-0.015487,0.004390,0.121234,-0.106560,-0.363650,0.003358,-0.123401,0.034376,0.239317,0.2000,0.0000,0.4799
0.7000,0.059838,-0.020902,-0.072090,0.086888,-0.249366,0.089939,0.016273,-0.014024,-0.047762,0.000662,-0.016803,0.004763,0.127504,-0.112069,-0.382472,0.003474,-0.129664,0.036304,0.267045,0.2000,0.0000,0.4799
0.7200,0.064832,-0.023359,-0.081424,0.096732,-0.276896,0.098237,0.017612,-0.015178,-0.051691,0.000716,-0.018185,0.005155,0.133884,-0.117671,-0.401601,0.003605,-0.136077,0.038276,0.296640,0.2000,0.0000,0.4799
0.7400,0.070075,-0.026074,-0.091750,0.107482,-0.306332,0.107015,0.019017,-0.016389,-0.055814,0.000773,-0.019635,0.005566,0.140370,-0.123361,-0.421024,0.003739,-0.142601,0.040300,0.328430,0.2000,0.0000,0.4799
0.7600,0.075563,-0.029071,-0.103160,0.119238,-0.337906,0.116276,0.020488,-0.017657,-0.060133,0.000833,-0.021155,0.005997,0.146963,-0.129134,-0.440729,0.003879,-0.149239,0.042366,0.362667,0.2000,0.0000,0.4799
0.7800,0.081291,-0.032369,-0.115756,0.132065,-0.371751,0.126017,0.022028,-0.018983,-0.064650,0.000895,-0.022744,0.006447,0.153669,-0.134990,-0.460703,0.004030,-0.155998,0.044466,0.399514,0.2000,0.0000,0.4799
0.8000,0.087260,-0.035990,-0.129650,0.146027,-0.407947,0.136233,0.023635,-0.020369,-0.069369,0.000961,-0.024404,0.006918,0.160491,-0.140924,-0.480935,0.004194,-0.162881,0.046584,0.439087,0.2000,0.0000,0.4799
0.8200,0.093469,-0.039958,-0.144969,0.161187,-0.446548,0.146912,0.025313,-0.021814,-0.074292,0.001029,-0.026136,0.007409,0.167437,-0.146933,-0.501409,0.004376,-0.169890,0.048701,0.481485,0.2000,0.0000,0.4799
0.8400,0.099916,-0.044299,-0.161850,0.177608,-0.487584,0.158035,0.027060,-0.023320,-0.079421,0.001100,-0.027940,0.007920,0.174513,-0.153013,-0.522114,0.004580,-0.177027,0.050794,0.526787,0.2000,0.0000,0.4799
0.8600,0.106599,-0.049044,-0.180449,0.195357,-0.531060,0.169574,0.028879,-0.024888,-0.084759,0.001174,-0.029818,0.008452,0.181727,-0.159162,-0.543036,0.004812,-0.184289,0.052836,0.575058,0.2000,0.0000,0.4799
0.8800,0.113514,-0.054224,-0.200940,0.214494,-0.576950,0.181494,0.030770,-0.026517,-0.090307,0.001251,-0.031770,0.009006,0.189085,-0.165375,-0.564162,0.005077,-0.191674,0.054796,0.626338,0.2000,0.0000,0.4799
0.9000,0.120655,-0.059874,-0.223517,0.235074,-0.625190,0.193748,0.032733,-0.028209,-0.096069,0.001331,-0.033797,0.009580,0.196592,-0.171647,-0.585477,0.005380,-0.199177,0.056647,0.680644,0.2000,0.0000,0.4799
0.9200,0.128018,-0.066028,-0.248402,0.257143,-0.675672,0.206282,0.034769,-0.029963,-0.102045,0.001413,-0.035900,0.010176,0.204246,-0.177975,-0.606968,0.005727,-0.206789,0.058363,0.737956,0.2000,0.0000,0.4799
0.9400,0.135591,-0.072723,-0.275842,0.280731,-0.728233,0.219029,0.036879,-0.031782,-0.108238,0.001499,-0.038078,0.010794,0.212040,-0.184354,-0.628624,0.006121,-0.214498,0.059927,0.798221,0.2000,0.0000,0.4799
0.9600,0.143363,-0.079997,-0.306119,0.305846,-0.782649,0.231919,0.039063,-0.033664,-0.114649,0.001588,-0.040334,0.011433,0.219960,-0.190780,-0.650431,0.006566,-0.222289,0.061333,0.861339,0.2000,0.0000,0.4799
0.9800,0.151318,-0.087886,-0.339554,0.332469,-0.838623,0.244869,0.041323,-0.035611,-0.121280,0.001680,-0.042666,0.012094,0.227982,-0.197247,-0.672380,0.007060,-0.230146,0.062591,0.927161,0.2000,0.0000,0.4799
1.0000,0.159433,-0.096425,-0.376508,0.360537,-0.895777,0.257798,0.043657,-0.037623,-0.128133,0.001775,-0.045077,0.012778,0.236078,-0.203752,-0.694460,0.007599,-0.238048,0.063727,0.995484,0.2000,0.0000,0.4799
1.0200,0.167677,-0.105644,-0.417392,0.389932,-0.953637,0.270619,0.046068,-0.039701,-0.135208,0.001873,-0.047566,0.013483,0.244217,-0.210291,-0.716663,0.008175,-0.245979,0.064782,1.066038,0.2000,0.0000,0.4799
1.0400,0.176007,-0.115571,-0.462663,0.420457,-1.011625,0.283247,0.048555,-0.041844,-0.142508,0.001974,-0.050134,0.014211,0.252365,-0.216861,-0.738982,0.008776,-0.253923,0.065806,1.138486,0.2000,0.0000,0.4799
1.0600,0.184366,-0.126220,-0.512831,0.451814,-1.069049,0.295598,0.051119,-0.044054,-0.150032,0.002078,-0.052781,0.014962,0.260493,-0.223460,-0.761412,0.009390,-0.261869,0.066852,1.212414,0.2000,0.0000,0.4799
1.0800,0.192671,-0.137601,-0.568450,0.483569,-1.125098,0.307591,0.053760,-0.046330,-0.157784,0.002185,-0.055508,0.015735,0.268579,-0.230084,-0.783945,0.010000,-0.269810,0.067969,1.287325,0.2000,0.0000,0.4799
1.1000,0.200811,-0.149708,-0.630103,0.515114,-1.178838,0.319140,0.056478,-0.048672,-0.165762,0.002296,-0.058315,0.016530,0.276609,-0.236733,-0.806575,0.010594,-0.277746,0.069195,1.362637,0.2000,0.0000,0.4799
1.1200,0.208634,-0.162523,-0.698373,0.545626,-1.229213,0.330152,0.059275,-0.051082,-0.173969,0.002410,-0.061202,0.017349,0.284576,-0.243404,-0.829296,0.011157,-0.285684,0.070554,1.437674,0.2000,0.0000,0.4799
1.1400,0.215936,-0.176019,-0.773797,0.574021,-1.275056,0.340514,0.062149,-0.053559,-0.182404,0.002526,-0.064170,0.018190,0.292479,-0.250094,-0.852098,0.011680,-0.293630,0.072052,1.511667,0.2000,0.0000,0.4799
1.1600,0.222449,-0.190162,-0.856786,0.598924,-1.315106,0.350079,0.065101,-0.056104,-0.191070,0.002646,-0.067218,0.019054,0.300322,-0.256803,-0.874973,0.012154,-0.301600,0.073685,1.583748,0.2000,0.0000,0.4799
1.1800,0.227835,-0.204922,-0.947528,0.618659,-1.348032,0.358656,0.068132,-0.058716,-0.199965,0.002770,-0.070348,0.019941,0.308111,-0.263526,-0.897909,0.012573,-0.309607,0.075437,1.652954,0.2000,0.0000,0.4799
1.2000,0.231672,-0.220285,-1.045869,0.631262,-1.372653,0.366003,0.071242,-0.061395,-0.209091,0.002896,-0.073558,0.020851,0.315882,-0.270261,-0.920896,0.012953,-0.317632,0.077251,1.718372,0.2000,0.0000,0.4799
1.2200,0.233503,-0.236251,-1.151195,0.634582,-1.388239,0.371870,0.074430,-0.064143,-0.218448,0.003026,-0.076850,0.021784,0.323584,-0.277011,-0.943925,0.013254,-0.325740,0.079214,1.779356,0.2000,0.0000,0.4799
1.2400,0.232917,-0.252858,-1.262397,0.626501,-1.393932,0.376080,0.077697,-0.066958,-0.228037,0.003158,-0.080223,0.022741,0.331270,-0.283769,-0.966983,0.013513,-0.333887,0.081231,1.835153,0.2000,0.0000,0.4799
1.2600,0.229530,-0.270190,-1.377904,0.605132,-1.388759,0.378553,0.081043,-0.069842,-0.237857,0.003294,-0.083678,0.023720,0.338961,-0.290532,-0.990063,0.013748,-0.342057,0.083291,1.885006,0.2000,0.0000,0.4799
1.2800,0.223194,-0.288423,-1.495922,0.569267,-1.368752,0.379312,0.084467,-0.072793,-0.247908,0.003434,-0.087214,0.024722,0.346718,-0.297284,-1.013158,0.014013,-0.350176,0.085232,1.926531,0.2000,0.0000,0.4799
1.3000,0.213078,-0.308014,-1.614449,0.518031,-1.326833,0.377550,0.087971,-0.075812,-0.258191,0.003576,-0.090832,0.025748,0.354360,-0.304050,-1.036251,0.014170,-0.358591,0.087471,1.955794,0.2000,0.0000,0.4799
1.3200,0.197956,-0.329366,-1.731588,0.450800,-1.270907,0.372848,0.091554,-0.078900,-0.268706,0.003722,-0.094531,0.026796,0.362123,-0.310796,-1.059390,0.014412,-0.366836,0.090001,1.979285,0.2000,0.0000,0.4799
1.3400,0.177862,-0.353159,-1.846466,0.368726,-1.202673,0.365740,0.095215,-0.082055,-0.279452,0.003871,-0.098311,0.027868,0.369937,-0.317526,-1.082527,0.014698,-0.375017,0.092556,2.000688,0.2000,0.0000,0.4799
1.3600,0.152699,-0.380578,-1.958823,0.273573,-1.123285,0.356617,0.098955,-0.085278,-0.290429,0.004023,-0.102173,0.028962,0.377785,-0.324243,-1.105640,0.015023,-0.383150,0.095098,2.023935,0.2000,0.0000,0.4799
1.3800,0.122481,-0.413403,-2.068951,0.167759,-1.035644,0.345715,0.102773,-0.088569,-0.301636,0.004178,-0.106116,0.030080,0.385655,-0.330954,-1.128707,0.015384,-0.391253,0.097605,2.054195,0.2000,0.0000,0.4799
1.4000,0.087812,-0.454008,-2.177595,0.054413,-0.944647,0.333308,0.106670,-0.091927,-0.313073,0.004336,-0.110139,0.031221,0.393538,-0.337666,-1.151700,0.015779,-0.399360,0.100043,2.097157,0.2000,0.0000,0.4799
1.4200,0.050221,-0.505177,-2.285693,-0.062914,-0.856587,0.319764,0.110646,-0.095353,-0.324741,0.004498,-0.114244,0.032384,0.401426,-0.344382,-1.174591,0.016200,-0.407507,0.102366,2.157578,0.2000,0.0000,0.4799
1.4400,0.006186,-0.573461,-2.380986,-0.183363,-0.788138,0.255877,0.114699,-0.098846,-0.336637,0.004663,-0.118429,0.033570,0.409193,-0.350658,-1.195090,0.017488,-0.418434,0.073389,2.224788,0.2000,0.0000,0.4799
1.4600,-0.049552,-0.684211,-2.400037,-0.306253,-0.784406,0.037370,0.118830,-0.102406,-0.348761,0.004830,-0.122694,0.034780,0.416934,-0.358337,-1.222176,0.016590,-0.424136,0.135670,2.260359,0.2000,0.0000,0.4799
1.4800,-0.065592,-0.818128,-2.385044,-0.373585,-0.858070,-0.023693,0.123038,-0.106033,-0.361113,0.005002,-0.127040,0.036011,0.424561,-0.365143,-1.245302,0.017062,-0.433020,0.143987,2.306568,0.2000,0.0000,0.4799
1.5000,-0.040983,-0.943118,-2.365740,-0.346466,-0.997992,0.093787,0.127324,-0.109727,-0.373691,0.005176,-0.131465,0.037266,0.432180,-0.370747,-1.266071,0.016904,-0.437158,0.119694,2.359839,0.2000,0.0000,0.4799
1.5200,-0.017810,-1.060639,-2.348129,-0.316193,-1.102736,0.233057,0.131687,-0.113486,-0.386495,0.005353,-0.135969,0.038542,0.439713,-0.377201,-1.288103,0.017560,-0.446289,0.115702,2.417296,0.2000,0.0000,0.4799
1.5400,0.000115,-1.173446,-2.330738,-0.297666,-1.218109,0.360079,0.136126,-0.117312,-0.399524,0.005534,-0.140553,0.039842,0.447391,-0.383565,-1.310497,0.018049,-0.453462,0.116749,2.493815,0.2000,0.0000,0.4799
1.5600,0.017609,-1.282578,-2.313976,-0.288420,-1.320079,0.477073,0.140641,-0.121203,-0.412776,0.005717,-0.145215,0.041163,0.455005,-0.389950,-1.332780,0.018566,-0.460760,0.117909,2.575913,0.2000,0.0000,0.4799
1.5800,0.036675,-1.389856,-2.298454,-0.284480,-1.407457,0.591850,0.145232,-0.125159,-0.426250,0.005904,-0.149955,0.042507,0.462576,-0.396308,-1.354940,0.019105,-0.467895,0.118740,2.661540,0.2000,0.0000,0.4799
1.6000,0.057987,-1.496553,-2.284316,-0.283740,-1.484886,0.708809,0.149898,-0.129181,-0.439946,0.006093,-0.154773,0.043873,0.470114,-0.402614,-1.376968,0.019700,-0.474746,0.118869,2.752308,0.2000,0.0000,0.4799
1.6200,0.081965,-1.603309,-2.271352,-0.285514,-1.555902,0.828380,0.154640,-0.133267,-0.453861,0.006286,-0.159668,0.045260,0.477618,-0.408878,-1.398896,0.020337,-0.481213,0.118717,2.849118,0.2000,0.0000,0.4799
1.6400,0.109082,-1.710363,-2.259306,-0.289720,-1.622608,0.949514,0.159455,-0.137416,-0.467994,0.006482,-0.164640,0.046670,0.485090,-0.415098,-1.420734,0.021009,-0.487159,0.118401,2.951954,0.2000,0.0000,0.4799
1.6600,0.139923,-1.817697,-2.248021,-0.296522,-1.686264,1.070841,0.164344,-0.141630,-0.482344,0.006681,-0.169689,0.048101,0.492534,-0.421272,-1.442487,0.021709,-0.492408,0.117934,3.060285,0.2000,0.0000,0.4799
1.6800,0.175193,-1.925106,-2.237501,-0.306248,-1.747348,1.190936,0.169307,-0.145907,-0.496909,0.006882,-0.174813,0.049553,0.499954,-0.427395,-1.464157,0.022434,-0.496771,0.117286,3.173156,0.2000,0.0000,0.4799
1.7000,0.215695,-2.032246,-2.227897,-0.319423,-1.805829,1.308152,0.174342,-0.150246,-0.511687,0.007087,-0.180012,0.051027,0.507364,-0.433459,-1.485746,0.023182,-0.499957,0.116392,3.289265,0.2000,0.0000,0.4799
1.7200,0.262292,-2.138666,-2.219470,-0.336858,-1.861313,1.420468,0.179450,-0.154648,-0.526677,0.007295,-0.185285,0.052522,0.514776,-0.439460,-1.507260,0.023931,-0.501671,0.115394,3.406982,0.2000,0.0000,0.4799
1.7400,0.315819,-2.243802,-2.212529,-0.359716,-1.913342,1.526384,0.184629,-0.159111,-0.541877,0.007505,-0.190633,0.054038,0.522199,-0.445392,-1.528695,0.024674,-0.501683,0.114247,3.524855,0.2000,0.0000,0.4799
1.7600,0.376938,-2.346918,-2.207282,-0.389435,-1.962039,1.624862,0.189878,-0.163635,-0.557286,0.007719,-0.196053,0.055574,0.529625,-0.451250,-1.550046,0.025418,-0.499863,0.112899,3.641882,0.2000,0.0000,0.4799
1.7800,0.445900,-2.447033,-2.203736,-0.427490,-2.008435,1.714905,0.195199,-0.168220,-0.572900,0.007935,-0.201547,0.057131,0.537039,-0.457026,-1.571309,0.026175,-0.496127,0.111352,3.757408,0.2000,0.0000,0.4799
1.8000,0.522200,-2.542844,-2.201638,-0.474894,-2.054504,1.793512,0.200588,-0.172865,-0.588719,0.008154,-0.207112,0.058709,0.544329,-0.462771,-1.592321,0.026702,-0.492204,0.112633,3.870075,0.2000,0.0000,0.4799
1.8200,0.565752,-2.590022,-2.204174,-0.512270,-2.090342,1.843370,0.206047,-0.177569,-0.604740,0.008376,-0.212748,0.060306,0.551234,-0.468354,-1.613439,0.028889,-0.486609,0.099516,3.934877,0.2000,0.0000,0.4799
1.8400,0.573281,-2.589934,-2.224395,-0.537007,-2.125285,1.844364,0.211574,-0.182332,-0.620960,0.008601,-0.218454,0.061924,0.557866,-0.474239,-1.633011,0.028932,-0.493732,0.109935,3.950843,0.2000,0.0000,0.4799
1.8600,0.577920,-2.585230,-2.258436,-0.568424,-2.169867,1.833879,0.217168,-0.187153,-0.637379,0.008828,-0.224230,0.063561,0.564575,-0.479834,-1.652794,0.030140,-0.495044,0.111871,3.970074,0.2000,0.0000,0.4799
1.8800,0.582753,-2.581446,-2.299702,-0.607954,-2.216224,1.826928,0.222829,-0.192031,-0.653994,0.009058,-0.230075,0.065218,0.570943,-0.485388,-1.672298,0.031661,-0.497112,0.112732,3.997037,0.2000,0.0000,0.4799
1.9000,0.585820,-2.578903,-2.332317,-0.652987,-2.260057,1.835244,0.228556,-0.196967,-0.670801,0.009291,-0.235988,0.066894,0.577313,-0.490786,-1.691844,0.033455,-0.494721,0.111709,4.027955,0.2000,0.0000,0.4799
1.9200,0.584580,-2.576809,-2.332792,-0.696154,-2.292448,1.889494,0.234347,-0.201958,-0.687800,0.009526,-0.241968,0.068589,0.579868,-0.498222,-1.707449,0.030587,-0.554985,0.133017,4.060385,0.2000,0.0000,0.4799
1.9400,0.583187,-2.574811,-2.327168,-0.729793,-2.356603,1.983950,0.240203,-0.207004,-0.704987,0.009764,-0.248015,0.070303,0.587889,-0.502378,-1.729472,0.035760,-0.499816,0.111916,4.124409,0.2000,0.0000,0.4799
1.9600,0.582024,-2.573343,-2.323648,-0.743703,-2.408367,2.041657,0.246123,-0.212106,-0.722360,0.010005,-0.254127,0.072036,0.594198,-0.507669,-1.748437,0.037264,-0.486113,0.112422,4.164208,0.2000,0.0000,0.4799
1.9800,0.580904,-2.572228,-2.322018,-0.741180,-2.410131,2.054047,0.252105,-0.217261,-0.739917,0.010248,-0.260303,0.073787,0.599868,-0.513450,-1.765817,0.036085,-0.508925,0.119022,4.155100,0.2000,0.0000,0.4799
2.0000,0.579914,-2.571174,-2.319273,-0.736284,-2.398882,2.057941,0.258148,-0.222469,-0.757654,0.010494,-0.266543,0.075556,0.606255,-0.518642,-1.783856,0.036060,-0.514038,0.121847,4.134368,0.2000,0.0000,0.4799
2.0200,0.579147,-2.570198,-2.316032,-0.734425,-2.387672,2.062025,0.264252,-0.227730,-0.775570,0.010742,-0.272846,0.077342,0.611720,-0.524151,-1.801016,0.035473,-0.534103,0.124667,4.114130,0.2000,0.0000,0.4799
2.0400,0.578589,-2.569384,-2.314225,-0.733374,-2.380433,2.065783,0.270417,-0.233042,-0.793662,0.010993,-0.279211,0.079146,0.617683,-0.529253,-1.818446,0.035586,-0.540736,0.126442,4.096525,0.2000,0.0000,0.4799
2.0600,0.578196,-2.568715,-2.312879,-0.733004,-2.375895,2.069911,0.276640,-0.238405,-0.811926,0.011246,-0.285636,0.080968,0.623538,-0.534275,-1.835605,0.035750,-0.546844,0.128034,4.080824,0.2000,0.0000,0.4799
2.0800,0.577977,-2.568164,-2.311802,-0.733049,-2.373131,2.074497,0.282920,-0.243818,-0.830360,0.011501,-0.292121,0.082806,0.629287,-0.539216,-1.852485,0.035945,-0.552572,0.129481,4.066461,0.2000,0.0000,0.4799
2.1000,0.577920,-2.567713,-2.310944,-0.733343,-2.371270,2.079198,0.289258,-0.249280,-0.848961,0.011758,-0.298665,0.084661,0.634930,-0.544077,-1.869072,0.036140,-0.558218,0.130865,4.052764,0.2000,0.0000,0.4799
2.1200,0.578004,-2.567342,-2.310271,-0.733781,-2.369735,2.083712,0.295652,-0.254790,-0.867727,0.012018,-0.305267,0.086532,0.640465,-0.548856,-1.885353,0.036320,-0.563967,0.132341,4.039248,0.2000,0.0000,0.4799
2.1400,0.578202,-2.567036,-2.309742,-0.734301,-2.368284,2.087931,0.302101,-0.260347,-0.886654,0.012281,-0.311925,0.088420,0.645896,-0.553550,-1.901332,0.036494,-0.569702,0.133794,4.025701,0.2000,0.0000,0.4799
2.1600,0.578490,-2.566783,-2.309320,-0.734878,-2.366845,2.091947,0.308604,-0.265951,-0.905739,0.012545,-0.318640,0.090323,0.651223,-0.558156,-1.917007,0.036663,-0.575374,0.135237,4.012105,0.2000,0.0000,0.4799
2.1800,0.578846,-2.566574,-2.308967,-0.735501,-2.365408,2.095846,0.315159,-0.271601,-0.924980,0.012811,-0.325408,0.092242,0.656444,-0.562671,-1.932379,0.036833,-0.580924,0.136610,3.998482,0.2000,0.0000,0.4799
2.2000,0.579257,-2.566401,-2.308665,-0.736162,-2.363979,2.099660,0.321767,-0.277295,-0.944372,0.013080,-0.332231,0.094176,0.661562,-0.567096,-1.947437,0.036993,-0.586394,0.138001,3.984838,0.2000,0.0000,0.4799
2.2200,0.579712,-2.566257,-2.308403,-0.736856,-2.362556,2.103399,0.328425,-0.283033,-0.963914,0.013351,-0.339106,0.096124,0.666572,-0.571427,-1.962181,0.037152,-0.591751,0.139346,3.971173,0.2000,0.0000,0.4799
2.2400,0.580203,-2.566137,-2.308172,-0.737575,-2.361139,2.107071,0.335133,-0.288814,-0.983602,0.013623,-0.346032,0.098088,0.671473,-0.575665,-1.976605,0.037307,-0.597002,0.140663,3.957489,0.2000,0.0000,0.4799
2.2600,0.580721,-2.566038,-2.307967,-0.738313,-2.359726,2.110677,0.341890,-0.294637,-1.003432,0.013898,-0.353008,0.100065,0.676264,-0.579808,-1.990705,0.037455,-0.602162,0.141974,3.943782,0.2000,0.0000,0.4799
2.2800,0.581261,-2.565955,-2.307778,-0.739069,-2.358320,2.114244,0.348694,-0.300500,-1.023401,0.014175,-0.360033,0.102057,0.680943,-0.583854,-2.004478,0.037601,-0.607201,0.143238,3.930066,0.2000,0.0000,0.4799
2.3000,0.581818,-2.565887,-2.307606,-0.739833,-2.356916,2.117751,0.355544,-0.306404,-1.043507,0.014453,-0.367106,0.104062,0.685510,-0.587803,-2.017921,0.037742,-0.612129,0.144466,3.916330,0.2000,0.0000,0.4799
2.3200,0.582394,-2.565828,-2.307452,-0.740606,-2.355504,2.121205,0.362440,-0.312346,-1.063745,0.014733,-0.374226,0.106080,0.689963,-0.591654,-2.031028,0.037878,-0.616950,0.145670,3.902575,0.2000,0.0000,0.4799
2.3400,0.582989,-2.565775,-2.307316,-0.741388,-2.354083,2.124625,0.369379,-0.318327,-1.084113,0.015015,-0.381392,0.108111,0.694299,-0.595406,-2.043796,0.038011,-0.621669,0.146832,3.888813,0.2000,0.0000,0.4799
2.3600,0.583596,-2.565729,-2.307190,-0.742174,-2.352658,2.127999,0.376362,-0.324344,-1.104607,0.015299,-0.388601,0.110155,0.698521,-0.599057,-2.056221,0.038136,-0.626268,0.147989,3.875041,0.2000,0.0000,0.4799
2.3800,0.584212,-2.565689,-2.307074,-0.742961,-2.351230,2.131329,0.383386,-0.330398,-1.125223,0.015585,-0.395854,0.112211,0.702625,-0.602607,-2.068301,0.038257,-0.630746,0.149101,3.861264,0.2000,0.0000,0.4799
2.4000,0.584834,-2.565656,-2.306964,-0.743746,-2.349799,2.134613,0.390451,-0.336486,-1.145958,0.015872,-0.403149,0.114278,0.706610,-0.606054,-2.080031,0.038373,-0.635123,0.150194,3.847484,0.2000,0.0000,0.4799
2.4200,0.585457,-2.565629,-2.306859,-0.744523,-2.348369,2.137836,0.397555,-0.342609,-1.166809,0.016161,-0.410484,0.116358,0.710476,-0.609397,-2.091410,0.038484,-0.639366,0.151236,3.833699,0.2000,0.0000,0.4799
2.4400,0.586081,-2.565607,-2.306758,-0.745292,-2.346940,2.141006,0.404698,-0.348764,-1.187772,0.016451,-0.417859,0.118448,0.714221,-0.612637,-2.102432,0.038590,-0.643504,0.152273,3.819917,0.2000,0.0000,0.4799
2.4600,0.586701,-2.565591,-2.306659,-0.746049,-2.345515,2.144109,0.411877,-0.354951,-1.208843,0.016743,-0.425272,0.120549,0.717844,-0.615771,-2.113096,0.038692,-0.647507,0.153248,3.806136,0.2000,0.0000,0.4799
2.4800,0.587318,-2.565579,-2.306564,-0.746796,-2.344093,2.147155,0.419092,-0.361169,-1.230019,0.017036,-0.432721,0.122661,0.721344,-0.618798,-2.123397,0.038787,-0.651402,0.154221,3.792364,0.2000,0.0000,0.4799
2.5000,0.587929,-2.565571,-2.306469,-0.747528,-2.342679,2.150131,0.426342,-0.367417,-1.251296,0.017331,-0.440207,0.124783,0.724722,-0.621719,-2.133336,0.038879,-0.655159,0.155129,3.778602,0.2000,0.0000,0.4799
2.5200,0.588534,-2.565567,-2.306378,-0.748248,-2.341270,2.153050,0.433625,-0.373693,-1.272671,0.017627,-0.447726,0.126915,0.727974,-0.624533,-2.142906,0.038965,-0.658807,0.156034,3.764859,0.2000,0.0000,0.4799
2.5400,0.589131,-2.565567,-2.306287,-0.748953,-2.339872,2.155899,0.440939,-0.379996,-1.294139,0.017924,-0.455279,0.129055,0.731101,-0.627237,-2.152107,0.039046,-0.662319,0.156885,3.751134,0.2000,0.0000,0.4799
2.5600,0.589722,-2.565568,-2.306199,-0.749647,-2.338479,2.158698,0.448285,-0.386327,-1.315697,0.018223,-0.462863,0.131205,0.734101,-0.629833,-2.160935,0.039122,-0.665710,0.157707,3.737443,0.2000,0.0000,0.4799
2.5800,0.590308,-2.565570,-2.306114,-0.750331,-2.337091,2.161446,0.455660,-0.392682,-1.337342,0.018523,-0.470478,0.133364,0.736973,-0.632319,-2.169388,0.039193,-0.668984,0.158508,3.723787,0.2000,0.0000,0.4799
2.6000,0.590891,-2.565572,-2.306033,-0.751006,-2.335709,2.164140,0.463063,-0.399062,-1.359070,0.018824,-0.478121,0.135530,0.739718,-0.634694,-2.177464,0.039258,-0.672136,0.159259,3.710172,0.2000,0.0000,0.4799
2.6200,0.591461,-2.565575,-2.305949,-0.751682,-2.334352,2.166803,0.470492,-0.405465,-1.380876,0.019126,-0.485793,0.137705,0.742332,-0.636959,-2.185160,0.039318,-0.675169,0.159987,3.696623,0.2000,0.0000,0.4799
2.6400,0.592018,-2.565580,-2.305863,-0.752349,-2.333013,2.169415,0.477948,-0.411890,-1.402757,0.019429,-0.493491,0.139887,0.744819,-0.639111,-2.192475,0.039374,-0.678052,0.160698,3.683132,0.2000,0.0000,0.4799
2.6600,0.592567,-2.565584,-2.305782,-0.752998,-2.331672,2.171967,0.485427,-0.418336,-1.424709,0.019733,-0.501214,0.142076,0.747174,-0.641151,-2.199405,0.039423,-0.680827,0.161392,3.669686,0.2000,0.0000,0.4799
2.6800,0.593110,-2.565588,-2.305708,-0.753631,-2.330327,2.174458,0.492930,-0.424801,-1.446729,0.020038,-0.508960,0.144272,0.749399,-0.643078,-2.205948,0.039466,-0.683480,0.162067,3.656288,0.2000,0.0000,0.4799
2.7000,0.593649,-2.565592,-2.305638,-0.754250,-2.328982,2.176897,0.500454,-0.431286,-1.468812,0.020344,-0.516729,0.146474,0.751492,-0.644891,-2.212105,0.039504,-0.686000,0.162710,3.642952,0.2000,0.0000,0.4799
2.7200,0.594182,-2.565596,-2.305571,-0.754858,-2.327642,2.179289,0.507998,-0.437787,-1.490955,0.020650,-0.524519,0.148682,0.753454,-0.646591,-2.217872,0.039537,-0.688385,0.163317,3.629686,0.2000,0.0000,0.4799
2.7400,0.594710,-2.565599,-2.305505,-0.755454,-2.326308,2.181635,0.515562,-0.444305,-1.513153,0.020958,-0.532328,0.150896,0.755282,-0.648176,-2.223250,0.039565,-0.690638,0.163887,3.616497,0.2000,0.0000,0.4799
2.7600,0.595232,-2.565602,-2.305441,-0.756040,-2.324983,2.183937,0.523143,-0.450839,-1.535403,0.021266,-0.540156,0.153115,0.756978,-0.649646,-2.228237,0.039588,-0.692751,0.164417,3.603391,0.2000,0.0000,0.4799
2.7800,0.595749,-2.565605,-2.305378,-0.756614,-2.323664,2.186195,0.530740,-0.457386,-1.557701,0.021575,-0.548000,0.155339,0.758541,-0.651001,-2.232831,0.039605,-0.694728,0.164909,3.590372,0.2000,0.0000,0.4799
2.8000,0.596260,-2.565607,-2.305316,-0.757178,-2.322354,2.188409,0.538352,-0.463946,-1.580043,0.021884,-0.555860,0.157567,0.759970,-0.652240,-2.237031,0.039618,-0.696568,0.165361,3.577445,0.2000,0.0000,0.4799
2.8200,0.596765,-2.565610,-2.305255,-0.757731,-2.321050,2.190580,0.545978,-0.470518,-1.602424,0.022194,-0.563734,0.159799,0.761264,-0.653363,-2.240836,0.039625,-0.698270,0.165775,3.564615,0.2000,0.0000,0.4799
2.8400,0.597265,-2.565613,-2.305195,-0.758274,-2.319755,2.192709,0.553617,-0.477100,-1.624842,0.022505,-0.571620,0.162034,0.762424,-0.654370,-2.244245,0.039627,-0.699834,0.166150,3.551887,0.2000,0.0000,0.4799
2.8600,0.597759,-2.565615,-2.305136,-0.758806,-2.318468,2.194796,0.561266,-0.483692,-1.647292,0.022816,-0.579518,0.164273,0.763449,-0.655261,-2.247257,0.039623,-0.701259,0.166485,3.539265,0.2000,0.0000,0.4799
2.8800,0.598247,-2.565617,-2.305077,-0.759327,-2.317189,2.196843,0.568924,-0.490292,-1.669769,0.023127,-0.587426,0.166514,0.764339,-0.656035,-2.249871,0.039615,-0.702546,0.166781,3.526755,0.2000,0.0000,0.4799
2.9000,0.598729,-2.565619,-2.305019,-0.759838,-2.315919,2.198849,0.576591,-0.496900,-1.692271,0.023439,-0.595342,0.168758,0.765093,-0.656691,-2.252086,0.039601,-0.703693,0.167038,3.514360,0.2000,0.0000,0.4799
2.9200,0.599206,-2.565621,-2.304962,-0.760339,-2.314658,2.200816,0.584265,-0.503513,-1.714793,0.023751,-0.603265,0.171004,0.765711,-0.657231,-2.253903,0.039582,-0.704701,0.167256,3.502087,0.2000,0.0000,0.4799
2.9400,0.599677,-2.565623,-2.304906,-0.760830,-2.313406,2.202744,0.591944,-0.510130,-1.737331,0.024063,-0.611194,0.173252,0.766194,-0.657653,-2.255320,0.039558,-0.705568,0.167433,3.489939,0.2000,0.0000,0.4799
2.9600,0.600143,-2.565625,-2.304851,-0.761311,-2.312162,2.204631,0.599627,-0.516752,-1.759880,0.024375,-0.619127,0.175501,0.766541,-0.657958,-2.256336,0.039528,-0.706296,0.167572,3.477918,0.2000,0.0000,0.4799
2.9800,0.600603,-2.565627,-2.304796,-0.761782,-2.310929,2.206480,0.607313,-0.523375,-1.782438,0.024688,-0.627063,0.177750,0.766752,-0.658146,-2.256953,0.039494,-0.706883,0.167671,3.466032,0.2000,0.0000,0.4799
3.0000,0.601057,-2.565628,-2.304742,-0.762243,-2.309705,2.208295,0.615000,-0.530000,-1.805000,0.025000,-0.635000,0.180000,0.766826,-0.658216,-2.257170,0.039454,-0.707328,0.167729,3.454285,0.2000,0.0000,0.4799
3.0200,0.601506,-2.565630,-2.304688,-0.762695,-2.308491,2.210073,0.622687,-0.536625,-1.827562,0.025312,-0.642937,0.182250,0.766765,-0.658169,-2.256986,0.039409,-0.707635,0.167749,3.442681,0.2000,0.0000,0.4799
3.0400,0.601950,-2.565631,-2.304635,-0.763138,-2.307287,2.211816,0.630373,-0.543248,-1.850120,0.025625,-0.650873,0.184499,0.766567,-0.658004,-2.256401,0.039358,-0.707800,0.167729,3.431223,0.2000,0.0000,0.4799
3.0600,0.602387,-2.565632,-2.304581,-0.763572,-2.306092,2.213526,0.638056,-0.549870,-1.872669,0.025937,-0.658806,0.186748,0.766233,-0.657721,-2.255417,0.039303,-0.707825,0.167669,3.419915,0.2000,0.0000,0.4799
3.0800,0.602819,-2.565633,-2.304527,-0.763997,-2.304906,2.215204,0.645735,-0.556487,-1.895207,0.026249,-0.666735,0.188996,0.765763,-0.657321,-2.254032,0.039242,-0.707708,0.167570,3.408763,0.2000,0.0000,0.4799
3.1000,0.603246,-2.565634,-2.304471,-0.764413,-2.303729,2.216853,0.653409,-0.563100,-1.917729,0.026561,-0.674658,0.191242,0.765158,-0.656804,-2.252248,0.039176,-0.707451,0.167430,3.397770,0.2000,0.0000,0.4799
3.1200,0.603667,-2.565634,-2.304417,-0.764820,-2.302560,2.218469,0.661076,-0.569708,-1.940231,0.026873,-0.682574,0.193486,0.764416,-0.656170,-2.250065,0.039104,-0.707055,0.167250,3.386937,0.2000,0.0000,0.4799
3.1400,0.604083,-2.565635,-2.304363,-0.765219,-2.301400,2.220053,0.668734,-0.576308,-1.962708,0.027184,-0.690482,0.195727,0.763539,-0.655419,-2.247483,0.039028,-0.706518,0.167032,3.376268,0.2000,0.0000,0.4799
3.1600,0.604494,-2.565635,-2.304309,-0.765610,-2.300248,2.221609,0.676383,-0.582900,-1.985158,0.027495,-0.698380,0.197966,0.762527,-0.654551,-2.244504,0.038946,-0.705841,0.166774,3.365768,0.2000,0.0000,0.4799
3.1800,0.604901,-2.565635,-2.304255,-0.765993,-2.299105,2.223138,0.684022,-0.589482,-2.007576,0.027806,-0.706266,0.200201,0.761379,-0.653566,-2.241127,0.038859,-0.705024,0.166476,3.355440,0.2000,0.0000,0.4799
3.2000,0.605302,-2.565635,-2.304202,-0.766369,-2.297969,2.224637,0.691648,-0.596054,-2.029957,0.028116,-0.714140,0.202433,0.760097,-0.652465,-2.237355,0.038766,-0.704067,0.166139,3.345286,0.2000,0.0000,0.4799
3.2200,0.605699,-2.565634,-2.304149,-0.766737,-2.296841,2.226108,0.699260,-0.602614,-2.052299,0.028425,-0.722000,0.204661,0.758680,-0.651248,-2.233187,0.038669,-0.702972,0.165763,3.335308,0.2000,0.0000,0.4799
3.2400,0.606092,-2.565633,-2.304097,-0.767098,-2.295721,2.227551,0.706857,-0.609161,-2.074597,0.028734,-0.729844,0.206885,0.757129,-0.649916,-2.228625,0.038566,-0.701737,0.165347,3.325510,0.2000,0.0000,0.4799
3.2600,0.606479,-2.565633,-2.304046,-0.767452,-2.294609,2.228969,0.714438,-0.615695,-2.096847,0.029042,-0.737672,0.209104,0.755445,-0.648468,-2.223671,0.038459,-0.700363,0.164892,3.315894,0.2000,0.0000,0.4799
3.2800,0.606863,-2.565632,-2.303994,-0.767799,-2.293506,2.230361,0.722002,-0.622213,-2.119045,0.029350,-0.745481,0.211318,0.753627,-0.646906,-2.218325,0.038346,-0.698851,0.164398,3.306463,0.2000,0.0000,0.4799
3.3000,0.607242,-2.565630,-2.303943,-0.768140,-2.292410,2.231728,0.729546,-0.628714,-2.141188,0.029656,-0.753271,0.213526,0.751677,-0.645228,-2.212590,0.038228,-0.697201,0.163865,3.297220,0.2000,0.0000,0.4799
3.3200,0.607616,-2.565629,-2.303891,-0.768474,-2.291321,2.233072,0.737070,-0.635199,-2.163271,0.029962,-0.761040,0.215728,0.749595,-0.643437,-2.206466,0.038105,-0.695413,0.163294,3.288165,0.2000,0.0000,0.4799
3.3400,0.607986,-2.565628,-2.303840,-0.768801,-2.290240,2.234393,0.744573,-0.641664,-2.185291,0.030267,-0.768786,0.217924,0.747381,-0.641533,-2.199955,0.037977,-0.693489,0.162684,3.279302,0.2000,0.0000,0.4799
3.3600,0.608351,-2.565626,-2.303789,-0.769122,-2.289165,2.235692,0.752052,-0.648110,-2.207243,0.030571,-0.776509,0.220113,0.745035,-0.639515,-2.193059,0.037844,-0.691430,0.162035,3.270632,0.2000,0.0000,0.4799
3.3800,0.608713,-2.565624,-2.303737,-0.769438,-2.288097,2.236969,0.759508,-0.654535,-2.229124,0.030874,-0.784207,0.222295,0.742560,-0.637385,-2.185780,0.037706,-0.689234,0.161348,3.262156,0.2000,0.0000,0.4799
3.4000,0.609070,-2.565622,-2.303686,-0.769747,-2.287035,2.238226,0.766937,-0.660938,-2.250930,0.031176,-0.791879,0.224470,0.739954,-0.635143,-2.178120,0.037562,-0.686904,0.160623,3.253876,0.2000,0.0000,0.4799
3.4200,0.609423,-2.565619,-2.303635,-0.770051,-2.285979,2.239463,0.774340,-0.667318,-2.272658,0.031477,-0.799522,0.226636,0.737220,-0.632789,-2.170081,0.037414,-0.684440,0.159861,3.245794,0.2000,0.0000,0.4799
3.4400,0.609772,-2.565617,-2.303583,-0.770349,-2.284928,2.240681,0.781715,-0.673673,-2.294303,0.031777,-0.807137,0.228795,0.734357,-0.630325,-2.161665,0.037261,-0.681842,0.159060,3.237910,0.2000,0.0000,0.4799
3.4600,0.610118,-2.565614,-2.303532,-0.770642,-2.283882,2.241881,0.789061,-0.680004,-2.315861,0.032076,-0.814721,0.230945,0.731367,-0.627751,-2.152874,0.037103,-0.679112,0.158222,3.230225,0.2000,0.0000,0.4799
3.4800,0.610459,-2.565611,-2.303480,-0.770930,-2.282841,2.243063,0.796375,-0.686307,-2.337329,0.032373,-0.822274,0.233085,0.728250,-0.625068,-2.143712,0.036940,-0.676250,0.157347,3.222740,0.2000,0.0000,0.4799
3.5000,0.610797,-2.565608,-2.303427,-0.771213,-2.281804,2.244229,0.803658,-0.692583,-2.358704,0.032669,-0.829793,0.235217,0.725007,-0.622276,-2.134179,0.036772,-0.673257,0.156435,3.215457,0.2000,0.0000,0.4799
3.5200,0.611131,-2.565604,-2.303375,-0.771491,-2.280771,2.245379,0.810908,-0.698831,-2.379981,0.032964,-0.837279,0.237339,0.721639,-0.619377,-2.124280,0.036600,-0.670134,0.155486,3.208374,0.2000,0.0000,0.4799
3.5400,0.611461,-2.565601,-2.303322,-0.771765,-2.279742,2.246513,0.818123,-0.705049,-2.401157,0.033257,-0.844728,0.239451,0.718147,-0.616370,-2.114016,0.036422,-0.666882,0.154500,3.201493,0.2000,0.0000,0.4799
3.5600,0.611787,-2.565597,-2.303268,-0.772034,-2.278715,2.247633,0.825302,-0.711236,-2.422228,0.033549,-0.852141,0.241552,0.714532,-0.613257,-2.103391,0.036240,-0.663502,0.153479,3.194814,0.2000,0.0000,0.4799
3.5800,0.612110,-2.565593,-2.303215,-0.772299,-2.277691,2.248740,0.832445,-0.717391,-2.443191,0.033839,-0.859516,0.243642,0.710795,-0.610039,-2.092407,0.036053,-0.659995,0.152421,3.188336,0.2000,0.0000,0.4799
3.6000,0.612430,-2.565588,-2.303161,-0.772559,-2.276669,2.249833,0.839549,-0.723514,-2.464042,0.034128,-0.866851,0.245722,0.706936,-0.606717,-2.081068,0.035862,-0.656363,0.151327,3.182059,0.2000,0.0000,0.4799
3.6200,0.612747,-2.565584,-2.303106,-0.772816,-2.275649,2.250914,0.846614,-0.729602,-2.484777,0.034415,-0.874146,0.247789,0.702958,-0.603291,-2.069376,0.035666,-0.652605,0.150198,3.175983,0.2000,0.0000,0.4799
3.6400,0.613060,-2.565579,-2.303051,-0.773069,-2.274630,2.251983,0.853638,-0.735656,-2.505393,0.034701,-0.881399,0.249845,0.698861,-0.599762,-2.057335,0.035465,-0.648723,0.149034,3.170107,0.2000,0.0000,0.4799
3.6600,0.613370,-2.565574,-2.302996,-0.773319,-2.273611,2.253041,0.860621,-0.741673,-2.525887,0.034985,-0.888608,0.251889,0.694646,-0.596133,-2.044948,0.035260,-0.644719,0.147835,3.164431,0.2000,0.0000,0.4799
3.6800,0.613676,-2.565569,-2.302940,-0.773565,-2.272593,2.254089,0.867560,-0.747654,-2.546255,0.035267,-0.895774,0.253920,0.690314,-0.592402,-2.032220,0.035050,-0.640593,0.146602,3.158954,0.2000,0.0000,0.4799
3.7000,0.613980,-2.565563,-2.302884,-0.773808,-2.271574,2.255127,0.874456,-0.753596,-2.566493,0.035547,-0.902894,0.255938,0.685867,-0.588572,-2.019152,0.034836,-0.636347,0.145335,3.153674,0.2000,0.0000,0.4799
3.7200,0.614281,-2.565558,-2.302827,-0.774048,-2.270554,2.256156,0.881306,-0.759500,-2.586599,0.035825,-0.909967,0.257943,0.681306,-0.584644,-2.005750,0.034617,-0.631980,0.144034,3.148590,0.2000,0.0000,0.4799
3.7400,0.614579,-2.565552,-2.302770,-0.774285,-2.269534,2.257176,0.888110,-0.765363,-2.606568,0.036102,-0.916992,0.259935,0.676632,-0.580618,-1.992016,0.034394,-0.627491,0.142698,3.143701,0.2000,0.0000,0.4799
3.7600,0.614874,-2.565545,-2.302712,-0.774519,-2.268512,2.258188,0.894867,-0.771186,-2.626398,0.036377,-0.923968,0.261912,0.671846,-0.576496,-1.977955,0.034167,-0.622887,0.141331,3.139006,0.2000,0.0000,0.4799
3.7800,0.615166,-2.565539,-2.302653,-0.774750,-2.267489,2.259192,0.901575,-0.776967,-2.646086,0.036649,-0.930894,0.263876,0.666951,-0.572279,-1.963571,0.033936,-0.618168,0.139930,3.134503,0.2000,0.0000,0.4799
3.8000,0.615456,-2.565533,-2.302594,-0.774979,-2.266462,2.260191,0.908233,-0.782705,-2.665628,0.036920,-0.937769,0.265824,0.661946,-0.567969,-1.948868,0.033700,-0.613336,0.138497,3.130190,0.2000,0.0000,0.4799
3.8200,0.615743,-2.565526,-2.302534,-0.775206,-2.265432,2.261183,0.914841,-0.788399,-2.685020,0.037189,-0.944592,0.267758,0.656834,-0.563566,-1.933849,0.033460,-0.608392,0.137032,3.126064,0.2000,0.0000,0.4799
3.8400,0.616028,-2.565519,-2.302474,-0.775431,-2.264397,2.262170,0.921396,-0.794049,-2.704261,0.037455,-0.951360,0.269677,0.651617,-0.559071,-1.918520,0.033217,-0.603338,0.135536,3.122125,0.2000,0.0000,0.4799
3.8600,0.616310,-2.565511,-2.302413,-0.775653,-2.263358,2.263152,0.927899,-0.799653,-2.723346,0.037719,-0.958075,0.271580,0.646295,-0.554487,-1.902885,0.032969,-0.598174,0.134009,3.118370,0.2000,0.0000,0.4799
3.8800,0.616590,-2.565504,-2.302351,-0.775874,-2.262314,2.264131,0.934348,-0.805210,-2.742273,0.037982,-0.964733,0.273468,0.640870,-0.549814,-1.886948,0.032717,-0.592904,0.132451,3.114796,0.2000,0.0000,0.4799
3.9000,0.616867,-2.565496,-2.302288,-0.776094,-2.261265,2.265105,0.940742,-0.810720,-2.761039,0.038242,-0.971335,0.275339,0.635344,-0.545054,-1.870714,0.032461,-0.587528,0.130864,3.111401,0.2000,0.0000,0.4799
3.9200,0.617142,-2.565488,-2.302225,-0.776312,-2.260209,2.266077,0.947080,-0.816182,-2.779640,0.038499,-0.977879,0.277194,0.629718,-0.540207,-1.854188,0.032202,-0.582048,0.129246,3.108182,0.2000,0.0000,0.4799
3.9400,0.617415,-2.565480,-2.302161,-0.776528,-2.259146,2.267046,0.953360,-0.821595,-2.798074,0.038754,-0.984364,0.279032,0.623994,-0.535277,-1.837374,0.031938,-0.576465,0.127600,3.105137,0.2000,0.0000,0.4799
3.9600,0.617686,-2.565471,-2.302096,-0.776743,-2.258076,2.268014,0.959583,-0.826958,-2.816338,0.039007,-0.990789,0.280854,0.618174,-0.530263,-1.820278,0.031671,-0.570783,0.125924,3.102263,0.2000,0.0000,0.4799
3.9800,0.617955,-2.565463,-2.302031,-0.776957,-2.256998,2.268980,0.965748,-0.832270,-2.834430,0.039258,-0.997154,0.282658,0.612259,-0.525168,-1.802904,0.031401,-0.565001,0.124221,3.099557,0.2000,0.0000,0.4799
4.0000,0.618222,-2.565454,-2.301964,-0.777171,-2.255911,2.269945,0.971852,-0.837531,-2.852346,0.039506,-1.003457,0.284444,0.606252,-0.519993,-1.785258,0.031126,-0.559123,0.122490,3.097015,0.2000,0.0000,0.4799
4.0200,0.618488,-2.565444,-2.301897,-0.777383,-2.254815,2.270910,0.977895,-0.842739,-2.870083,0.039752,-1.009697,0.286213,0.600153,-0.514740,-1.767345,0.030849,-0.553149,0.120731,3.094636,0.2000,0.0000,0.4799
4.0400,0.618751,-2.565435,-2.301829,-0.777595,-2.253709,2.271876,0.983877,-0.847894,-2.887640,0.039995,-1.015873,0.287964,0.593965,-0.509409,-1.749171,0.030568,-0.547083,0.118947,3.092416,0.2000,0.0000,0.4799
4.0600,0.619012,-2.565426,-2.301758,-0.777806,-2.252592,2.272847,0.989797,-0.852996,-2.905013,0.040236,-1.021985,0.289697,0.587690,-0.504004,-1.730741,0.030283,-0.540925,0.117134,3.090354,0.2000,0.0000,0.4799
4.0800,0.619272,-2.565416,-2.301687,-0.778018,-2.251462,2.273818,0.995653,-0.858042,-2.922200,0.040474,-1.028032,0.291411,0.581330,-0.498525,-1.712060,0.029995,-0.534679,0.115298,3.088442,0.2000,0.0000,0.4799
4.1000,0.619530,-2.565406,-2.301616,-0.778228,-2.250320,2.274790,1.001444,-0.863033,-2.939199,0.040709,-1.034012,0.293106,0.574886,-0.492973,-1.693134,0.029704,-0.528347,0.113436,3.086677,0.2000,0.0000,0.4799
4.1200,0.619787,-2.565395,-2.301545,-0.778439,-2.249165,2.275762,1.007171,-0.867969,-2.956006,0.040942,-1.039925,0.294782,0.568360,-0.487352,-1.673970,0.029410,-0.521927,0.111550,3.085057,0.2000,0.0000,0.4799
4.1400,0.620043,-2.565385,-2.301472,-0.778650,-2.247996,2.276738,1.012832,-0.872847,-2.972621,0.041172,-1.045770,0.296439,0.561756,-0.481662,-1.654573,0.029113,-0.515423,0.109641,3.083577,0.2000,0.0000,0.4799
4.1600,0.620297,-2.565374,-2.301399,-0.778860,-2.246814,2.277716,1.018426,-0.877668,-2.989040,0.041399,-1.051546,0.298076,0.555073,-0.475906,-1.634948,0.028813,-0.508837,0.107708,3.082236,0.2000,0.0000,0.4799
4.1800,0.620549,-2.565363,-2.301325,-0.779071,-2.245618,2.278698,1.023953,-0.882431,-3.005260,0.041624,-1.057252,0.299694,0.548316,-0.470084,-1.615103,0.028510,-0.502173,0.105753,3.081028,0.2000,0.0000,0.4799
4.2000,0.620800,-2.565352,-2.301249,-0.779282,-2.244406,2.279684,1.029412,-0.887135,-3.021281,0.041846,-1.062888,0.301291,0.541485,-0.464199,-1.595044,0.028204,-0.495433,0.103775,3.079950,0.2000,0.0000,0.4799
4.2200,0.621050,-2.565340,-2.301173,-0.779494,-2.243179,2.280674,1.034801,-0.891780,-3.037100,0.042065,-1.068453,0.302869,0.534583,-0.458254,-1.574776,0.027896,-0.488618,0.101776,3.078999,0.2000,0.0000,0.4799
4.2400,0.621299,-2.565329,-2.301095,-0.779706,-2.241935,2.281669,1.040122,-0.896365,-3.052714,0.042281,-1.073947,0.304426,0.527612,-0.452248,-1.554306,0.027584,-0.481731,0.099757,3.078171,0.2000,0.0000,0.4799
4.2600,0.621546,-2.565317,-2.301016,-0.779918,-2.240674,2.282669,1.045371,-0.900889,-3.068123,0.042495,-1.079367,0.305962,0.520575,-0.446186,-1.533642,0.027271,-0.474775,0.097717,3.077461,0.2000,0.0000,0.4799
4.2800,0.621792,-2.565305,-2.300936,-0.780131,-2.239394,2.283674,1.050550,-0.905352,-3.083323,0.042705,-1.084715,0.307478,0.513474,-0.440068,-1.512788,0.026955,-0.467752,0.095657,3.076865,0.2000,0.0000,0.4799
4.3000,0.622037,-2.565292,-2.300855,-0.780345,-2.238096,2.284686,1.055658,-0.909754,-3.098313,0.042913,-1.089988,0.308973,0.506310,-0.433897,-1.491753,0.026636,-0.460663,0.093579,3.076381,0.2000,0.0000,0.4799
4.3200,0.622281,-2.565280,-2.300773,-0.780560,-2.236778,2.285704,1.060693,-0.914093,-3.113091,0.043118,-1.095187,0.310447,0.499086,-0.427674,-1.470543,0.026316,-0.453513,0.091482,3.076003,0.2000,0.0000,0.4799
4.3400,0.622524,-2.565267,-2.300689,-0.780775,-2.235440,2.286728,1.065656,-0.918370,-3.127656,0.043319,-1.100311,0.311899,0.491806,-0.421401,-1.449166,0.025993,-0.446302,0.089368,3.075729,0.2000,0.0000,0.4799
4.3600,0.622765,-2.565254,-2.300604,-0.780992,-2.234080,2.287760,1.070545,-0.922584,-3.142006,0.043518,-1.105360,0.313330,0.484470,-0.415082,-1.427627,0.025668,-0.439034,0.087237,3.075554,0.2000,0.0000,0.4799
4.3800,0.623006,-2.565241,-2.300518,-0.781209,-2.232698,2.288799,1.075360,-0.926733,-3.156139,0.043714,-1.110332,0.314740,0.477082,-0.408717,-1.405936,0.025341,-0.431711,0.085091,3.075473,0.2000,0.0000,0.4799
4.4000,0.623246,-2.565227,-2.300430,-0.781428,-2.231293,2.289847,1.080102,-0.930819,-3.170054,0.043907,-1.115227,0.316127,0.469644,-0.402309,-1.384097,0.025012,-0.424336,0.082928,3.075484,0.2000,0.0000,0.4799
4.4200,0.623484,-2.565214,-2.300341,-0.781648,-2.229864,2.290902,1.084768,-0.934841,-3.183750,0.044096,-1.120045,0.317493,0.462158,-0.395861,-1.362120,0.024681,-0.416912,0.080751,3.075582,0.2000,0.0000,0.4799
4.4400,0.623722,-2.565200,-2.300251,-0.781869,-2.228411,2.291966,1.089359,-0.938797,-3.197224,0.044283,-1.124785,0.318837,0.454628,-0.389374,-1.340012,0.024349,-0.409440,0.078560,3.075763,0.2000,0.0000,0.4799
4.4600,0.623959,-2.565186,-2.300159,-0.782092,-2.226932,2.293038,1.093874,-0.942688,-3.210476,0.044466,-1.129447,0.320158,0.447056,-0.382850,-1.317780,0.024015,-0.401925,0.076356,3.076024,0.2000,0.0000,0.4799
4.4800,0.624196,-2.565171,-2.300065,-0.782316,-2.225427,2.294120,1.098313,-0.946514,-3.223505,0.044647,-1.134031,0.321458,0.439443,-0.376292,-1.295433,0.023680,-0.394368,0.074140,3.076360,0.2000,0.0000,0.4799
4.5000,0.624432,-2.565157,-2.299971,-0.782542,-2.223894,2.295212,1.102676,-0.950273,-3.236309,0.044824,-1.138535,0.322734,0.431794,-0.369703,-1.272977,0.023343,-0.386773,0.071912,3.076768,0.2000,0.0000,0.4799
4.5200,0.624667,-2.565142,-2.299874,-0.782769,-2.222332,2.296313,1.106962,-0.953967,-3.248887,0.044998,-1.142960,0.323989,0.424111,-0.363084,-1.250421,0.023006,-0.379142,0.069673,3.077243,0.2000,0.0000,0.4799
4.5400,0.624901,-2.565127,-2.299776,-0.782999,-2.220742,2.297424,1.111170,-0.957594,-3.261239,0.045170,-1.147306,0.325220,0.416396,-0.356437,-1.227773,0.022667,-0.371477,0.067424,3.077783,0.2000,0.0000,0.4799
4.5600,0.625135,-2.565112,-2.299677,-0.783230,-2.219121,2.298546,1.115301,-0.961154,-3.273363,0.045337,-1.151571,0.326430,0.408652,-0.349766,-1.205041,0.022326,-0.363783,0.065166,3.078382,0.2000,0.0000,0.4799
4.5800,0.625368,-2.565096,-2.299576,-0.783463,-2.217469,2.299678,1.119354,-0.964647,-3.285259,0.045502,-1.155756,0.327616,0.400883,-0.343073,-1.182234,0.021985,-0.356063,0.062899,3.079038,0.2000,0.0000,0.4799
4.6000,0.625601,-2.565080,-2.299474,-0.783698,-2.215784,2.300822,1.123330,-0.968073,-3.296927,0.045664,-1.159861,0.328779,0.393090,-0.336360,-1.159359,0.021644,-0.348318,0.060625,3.079747,0.2000,0.0000,0.4799
4.6200,0.625834,-2.565064,-2.299370,-0.783935,-2.214066,2.301976,1.127227,-0.971431,-3.308364,0.045822,-1.163884,0.329920,0.385277,-0.329629,-1.136426,0.021301,-0.340552,0.058344,3.080506,0.2000,0.0000,0.4799
4.6400,0.626066,-2.565048,-2.299265,-0.784174,-2.212313,2.303142,1.131045,-0.974722,-3.319571,0.045977,-1.167827,0.331038,0.377447,-0.322884,-1.113443,0.020958,-0.332768,0.056057,3.081309,0.2000,0.0000,0.4799
4.6600,0.626298,-2.565032,-2.299157,-0.784415,-2.210525,2.304319,1.134785,-0.977945,-3.330548,0.046129,-1.171689,0.332132,0.369603,-0.316127,-1.090418,0.020615,-0.324970,0.053766,3.082155,0.2000,0.0000,0.4799
4.6800,0.626529,-2.565015,-2.299049,-0.784659,-2.208700,2.305509,1.138446,-0.981100,-3.341294,0.046278,-1.175469,0.333204,0.361748,-0.309359,-1.067360,0.020271,-0.317160,0.051470,3.083039,0.2000,0.0000,0.4799
4.7000,0.626761,-2.564998,-2.298939,-0.784905,-2.206837,2.306710,1.142029,-0.984188,-3.351809,0.046424,-1.179168,0.334252,0.353884,-0.302585,-1.044279,0.019927,-0.309342,0.049171,3.083959,0.2000,0.0000,0.4799
4.7200,0.626992,-2.564981,-2.298827,-0.785154,-2.204936,2.307924,1.145533,-0.987207,-3.362092,0.046566,-1.182786,0.335278,0.346015,-0.295806,-1.021183,0.019582,-0.301519,0.046869,3.084910,0.2000,0.0000,0.4799
4.7400,0.627223,-2.564964,-2.298713,-0.785405,-2.202993,2.309150,1.148957,-0.990158,-3.372143,0.046706,-1.186322,0.336280,0.338144,-0.289026,-0.998082,0.019238,-0.293694,0.044566,3.085890,0.2000,0.0000,0.4799
4.7600,0.627454,-2.564947,-2.298598,-0.785658,-2.201010,2.310389,1.152303,-0.993042,-3.381963,0.046842,-1.189777,0.337259,0.330274,-0.282246,-0.974984,0.018894,-0.285870,0.042263,3.086895,0.2000,0.0000,0.4799
4.7800,0.627685,-2.564929,-2.298482,-0.785914,-2.198983,2.311641,1.155570,-0.995857,-3.391552,0.046974,-1.193150,0.338216,0.322409,-0.275470,-0.951900,0.018550,-0.278051,0.039959,3.087922,0.2000,0.0000,0.4799
4.8000,0.627916,-2.564911,-2.298363,-0.786173,-2.196913,2.312905,1.158758,-0.998605,-3.400909,0.047104,-1.196442,0.339149,0.314551,-0.268701,-0.928838,0.018207,-0.270241,0.037658,3.088968,0.2000,0.0000,0.4799
4.8200,0.628147,-2.564893,-2.298243,-0.786435,-2.194797,2.314182,1.161868,-1.001284,-3.410035,0.047230,-1.199652,0.340059,0.306704,-0.261941,-0.905808,0.017864,-0.262442,0.035358,3.090030,0.2000,0.0000,0.4799
4.8400,0.628378,-2.564875,-2.298122,-0.786699,-2.192635,2.315473,1.164899,-1.003896,-3.418930,0.047354,-1.202782,0.340946,0.298871,-0.255193,-0.882819,0.017522,-0.254658,0.033062,3.091105,0.2000,0.0000,0.4799
4.8600,0.628609,-2.564857,-2.297999,-0.786966,-2.190424,2.316777,1.167851,-1.006441,-3.427596,0.047474,-1.205830,0.341810,0.291055,-0.248460,-0.859882,0.017180,-0.246893,0.030770,3.092190,0.2000,0.0000,0.4799
4.8800,0.628841,-2.564838,-2.297874,-0.787236,-2.188165,2.318094,1.170725,-1.008918,-3.436031,0.047590,-1.208798,0.342651,0.283260,-0.241745,-0.837007,0.016839,-0.239152,0.028485,3.093282,0.2000,0.0000,0.4799
4.9000,0.629073,-2.564819,-2.297748,-0.787510,-2.185853,2.319428,1.173522,-1.011328,-3.444238,0.047704,-1.211685,0.343470,0.275489,-0.235050,-0.814203,0.016500,-0.231435,0.026202,3.094381,0.2000,0.0000,0.4799
4.9200,0.629306,-2.564800,-2.297619,-0.787787,-2.183487,2.320776,1.176240,-1.013670,-3.452216,0.047815,-1.214492,0.344265,0.267746,-0.228380,-0.791480,0.016162,-0.223748,0.023929,3.095482,0.2000,0.0000,0.4799
4.9400,0.629539,-2.564781,-2.297490,-0.788067,-2.181066,2.322137,1.178881,-1.015946,-3.459968,0.047922,-1.217219,0.345038,0.260034,-0.221736,-0.768849,0.015825,-0.216094,0.021663,3.096582,0.2000,0.0000,0.4799
4.9600,0.629772,-2.564761,-2.297359,-0.788350,-2.178589,2.323511,1.181445,-1.018156,-3.467492,0.048026,-1.219866,0.345789,0.252356,-0.215122,-0.746319,0.015489,-0.208477,0.019407,3.097677,0.2000,0.0000,0.4799
4.9800,0.630006,-2.564742,-2.297226,-0.788636,-2.176055,2.324897,1.183932,-1.020299,-3.474792,0.048127,-1.222434,0.346517,0.244717,-0.208541,-0.723902,0.015155,-0.200899,0.017161,3.098767,0.2000,0.0000,0.4799
5.0000,0.630240,-2.564722,-2.297092,-0.788925,-2.173461,2.326297,1.186343,-1.022377,-3.481867,0.048225,-1.224923,0.347222,0.237119,-0.201996,-0.701608,0.014823,-0.193368,0.014927,3.099847,0.2000,0.0000,0.4799
5.0200,0.630475,-2.564702,-2.296957,-0.789217,-2.170806,2.327710,1.188677,-1.024389,-3.488720,0.048320,-1.227334,0.347906,0.229567,-0.195490,-0.679448,0.014492,-0.185884,0.012706,3.100917,0.2000,0.0000,0.4799
5.0400,0.630711,-2.564682,-2.296820,-0.789513,-2.168091,2.329137,1.190937,-1.026336,-3.495351,0.048412,-1.229666,0.348567,0.222063,-0.189026,-0.657431,0.014164,-0.178452,0.010498,3.101976,0.2000,0.0000,0.4799
5.0600,0.630947,-2.564662,-2.296682,-0.789812,-2.165313,2.330578,1.193121,-1.028218,-3.501762,0.048501,-1.231922,0.349206,0.214613,-0.182607,-0.635570,0.013838,-0.171075,0.008303,3.103021,0.2000,0.0000,0.4799
5.0800,0.631183,-2.564642,-2.296542,-0.790115,-2.162469,2.332033,1.195231,-1.030037,-3.507955,0.048587,-1.234100,0.349824,0.207219,-0.176237,-0.613875,0.013514,-0.163758,0.006125,3.104050,0.2000,0.0000,0.4799
5.1000,0.631421,-2.564621,-2.296401,-0.790420,-2.159559,2.333498,1.197267,-1.031791,-3.513931,0.048669,-1.236203,0.350420,0.199885,-0.169919,-0.592356,0.013193,-0.156506,0.003964,3.105058,0.2000,0.0000,0.4799
5.1200,0.631659,-2.564601,-2.296259,-0.790729,-2.156581,2.334975,1.199230,-1.033483,-3.519693,0.048749,-1.238230,0.350994,0.192615,-0.163657,-0.571026,0.012874,-0.149321,0.001821,3.106046,0.2000,0.0000,0.4799
5.1400,0.631899,-2.564580,-2.296117,-0.791041,-2.153534,2.336464,1.201121,-1.035112,-3.525241,0.048826,-1.240182,0.351548,0.185413,-0.157452,-0.549896,0.012558,-0.142208,-0.000303,3.107011,0.2000,0.0000,0.4799
5.1600,0.632083,-2.564576,-2.295839,-0.791220,-2.151282,2.335380,1.202940,-1.036680,-3.530579,0.048900,-1.242060,0.352080,0.178298,-0.151317,-0.528912,0.012203,-0.135454,-0.001734,3.106589,0.2000,0.0000,0.4799
5.1800,0.632321,-2.564559,-2.295720,-0.791341,-2.149618,2.335070,1.204687,-1.038186,-3.535708,0.048971,-1.243864,0.352591,0.171276,-0.145236,-0.508157,0.011847,-0.128321,-0.003014,3.106722,0.2000,0.0000,0.4799
5.2000,0.632593,-2.564534,-2.295733,-0.791428,-2.148512,2.335595,1.206365,-1.039631,-3.540631,0.049039,-1.245596,0.353082,0.164184,-0.139289,-0.487673,0.011600,-0.123393,-0.006085,3.107461,0.2000,0.0000,0.4799
5.2200,0.632779,-2.564538,-2.295722,-0.791366,-2.147943,2.335191,1.207972,-1.041017,-3.545350,0.049105,-1.247256,0.353553,0.157406,-0.133282,-0.467511,0.011317,-0.113958,-0.007658,3.107740,0.2000,0.0000,0.4799
5.2400,0.633007,-2.564528,-2.295680,-0.791373,-2.147264,2.334938,1.209512,-1.042343,-3.549867,0.049167,-1.248845,0.354003,0.150640,-0.127417,-0.447478,0.010960,-0.107004,-0.008664,3.108079,0.2000,0.0000,0.4799
5.2600,0.633224,-2.564520,-2.295680,-0.791343,-2.146824,2.334925,1.210983,-1.043611,-3.554186,0.049227,-1.250365,0.354434,0.143914,-0.121634,-0.427816,0.010724,-0.100111,-0.011176,3.108592,0.2000,0.0000,0.4799
5.2800,0.633466,-2.564503,-2.295654,-0.791363,-2.146308,2.335030,1.212388,-1.044822,-3.558309,0.049284,-1.251815,0.354845,0.137027,-0.115987,-0.408783,0.010927,-0.094680,-0.019642,3.109150,0.2000,0.0000,0.4799
5.3000,0.633724,-2.564482,-2.295598,-0.791371,-2.145797,2.334609,1.213727,-1.045976,-3.562238,0.049338,-1.253197,0.355237,0.130759,-0.110330,-0.389281,0.010203,-0.087098,-0.015377,3.109354,0.2000,0.0000,0.4799
5.3200,0.633964,-2.564467,-2.295595,-0.791329,-2.145463,2.334429,1.215001,-1.047074,-3.565978,0.049390,-1.254513,0.355610,0.124370,-0.104804,-0.370420,0.009893,-0.080549,-0.016647,3.109708,0.2000,0.0000,0.4799
5.3400,0.634241,-2.564440,-2.295572,-0.791341,-2.145016,2.334363,1.216211,-1.048117,-3.569530,0.049439,-1.255763,0.355964,0.118075,-0.099376,-0.351884,0.009598,-0.074282,-0.018077,3.110087,0.2000,0.0000,0.4799
5.3600,0.634549,-2.564404,-2.295562,-0.791377,-2.144544,2.334444,1.217359,-1.049106,-3.572899,0.049486,-1.256948,0.356300,0.111613,-0.094078,-0.334173,0.009885,-0.068620,-0.027161,3.110517,0.2000,0.0000,0.4799
5.3800,0.634857,-2.564371,-2.295549,-0.791373,-2.144163,2.334133,1.218445,-1.050042,-3.576087,0.049530,-1.258069,0.356618,0.105783,-0.088812,-0.315930,0.009148,-0.061850,-0.022421,3.110689,0.2000,0.0000,0.4799
5.4000,0.635138,-2.564350,-2.295555,-0.791322,-2.143955,2.333867,1.219471,-1.050926,-3.579098,0.049572,-1.259129,0.356918,0.099842,-0.083681,-0.298433,0.008880,-0.055771,-0.023846,3.110904,0.2000,0.0000,0.4799
5.4200,0.635453,-2.564319,-2.295549,-0.791324,-2.143616,2.333810,1.220438,-1.051760,-3.581936,0.049611,-1.260127,0.357201,0.094018,-0.078663,-0.281302,0.008615,-0.049972,-0.025261,3.111196,0.2000,0.0000,0.4799
5.4400,0.635779,-2.564287,-2.295528,-0.791322,-2.143234,2.333577,1.221347,-1.052543,-3.584605,0.049648,-1.261066,0.357468,0.088323,-0.073757,-0.264560,0.008365,-0.044287,-0.026744,3.111341,0.2000,0.0000,0.4799
5.4600,0.636097,-2.564260,-2.295490,-0.791274,-2.142922,2.332835,1.222200,-1.053278,-3.587108,0.049683,-1.261947,0.357717,0.082752,-0.068967,-0.248229,0.008144,-0.038750,-0.028481,3.111153,0.2000,0.0000,0.4799
5.4800,0.636454,-2.564223,-2.295500,-0.791274,-2.142613,2.332998,1.222998,-1.053966,-3.589449,0.049715,-1.262770,0.357951,0.077334,-0.064292,-0.232290,0.007903,-0.033207,-0.029841,3.111497,0.2000,0.0000,0.4799
5.5000,0.636800,-2.564194,-2.295485,-0.791246,-2.142298,2.332837,1.223742,-1.054607,-3.591633,0.049746,-1.263539,0.358168,0.072052,-0.059743,-0.216778,0.007678,-0.027900,-0.031306,3.111616,0.2000,0.0000,0.4799
5.5200,0.637150,-2.564166,-2.295465,-0.791214,-2.141969,2.332678,1.224434,-1.055203,-3.593664,0.049774,-1.264253,0.358371,0.066918,-0.055321,-0.201702,0.007464,-0.022722,-0.032770,3.111708,0.2000,0.0000,0.4799
5.5400,0.637504,-2.564138,-2.295442,-0.791182,-2.141630,2.332570,1.225075,-1.055756,-3.595546,0.049800,-1.264915,0.358559,0.061935,-0.051030,-0.187075,0.007256,-0.017691,-0.034201,3.111805,0.2000,0.0000,0.4799
5.5600,0.637863,-2.564112,-2.295416,-0.791149,-2.141271,2.332508,1.225667,-1.056266,-3.597283,0.049824,-1.265526,0.358732,0.057109,-0.046873,-0.172909,0.007054,-0.012818,-0.035588,3.111901,0.2000,0.0000,0.4799
5.5800,0.638226,-2.564086,-2.295387,-0.791118,-2.140885,2.332481,1.226212,-1.056735,-3.598881,0.049846,-1.266088,0.358891,0.052444,-0.042856,-0.159217,0.006859,-0.008111,-0.036929,3.111989,0.2000,0.0000,0.4799
5.6000,0.638614,-2.564055,-2.295380,-0.791130,-2.140414,2.333021,1.226710,-1.057165,-3.600345,0.049866,-1.266603,0.359037,0.047956,-0.038979,-0.146004,0.006654,-0.003478,-0.038008,3.112384,0.2000,0.0000,0.4799
5.6200,0.638984,-2.564033,-2.295338,-0.791102,-2.139926,2.332945,1.227165,-1.057557,-3.601678,0.049885,-1.267072,0.359170,0.043626,-0.035253,-0.133304,0.006476,0.000852,-0.039300,3.112374,0.2000,0.0000,0.4799
5.6400,0.639362,-2.564011,-2.295300,-0.791072,-2.139437,2.332863,1.227577,-1.057912,-3.602887,0.049901,-1.267498,0.359291,0.039346,-0.031746,-0.121101,0.006355,0.002737,-0.041597,3.112333,0.2000,0.0000,0.4799
5.6600,0.639664,-2.564014,-2.295280,-0.790945,-2.139250,2.332697,1.227948,-1.058231,-3.603977,0.049917,-1.267881,0.359399,0.035508,-0.028255,-0.109464,0.006139,0.009159,-0.041632,3.112295,0.2000,0.0000,0.4799
5.6800,0.639819,-2.564056,-2.295344,-0.790639,-2.139468,2.332798,1.228280,-1.058518,-3.604952,0.049930,-1.268224,0.359497,0.031512,-0.024984,-0.098889,0.006565,0.014035,-0.050190,3.112482,0.2000,0.0000,0.4799
5.7000,0.640006,-2.564081,-2.295265,-0.790476,-2.139403,2.332704,1.228576,-1.058772,-3.605819,0.049942,-1.268529,0.359583,0.028000,-0.021959,-0.087809,0.005912,0.014662,-0.045158,3.112531,0.2000,0.0000,0.4799
5.7200,0.640291,-2.564068,-2.295119,-0.790479,-2.139004,2.332686,1.228836,-1.058997,-3.606583,0.049953,-1.268798,0.359659,0.024694,-0.018971,-0.077882,0.005768,0.020155,-0.045745,3.112552,0.2000,0.0000,0.4799
5.7400,0.640661,-2.564028,-2.294990,-0.790541,-2.138295,2.332593,1.229063,-1.059193,-3.607250,0.049962,-1.269033,0.359726,0.021485,-0.016218,-0.068491,0.005640,0.023224,-0.046782,3.112401,0.2000,0.0000,0.4799
5.7600,0.641068,-2.563983,-2.294917,-0.790567,-2.137662,2.332312,1.229259,-1.059362,-3.607826,0.049970,-1.269235,0.359783,0.018481,-0.013637,-0.059721,0.005540,0.026278,-0.047955,3.112092,0.2000,0.0000,0.4799
5.7800,0.641512,-2.563936,-2.294901,-0.790610,-2.137062,2.332588,1.229427,-1.059506,-3.608317,0.049977,-1.269408,0.359832,0.015473,-0.011241,-0.052043,0.005974,0.029513,-0.055932,3.112104,0.2000,0.0000,0.4799
5.8000,0.641935,-2.563893,-2.294678,-0.790719,-2.137564,2.332235,1.229567,-1.059627,-3.608729,0.049982,-1.269553,0.359873,0.013220,-0.009003,-0.043866,0.005151,0.032242,-0.047209,3.112120,0.2000,0.0000,0.4799
5.8200,0.642424,-2.563850,-2.294715,-0.790751,-2.137236,2.332648,1.229683,-1.059727,-3.609069,0.049987,-1.269672,0.359907,0.010581,-0.006991,-0.037578,0.005737,0.034911,-0.056826,3.112234,0.2000,0.0000,0.4799
5.8400,0.642843,-2.563839,-2.294785,-0.790645,-2.136841,2.332494,1.229776,-1.059807,-3.609343,0.049991,-1.269769,0.359934,0.008435,-0.005171,-0.031336,0.005657,0.036669,-0.057619,3.111935,0.2000,0.0000,0.4799
5.8600,0.643278,-2.563825,-2.294798,-0.790567,-2.136248,2.331936,1.229849,-1.059870,-3.609557,0.049994,-1.269844,0.359956,0.006431,-0.003941,-0.024179,0.004243,0.023256,-0.043381,3.111341,0.2000,0.0000,0.4799
5.8800,0.643735,-2.563790,-2.294592,-0.790728,-2.136981,2.332302,1.229905,-1.059918,-3.609720,0.049996,-1.269901,0.359972,0.005134,-0.002090,-0.020396,0.004936,0.040360,-0.051064,3.111836,0.2000,0.0000,0.4799
5.9000,0.644211,-2.563773,-2.294649,-0.790679,-2.136543,2.332187,1.229944,-1.059952,-3.609837,0.049998,-1.269943,0.359984,0.003689,-0.000883,-0.016222,0.004882,0.041250,-0.051644,3.111527,0.2000,0.0000,0.4799
5.9200,0.644685,-2.563750,-2.294588,-0.790723,-2.136598,2.332353,1.229971,-1.059975,-3.609916,0.049999,-1.269970,0.359992,0.002574,0.000161,-0.012799,0.004820,0.043618,-0.051590,3.111600,0.2000,0.0000,0.4799
5.9400,0.645096,-2.563762,-2.294635,-0.790617,-2.136710,2.332336,1.229988,-1.059990,-3.609964,0.050000,-1.269987,0.359996,0.001646,0.000939,-0.010037,0.004736,0.043976,-0.051355,3.111509,0.2000,0.0000,0.4799
5.9600,0.645508,-2.563770,-2.294691,-0.790484,-2.136313,2.331932,1.229996,-1.059997,-3.609989,0.050000,-1.269996,0.359999,0.000589,0.001102,-0.007109,0.004062,0.029759,-0.045733,3.111014,0.2000,0.0000,0.4799
5.9800,0.645905,-2.563763,-2.294541,-0.790561,-2.137148,2.332564,1.230000,-1.060000,-3.609999,0.050000,-1.270000,0.360000,0.000551,0.001861,-0.006967,0.004763,0.045231,-0.052551,3.111655,0.2000,0.0000,0.4799
6.0000,0.646371,-2.563751,-2.294580,-0.790524,-2.136607,2.332489,1.230000,-1.060000,-3.610000,0.050000,-1.270000,0.360000,0.000155,0.001952,-0.007056,0.005319,0.045020,-0.060037,3.111337,0.2000,0.0000,0.4799
6.0200,0.646818,-2.563739,-2.294531,-0.790520,-2.136508,2.332295,1.230000,-1.060000,-3.610000,0.050000,-1.270000,0.360000,0.000476,0.002005,-0.006553,0.004712,0.046205,-0.051850,3.111117,0.2000,0.0000,0.4799
6.0400,0.647261,-2.563733,-2.294500,-0.790507,-2.136505,2.332220,1.230000,-1.060000,-3.610000,0.050000,-1.270000,0.360000,0.000412,0.001962,-0.006503,0.004701,0.044715,-0.051974,3.110992,0.2000,0.0000,0.4799
6.0600,0.647747,-2.563698,-2.294287,-0.790706,-2.137370,2.332834,1.230000,-1.060000,-3.610000,0.050000,-1.270000,0.360000,0.000426,0.002019,-0.006722,0.004885,0.046915,-0.053971,3.111659,0.2000,0.0000,0.4799
6.0800,0.648205,-2.563705,-2.294341,-0.790639,-2.137863,2.332782,1.230000,-1.060000,-3.610000,0.050000,-1.270000,0.360000,0.000380,0.001975,-0.006625,0.004828,0.045372,-0.053473,3.111640,0.2000,0.0000,0.4799
6.1000,0.648612,-2.563731,-2.294538,-0.790439,-2.137514,2.332831,1.230000,-1.060000,-3.610000,0.050000,-1.270000,0.360000,0.000152,0.001951,-0.007044,0.005313,0.045032,-0.059925,3.111372,0.2000,0.0000,0.4799
6.1200,0.649062,-2.563733,-2.294593,-0.790341,-2.136701,2.332156,1.230000,-1.060000,-3.610000,0.050000,-1.270000,0.360000,0.000413,0.001957,-0.006465,0.004671,0.044478,-0.051588,3.110585,0.2000,0.0000,0.4799
6.1400,0.649557,-2.563689,-2.294291,-0.790639,-2.137516,2.332927,1.230000,-1.060000,-3.610000,0.050000,-1.270000,0.360000,0.000458,0.002063,-0.006839,0.004971,0.048520,-0.054799,3.111396,0.2000,0.0000,0.4799
6.1600,0.650069,-2.563667,-2.294148,-0.790814,-2.138790,2.333496,1.230000,-1.060000,-3.610000,0.050000,-1.270000,0.360000,0.000380,0.001983,-0.006646,0.004844,0.045714,-0.053613,3.112114,0.2000,0.0000,0.4799
6.1800,0.650552,-2.563682,-2.294396,-0.790627,-2.138433,2.333151,1.230000,-1.060000,-3.610000,0.050000,-1.270000,0.360000,0.000367,0.001966,-0.006597,0.004811,0.045047,-0.053283,3.111557,0.2000,0.0000,0.4799
6.2000,0.651045,-2.563685,-2.294548,-0.790500,-2.137517,2.332644,1.230000,-1.060000,-3.610000,0.050000,-1.270000,0.360000,0.000403,0.001960,-0.006486,0.004696,0.044636,-0.051854,3.110791,0.2000,0.0000,0.4799
6.2200,0.651525,-2.563687,-2.294603,-0.790407,-2.136625,2.331787,1.230000,-1.060000,-3.610000,0.050000,-1.270000,0.360000,0.000049,0.001537,-0.005365,0.003902,0.029096,-0.044228,3.109862,0.2000,0.0000,0.4799
6.2400,0.651971,-2.563668,-2.294276,-0.790697,-2.138587,2.333042,1.230000,-1.060000,-3.610000,0.050000,-1.270000,0.360000,0.000449,0.002001,-0.006563,0.004739,0.046192,-0.052113,3.111330,0.2000,0.0000,0.4799
6.2600,0.652408,-2.563692,-2.294420,-0.790558,-2.138450,2.332900,1.230000,-1.060000,-3.610000,0.050000,-1.270000,0.360000,0.000418,0.001970,-0.006488,0.004691,0.045029,-0.051688,3.111034,0.2000,0.0000,0.4799
6.2800,0.652896,-2.563694,-2.294527,-0.790465,-2.137489,2.332386,1.230000,-1.060000,-3.610000,0.050000,-1.270000,0.360000,0.000394,0.001957,-0.006487,0.004703,0.044534,-0.051950,3.110279,0.2000,0.0000,0.4799
6.3000,0.653400,-2.563687,-2.294599,-0.790426,-2.136513,2.332067,1.230000,-1.060000,-3.610000,0.050000,-1.270000,0.360000,0.000383,0.001956,-0.006506,0.004725,0.044411,-0.052270,3.109667,0.2000,0.0000,0.4799
6.3200,0.653906,-2.563662,-2.294455,-0.790586,-2.136626,2.332462,1.230000,-1.060000,-3.610000,0.050000,-1.270000,0.360000,0.000480,0.002038,-0.006655,0.004800,0.047344,-0.052745,3.109948,0.2000,0.0000,0.4799
6.3400,0.654321,-2.563682,-2.294370,-0.790603,-2.137704,2.332723,1.230000,-1.060000,-3.610000,0.050000,-1.270000,0.360000,0.000426,0.001986,-0.006535,0.004727,0.045549,-0.052073,3.110387,0.2000,0.0000,0.4799
6.3600,0.654778,-2.563698,-2.294491,-0.790473,-2.137240,2.332308,1.230000,-1.060000,-3.610000,0.050000,-1.270000,0.360000,0.000397,0.001962,-0.006493,0.004707,0.044650,-0.051972,3.109832,0.2000,0.0000,0.4799
6.3800,0.655278,-2.563692,-2.294575,-0.790422,-2.136381,2.332031,1.230000,-1.060000,-3.610000,0.050000,-1.270000,0.360000,0.000381,0.001957,-0.006507,0.004726,0.044428,-0.052276,3.109272,0.2000,0.0000,0.4799
6.4000,0.655799,-2.563667,-2.294482,-0.790571,-2.136402,2.332571,1.230000,-1.060000,-3.610000,0.050000,-1.270000,0.360000,0.000152,0.001973,-0.007109,0.005369,0.045642,-0.060519,3.109591,0.2000,0.0000,0.4799
6.4200,0.656259,-2.563682,-2.294538,-0.790475,-2.136158,2.332042,1.230000,-1.060000,-3.610000,0.050000,-1.270000,0.360000,0.000040,0.001559,-0.005463,0.003991,0.029863,-0.045246,3.109060,0.2000,0.0000,0.4799
6.4400,0.000001,0.000030,0.000171,-0.000289,0.001184,-0.002391,1.230000,-1.060000,-3.610000,0.050000,-1.270000,0.360000,0.027371,-0.001531,-0.001996,0.007636,-0.022077,0.018864,4.173687,0.2000,0.0000,0.5182
6.4600,0.000866,-0.000045,0.000181,-0.000084,0.000865,-0.002703,1.230000,-1.060000,-3.610000,0.050000,-1.270000,0.360000,0.026831,-0.001503,-0.001857,0.007485,-0.021628,0.017008,4.173349,0.2000,0.0000,0.5125
6.4800,0.001939,-0.000180,0.000062,0.000507,-0.000851,-0.001279,1.230000,-1.060000,-3.610000,0.050000,-1.270000,0.360000,0.026819,-0.001497,-0.001840,0.007462,-0.021570,0.016783,4.172243,0.2000,0.0000,0.5029
6.5000,0.003011,-0.000322,-0.000071,0.001178,-0.002811,0.000338,1.230000,-1.060000,-3.610000,0.050000,-1.270000,0.360000,0.026807,-0.001494,-0.001833,0.007451,-0.021549,0.016689,4.171033,0.2000,0.0000,0.4894
6.5200,0.000742,-0.000053,-0.000067,0.000300,-0.000965,0.000897,1.230000,-1.060000,-3.610000,0.050000,-1.270000,0.360000,0.026883,-0.001500,-0.001840,0.007482,-0.021644,0.016770,4.172296,0.2000,0.0000,0.5182
6.5400,0.001809,-0.000152,-0.000186,0.000884,-0.002880,0.002505,1.230000,-1.060000,-3.610000,0.050000,-1.270000,0.360000,0.026847,-0.001494,-0.001827,0.007458,-0.021587,0.016594,4.171127,0.2000,0.0000,0.5125
6.5600,0.002883,-0.000258,-0.000313,0.001542,-0.005095,0.004237,1.230000,-1.060000,-3.610000,0.050000,-1.270000,0.360000,0.026826,-0.001491,-0.001819,0.007447,-0.021567,0.016485,4.169845,0.2000,0.0000,0.5029
6.5800,0.003957,-0.000365,-0.000445,0.002238,-0.007481,0.006024,1.230000,-1.060000,-3.610000,0.050000,-1.270000,0.360000,0.026804,-0.001488,-0.001810,0.007438,-0.021553,0.016376,4.168505,0.2000,0.0000,0.4894
6.6000,0.005029,-0.000474,-0.000579,0.002974,-0.010015,0.007860,1.230000,-1.060000,-3.610000,0.050000,-1.270000,0.360000,0.026780,-0.001485,-0.001802,0.007429,-0.021538,0.016259,4.167115,0.2000,0.0000,0.4755
6.6200,0.006101,-0.000589,-0.000717,0.003757,-0.012700,0.009745,1.230000,-1.060000,-3.610000,0.050000,-1.270000,0.360000,0.026753,-0.001481,-0.001792,0.007418,-0.021520,0.016135,4.165672,0.2000,0.0000,0.4751
6.6400,0.007172,-0.000710,-0.000858,0.004593,-0.015545,0.011680,1.230000,-1.060000,-3.610000,0.050000,-1.270000,0.360000,0.026722,-0.001478,-0.001782,0.007407,-0.021500,0.016001,4.164175,0.2000,0.0000,0.4770
6.6600,0.008241,-0.000838,-0.001003,0.005489,-0.018559,0.013666,1.230000,-1.060000,-3.610000,0.050000,-1.270000,0.360000,0.026688,-0.001474,-0.001772,0.007394,-0.021477,0.015857,4.162620,0.2000,0.0000,0.4784
6.6800,0.009310,-0.000974,-0.001152,0.006451,-0.021755,0.015703,1.230000,-1.060000,-3.610000,0.050000,-1.270000,0.360000,0.026650,-0.001470,-0.001760,0.007380,-0.021450,0.015702,4.161004,0.2000,0.0000,0.4792
6.7000,0.010377,-0.001121,-0.001306,0.007487,-0.025147,0.017791,1.230000,-1.060000,-3.610000,0.050000,-1.270000,0.360000,0.026608,-0.001466,-0.001748,0.007364,-0.021418,0.015534,4.159321,0.2000,0.0000,0.4796
6.7200,0.011443,-0.001277,-0.001463,0.008602,-0.028749,0.019932,1.230000,-1.060000,-3.610000,0.050000,-1.270000,0.360000,0.026560,-0.001461,-0.001734,0.007346,-0.021382,0.015353,4.157569,0.2000,0.0000,0.4797
6.7400,0.012507,-0.001444,-0.001625,0.009804,-0.032579,0.022126,1.230000,-1.060000,-3.610000,0.050000,-1.270000,0.360000,0.026506,-0.001456,-0.001719,0.007327,-0.021341,0.015158,4.155741,0.2000,0.0000,0.4798
6.7600,0.013570,-0.001623,-0.001792,0.011099,-0.036653,0.024372,1.230000,-1.060000,-3.610000,0.050000,-1.270000,0.360000,0.026445,-0.001450,-0.001704,0.007305,-0.021293,0.014946,4.153834,0.2000,0.0000,0.4799
6.7800,0.014628,-0.001810,-0.001963,0.012498,-0.041200,0.026672,1.230000,-1.060000,-3.610000,0.050000,-1.270000,0.360000,0.026383,-0.001445,-0.001687,0.007287,-0.021256,0.014725,4.151781,0.2000,0.0000,0.4799
6.8000,0.015685,-0.002001,-0.002139,0.013956,-0.046057,0.029025,1.230000,-1.060000,-3.610000,0.050000,-1.270000,0.360000,0.026321,-0.001438,-0.001670,0.007259,-0.021191,0.014497,4.149634,0.2000,0.0000,0.4799
6.8200,0.016740,-0.002203,-0.002321,0.015498,-0.051149,0.031432,1.230000,-1.060000,-3.610000,0.050000,-1.270000,0.360000,0.026255,-0.001431,-0.001652,0.007231,-0.021124,0.014256,4.147412,0.2000,0.0000,0.4799
6.8400,0.017793,-0.002421,-0.002508,0.017151,-0.056544,0.033895,1.230000,-1.060000,-3.610000,0.050000,-1.270000,0.360000,0.026182,-0.001424,-0.001633,0.007198,-0.021046,0.014000,4.145096,0.2000,0.0000,0.4799
6.8600,0.018844,-0.002655,-0.002701,0.018928,-0.062288,0.036413,1.230000,-1.060000,-3.610000,0.050000,-1.270000,0.360000,0.026101,-0.001415,-0.001613,0.007162,-0.020957,0.013726,4.142672,0.2000,0.0000,0.4799
6.8800,0.019892,-0.002906,-0.002899,0.020837,-0.068413,0.038986,1.230000,-1.060000,-3.610000,0.050000,-1.270000,0.360000,0.026012,-0.001406,-0.001591,0.007121,-0.020855,0.013435,4.140132,0.2000,0.0000,0.4799
6.9000,0.020937,-0.003175,-0.003104,0.022887,-0.074948,0.041613,1.230000,-1.060000,-3.610000,0.050000,-1.270000,0.360000,0.025914,-0.001396,-0.001568,0.007076,-0.020740,0.013125,4.137471,0.2000,0.0000,0.4799
6.9200,0.021979,-0.003462,-0.003315,0.025084,-0.081922,0.044296,1.230000,-1.060000,-3.610000,0.050000,-1.270000,0.360000,0.025805,-0.001385,-0.001543,0.007025,-0.020610,0.012794,4.134681,0.2000,0.0000,0.4799
6.9400,0.023017,-0.003767,-0.003532,0.027440,-0.089364,0.047032,1.230000,-1.060000,-3.610000,0.050000,-1.270000,0.360000,0.025685,-0.001373,-0.001517,0.006969,-0.020464,0.012443,4.131756,0.2000,0.0000,0.4799
6.9600,0.024045,-0.004090,-0.003757,0.029983,-0.097642,0.049822,1.230000,-1.060000,-3.610000,0.050000,-1.270000,0.360000,0.025556,-0.001363,-0.001490,0.006920,-0.020339,0.012078,4.128595,0.2000,0.0000,0.4799
6.9800,0.025058,-0.004403,-0.003988,0.032600,-0.107066,0.052667,1.230000,-1.060000,-3.610000,0.050000,-1.270000,0.360000,0.025425,-0.001344,-0.001464,0.006826,-0.020076,0.011738,4.125126,0.2000,0.0000,0.4799
7.0000,0.026074,-0.004720,-0.004227,0.035244,-0.116721,0.055571,1.230000,-1.060000,-3.610000,0.050000,-1.270000,0.360000,0.025301,-0.001329,-0.001439,0.006756,-0.019886,0.011399,4.121601,0.2000,0.0000,0.4799
7.0200,0.027089,-0.005066,-0.004475,0.038035,-0.126738,0.058532,1.230000,-1.060000,-3.610000,0.050000,-1.270000,0.360000,0.025170,-0.001314,-0.001412,0.006679,-0.019677,0.011051,4.117981,0.2000,0.0000,0.4799
7.0400,0.028102,-0.005449,-0.004731,0.041030,-0.137296,0.061553,1.230000,-1.060000,-3.610000,0.050000,-1.270000,0.360000,0.025027,-0.001296,-0.001385,0.006593,-0.019440,0.010687,4.114216,0.2000,0.0000,0.4799
7.0600,0.029109,-0.005870,-0.004996,0.044246,-0.148492,0.064633,1.230000,-1.060000,-3.610000,0.050000,-1.270000,0.360000,0.024872,-0.001277,-0.001356,0.006497,-0.019177,0.010307,4.110285,0.2000,0.0000,0.4799
7.0800,0.030111,-0.006327,-0.005270,0.047691,-0.160381,0.067772,1.230000,-1.060000,-3.610000,0.050000,-1.270000,0.360000,0.024704,-0.001257,-0.001326,0.006393,-0.018889,0.009912,4.106177,0.2000,0.0000,0.4799
7.1000,0.031107,-0.006822,-0.005555,0.051374,-0.173008,0.070969,1.230000,-1.060000,-3.610000,0.050000,-1.270000,0.360000,0.024521,-0.001235,-0.001294,0.006281,-0.018574,0.009502,4.101888,0.2000,0.0000,0.4799
7.1200,0.032096,-0.007354,-0.005849,0.055304,-0.186414,0.074223,1.230000,-1.060000,-3.610000,0.050000,-1.270000,0.360000,0.024324,-0.001211,-0.001261,0.006158,-0.018230,0.009077,4.097413,0.2000,0.0000,0.4799
7.1400,0.033078,-0.007926,-0.006155,0.059496,-0.200642,0.077535,1.230000,-1.060000,-3.610000,0.050000,-1.270000,0.360000,0.024111,-0.001185,-0.001227,0.006026,-0.017858,0.008638,4.092748,0.2000,0.0000,0.4799
7.1600,0.034052,-0.008542,-0.006472,0.063964,-0.215738,0.080902,1.230000,-1.060000,-3.610000,0.050000,-1.270000,0.360000,0.023881,-0.001157,-0.001192,0.005883,-0.017455,0.008187,4.087888,0.2000,0.0000,0.4799
7.1800,0.035018,-0.009203,-0.006802,0.068726,-0.231750,0.084324,1.230000,-1.060000,-3.610000,0.050000,-1.270000,0.360000,0.023633,-0.001128,-0.001156,0.005730,-0.017019,0.007725,4.082830,0.2000,0.0000,0.4799
7.2000,0.035975,-0.009915,-0.007144,0.073800,-0.248728,0.087799,1.230000,-1.060000,-3.610000,0.050000,-1.270000,0.360000,0.023365,-0.001096,-0.001119,0.005566,-0.016552,0.007252,4.077573,0.2000,0.0000,0.4799
7.2200,0.036922,-0.010680,-0.007501,0.079207,-0.266725,0.091326,1.230000,-1.060000,-3.610000,0.050000,-1.270000,0.360000,0.023076,-0.001063,-0.001081,0.005391,-0.016050,0.006772,4.072114,0.2000,0.0000,0.4799
7.2400,0.037858,-0.011505,-0.007871,0.084968,-0.285793,0.094904,1.230000,-1.060000,-3.610000,0.050000,-1.270000,0.360000,0.022765,-0.001027,-0.001042,0.005205,-0.015516,0.006285,4.066453,0.2000,0.0000,0.4799
7.2600,0.038784,-0.012394,-0.008258,0.091105,-0.305990,0.098529,1.230000,-1.060000,-3.610000,0.050000,-1.270000,0.360000,0.022430,-0.000990,-0.001003,0.005007,-0.014947,0.005796,4.060591,0.2000,0.0000,0.4799
7.2800,0.039697,-0.013353,-0.008660,0.097644,-0.327371,0.102201,1.230000,-1.060000,-3.610000,0.050000,-1.270000,0.360000,0.022070,-0.000950,-0.000963,0.004799,-0.014346,0.005306,4.054531,0.2000,0.0000,0.4799
7.3000,0.040597,-0.014389,-0.009081,0.104609,-0.349997,0.105916,1.230000,-1.060000,-3.610000,0.050000,-1.270000,0.360000,0.021684,-0.000909,-0.000923,0.004581,-0.013715,0.004820,4.048277,0.2000,0.0000,0.4799
7.3200,0.041482,-0.015510,-0.009520,0.112030,-0.373928,0.109672,1.230000,-1.060000,-3.610000,0.050000,-1.270000,0.360000,0.021271,-0.000866,-0.000884,0.004354,-0.013054,0.004342,4.041837,0.2000,0.0000,0.4799
7.3400,0.042352,-0.016722,-0.009980,0.119935,-0.399224,0.113466,1.230000,-1.060000,-3.610000,0.050000,-1.270000,0.360000,0.020829,-0.000822,-0.000845,0.004118,-0.012366,0.003875,4.035220,0.2000,0.0000,0.4799
7.3600,0.043206,-0.018037,-0.010461,0.128357,-0.425948,0.117295,1.230000,-1.060000,-3.610000,0.050000,-1.270000,0.360000,0.020358,-0.000776,-0.000807,0.003875,-0.011655,0.003425,4.028438,0.2000,0.0000,0.4799
7.3800,0.044041,-0.019463,-0.010966,0.137329,-0.454162,0.121155,1.230000,-1.060000,-3.610000,0.050000,-1.270000,0.360000,0.019856,-0.000728,-0.000770,0.003626,-0.010926,0.002997,4.021508,0.2000,0.0000,0.4799
7.4000,0.044858,-0.021013,-0.011497,0.146886,-0.483929,0.125042,1.230000,-1.060000,-3.610000,0.050000,-1.270000,0.360000,0.019324,-0.000680,-0.000735,0.003372,-0.010181,0.002596,4.014447,0.2000,0.0000,0.4799
7.4200,0.045654,-0.022700,-0.012055,0.157069,-0.515310,0.128952,1.230000,-1.060000,-3.610000,0.050000,-1.270000,0.360000,0.018761,-0.000632,-0.000702,0.003116,-0.009427,0.002227,4.007279,0.2000,0.0000,0.4799
7.4400,0.046427,-0.024537,-0.012642,0.167918,-0.548365,0.132879,1.230000,-1.060000,-3.610000,0.050000,-1.270000,0.360000,0.018167,-0.000583,-0.000672,0.002860,-0.008669,0.001896,4.000032,0.2000,0.0000,0.4799
7.4600,0.047178,-0.026542,-0.013263,0.179477,-0.583154,0.136820,1.230000,-1.060000,-3.610000,0.050000,-1.270000,0.360000,0.017543,-0.000535,-0.000645,0.002604,-0.007911,0.001609,3.992738,0.2000,0.0000,0.4799
7.4800,0.047903,-0.028732,-0.013918,0.191796,-0.619733,0.140767,1.230000,-1.060000,-3.610000,0.050000,-1.270000,0.360000,0.016891,-0.000487,-0.000621,0.002352,-0.007161,0.001370,3.985435,0.2000,0.0000,0.4799
7.5000,0.048602,-0.031128,-0.014612,0.204925,-0.658153,0.144715,1.230000,-1.060000,-3.610000,0.050000,-1.270000,0.360000,0.016211,-0.000439,-0.000601,0.002105,-0.006424,0.001184,3.978165,0.2000,0.0000,0.4799
7.5200,0.049273,-0.033753,-0.015349,0.218921,-0.698465,0.148655,1.230000,-1.060000,-3.610000,0.050000,-1.270000,0.360000,0.015506,-0.000393,-0.000585,0.001864,-0.005703,0.001055,3.970979,0.2000,0.0000,0.4799
7.5400,0.049915,-0.036633,-0.016131,0.233845,-0.740712,0.152580,1.230000,-1.060000,-3.610000,0.050000,-1.270000,0.360000,0.014779,-0.000348,-0.000574,0.001632,-0.005005,0.000986,3.963930,0.2000,0.0000,0.4799
7.5600,0.050526,-0.039796,-0.016965,0.249763,-0.784928,0.156480,1.230000,-1.060000,-3.610000,0.050000,-1.270000,0.360000,0.014033,-0.000305,-0.000569,0.001409,-0.004333,0.000980,3.957082,0.2000,0.0000,0.4799
7.5800,0.051106,-0.043274,-0.017854,0.266749,-0.831141,0.160347,1.230000,-1.060000,-3.610000,0.050000,-1.270000,0.360000,0.013271,-0.000264,-0.000569,0.001198,-0.003691,0.001038,3.950503,0.2000,0.0000,0.4799
7.6000,0.051652,-0.047105,-0.018805,0.284883,-0.879374,0.164167,1.230000,-1.060000,-3.610000,0.050000,-1.270000,0.360000,0.012496,-0.000225,-0.000575,0.000998,-0.003082,0.001161,3.944268,0.2000,0.0000,0.4799
7.6200,0.052165,-0.051327,-0.019824,0.304254,-0.929635,0.167930,1.230000,-1.060000,-3.610000,0.050000,-1.270000,0.360000,0.011712,-0.000189,-0.000587,0.000810,-0.002506,0.001351,3.938459,0.2000,0.0000,0.4799
7.6400,0.052644,-0.055986,-0.020919,0.324960,-0.981922,0.171623,1.230000,-1.060000,-3.610000,0.050000,-1.270000,0.360000,0.010922,-0.000155,-0.000607,0.000635,-0.001967,0.001606,3.933165,0.2000,0.0000,0.4799
7.6600,0.053087,-0.061131,-0.022099,0.347112,-1.036217,0.175231,1.230000,-1.060000,-3.610000,0.050000,-1.270000,0.360000,0.010129,-0.000123,-0.000634,0.000473,-0.001464,0.001928,3.928482,0.2000,0.0000,0.4799
7.6800,0.053496,-0.066817,-0.023372,0.370831,-1.092489,0.178741,1.230000,-1.060000,-3.610000,0.050000,-1.270000,0.360000,0.009336,-0.000095,-0.000669,0.000325,-0.000997,0.002316,3.924509,0.2000,0.0000,0.4799
7.7000,0.053870,-0.073102,-0.024752,0.396255,-1.150687,0.182136,1.230000,-1.060000,-3.610000,0.050000,-1.270000,0.360000,0.008544,-0.000069,-0.000713,0.000189,-0.000565,0.002770,3.921354,0.2000,0.0000,0.4799
7.7200,0.054211,-0.080052,-0.026251,0.423535,-1.210739,0.185402,1.230000,-1.060000,-3.610000,0.050000,-1.270000,0.360000,0.007757,-0.000047,-0.000767,0.000067,-0.000168,0.003290,3.919128,0.2000,0.0000,0.4799
7.7400,0.054519,-0.087737,-0.027885,0.452843,-1.272550,0.188524,1.230000,-1.060000,-3.610000,0.050000,-1.270000,0.360000,0.006977,-0.000028,-0.000833,-0.000043,0.000197,0.003875,3.917945,0.2000,0.0000,0.4799
7.7600,0.054797,-0.096230,-0.029672,0.484367,-1.335996,0.191489,1.230000,-1.060000,-3.610000,0.050000,-1.270000,0.360000,0.006205,-0.000012,-0.000911,-0.000141,0.000532,0.004525,3.917924,0.2000,0.0000,0.4799
7.7800,0.055049,-0.105610,-0.031636,0.518316,-1.400925,0.194283,1.230000,-1.060000,-3.610000,0.050000,-1.270000,0.360000,0.005446,-0.000000,-0.001004,-0.000226,0.000838,0.005237,3.919181,0.2000,0.0000,0.4799
7.8000,0.055278,-0.115956,-0.033804,0.554920,-1.467146,0.196898,1.230000,-1.060000,-3.610000,0.050000,-1.270000,0.360000,0.004705,0.000008,-0.001112,-0.000298,0.001118,0.006004,3.921834,0.2000,0.0000,0.4799
7.8200,0.055491,-0.127348,-0.036207,0.594425,-1.534429,0.199324,1.230000,-1.060000,-3.610000,0.050000,-1.270000,0.360000,0.003987,0.000011,-0.001238,-0.000358,0.001375,0.006820,3.925996,0.2000,0.0000,0.4799
7.8400,0.055696,-0.139861,-0.038886,0.637094,-1.602507,0.201558,1.230000,-1.060000,-3.610000,0.050000,-1.270000,0.360000,0.003300,0.000010,-0.001383,-0.000404,0.001611,0.007675,3.931773,0.2000,0.0000,0.4799
7.8600,0.055904,-0.153563,-0.041891,0.683204,-1.671064,0.203599,1.230000,-1.060000,-3.610000,0.050000,-1.270000,0.360000,0.002651,0.000004,-0.001551,-0.000438,0.001830,0.008560,3.939262,0.2000,0.0000,0.4799
7.8800,0.056130,-0.168508,-0.045283,0.733031,-1.739742,0.205453,1.230000,-1.060000,-3.610000,0.050000,-1.270000,0.360000,0.002048,-0.000008,-0.001745,-0.000458,0.002036,0.009466,3.948545,0.2000,0.0000,0.4799
7.9000,0.056391,-0.184733,-0.049137,0.786851,-1.808146,0.207129,1.230000,-1.060000,-3.610000,0.050000,-1.270000,0.360000,0.001494,-0.000025,-0.001970,-0.000464,0.002232,0.010393,3.959686,0.2000,0.0000,0.4799
7.9200,0.056711,-0.202245,-0.053551,0.844918,-1.875851,0.208640,1.230000,-1.060000,-3.610000,0.050000,-1.270000,0.360000,0.000995,-0.000048,-0.002236,-0.000456,0.002422,0.011345,3.972725,0.2000,0.0000,0.4799
7.9400,0.057119,-0.221021,-0.058646,0.907460,-1.942420,0.210003,1.230000,-1.060000,-3.610000,0.050000,-1.270000,0.360000,0.000549,-0.000076,-0.002555,-0.000437,0.002609,0.012340,3.987673,0.2000,0.0000,0.4799
7.9600,0.057655,-0.240998,-0.064576,0.974661,-2.007419,0.211235,1.230000,-1.060000,-3.610000,0.050000,-1.270000,0.360000,0.000155,-0.000110,-0.002947,-0.000406,0.002796,0.013410,4.004511,0.2000,0.0000,0.4799
7.9800,0.058375,-0.262065,-0.071538,1.046655,-2.070441,0.212349,1.230000,-1.060000,-3.610000,0.050000,-1.270000,0.360000,-0.000189,-0.000150,-0.003445,-0.000368,0.002984,0.014608,4.023176,0.2000,0.0000,0.4799
8.0000,0.059354,-0.284066,-0.079784,1.123516,-2.131132,0.213341,1.230000,-1.060000,-3.610000,0.050000,-1.270000,0.360000,-0.000488,-0.000196,-0.004097,-0.000323,0.003170,0.016012,4.043564,0.2000,0.0000,0.4799
8.0200,0.060701,-0.306793,-0.089628,1.205267,-2.189201,0.214183,1.230000,-1.060000,-3.610000,0.050000,-1.270000,0.360000,-0.000741,-0.000249,-0.004983,-0.000275,0.003350,0.017738,4.065518,0.2000,0.0000,0.4799
8.0400,0.062575,-0.329983,-0.101463,1.291878,-2.244438,0.214798,1.230000,-1.060000,-3.610000,0.050000,-1.270000,0.360000,-0.000939,-0.000310,-0.006242,-0.000227,0.003519,0.019970,4.088827,0.2000,0.0000,0.4799
8.0600,0.065202,-0.353321,-0.115751,1.383283,-2.296707,0.215026,1.230000,-1.060000,-3.610000,0.050000,-1.270000,0.360000,-0.001056,-0.000381,-0.008115,-0.000179,0.003665,0.022998,4.113236,0.2000,0.0000,0.4799
8.0800,0.068902,-0.376425,-0.132972,1.479392,-2.345942,0.214556,1.230000,-1.060000,-3.610000,0.050000,-1.270000,0.360000,-0.001022,-0.000467,-0.011071,-0.000129,0.003766,0.027314,4.138491,0.2000,0.0000,0.4799
8.1000,0.074098,-0.398845,-0.153452,1.580109,-2.392129,0.212835,1.230000,-1.060000,-3.610000,0.050000,-1.270000,0.360000,-0.000648,-0.000567,-0.016051,-0.000070,0.003786,0.033764,4.164496,0.2000,0.0000,0.4799
8.1200,0.081244,-0.420045,-0.176898,1.685346,-2.435273,0.208959,1.230000,-1.060000,-3.610000,0.050000,-1.270000,0.360000,0.000566,-0.000672,-0.025026,0.000031,0.003653,0.043676,4.191706,0.2000,0.0000,0.4799
8.1400,0.090540,-0.439408,-0.201493,1.795036,-2.475369,0.201819,1.230000,-1.060000,-3.610000,0.050000,-1.270000,0.360000,0.003897,-0.000726,-0.041400,0.000260,0.003254,0.057649,4.221908,0.2000,0.0000,0.4799
8.1600,0.101365,-0.456918,-0.222563,1.910633,-2.504716,0.190329,1.230000,-1.060000,-3.610000,0.050000,-1.270000,0.360000,0.011093,-0.000567,-0.064262,0.000779,0.002872,0.067549,4.257643,0.2000,0.0000,0.4799
8.1800,0.112080,-0.473487,-0.236108,2.034784,-2.505824,0.177590,1.230000,-1.060000,-3.610000,0.050000,-1.270000,0.360000,0.022054,-0.000023,-0.085935,0.001278,0.001793,0.070593,4.298464,0.2000,0.0000,0.4799
8.2000,0.121211,-0.486750,-0.243501,2.162540,-2.500950,0.169730,1.230000,-1.060000,-3.610000,0.050000,-1.270000,0.360000,0.023822,0.000329,-0.068923,0.001233,0.001901,0.044709,4.348058,0.2000,0.0000,0.4799
8.2200,0.128332,-0.495460,-0.245847,2.292994,-2.496913,0.166316,1.230000,-1.060000,-3.610000,0.050000,-1.270000,0.360000,0.016318,0.000115,-0.037393,0.000732,0.002996,0.017363,4.407239,0.2000,0.0000,0.4799
8.2400,0.123724,-0.496917,-0.231116,2.400845,-2.498444,0.168945,1.230000,-1.060000,-3.610000,0.050000,-1.270000,0.360000,0.011921,-0.000118,-0.023238,0.000342,0.003489,0.008208,4.475468,0.2000,0.0000,0.4799
8.2600,0.093445,-0.490787,-0.187567,2.412447,-2.504357,0.184166,1.230000,-1.060000,-3.610000,0.050000,-1.270000,0.360000,0.012598,-0.000207,-0.023793,0.000328,0.003675,0.007020,4.523773,0.2000,0.0000,0.4799
8.2800,0.072214,-0.485206,-0.158773,2.397502,-2.502502,0.194537,1.230000,-1.060000,-3.610000,0.050000,-1.270000,0.360000,0.013764,-0.000218,-0.026154,0.000299,0.003519,0.008666,4.543020,0.2000,0.0000,0.4799
8.3000,0.061964,-0.481001,-0.144356,2.382655,-2.498956,0.199919,1.230000,-1.060000,-3.610000,0.050000,-1.270000,0.360000,0.014718,-0.000215,-0.028315,0.000292,0.003377,0.010356,4.548349,0.2000,0.0000,0.4799
8.3200,0.057669,-0.478200,-0.136647,2.373388,-2.496386,0.202908,1.230000,-1.060000,-3.610000,0.050000,-1.270000,0.360000,0.015340,-0.000213,-0.029763,0.000290,0.003285,0.011520,4.550150,0.2000,0.0000,0.4799
8.3400,0.055867,-0.476662,-0.130686,2.368811,-2.495173,0.205101,1.230000,-1.060000,-3.610000,0.050000,-1.270000,0.360000,0.015697,-0.000216,-0.030578,0.000280,0.003235,0.012167,4.552628,0.2000,0.0000,0.4799
8.3600,0.055152,-0.476242,-0.124876,2.367111,-2.494849,0.207339,1.230000,-1.060000,-3.610000,0.050000,-1.270000,0.360000,0.015841,-0.000224,-0.030910,0.000261,0.003214,0.012395,4.556281,0.2000,0.0000,0.4799
8.3800,0.054928,-0.476834,-0.118766,2.366930,-2.494946,0.209922,1.230000,-1.060000,-3.610000,0.050000,-1.270000,0.360000,0.015838,-0.000235,-0.030935,0.000232,0.003210,0.012352,4.560786,0.2000,0.0000,0.4799
8.4000,0.054937,-0.478353,-0.112295,2.367227,-2.495174,0.212944,1.230000,-1.060000,-3.610000,0.050000,-1.270000,0.360000,0.015740,-0.000247,-0.030796,0.000198,0.003215,0.012152,4.565660,0.2000,0.0000,0.4799
8.4200,0.055127,-0.480757,-0.105626,2.367503,-2.495365,0.216369,1.230000,-1.060000,-3.610000,0.050000,-1.270000,0.360000,0.015568,-0.000259,-0.030561,0.000161,0.003226,0.011855,4.570498,0.2000,0.0000,0.4799
8.4400,0.055507,-0.484038,-0.098945,2.367658,-2.495458,0.220115,1.230000,-1.060000,-3.610000,0.050000,-1.270000,0.360000,0.015331,-0.000271,-0.030243,0.000122,0.003242,0.011479,4.575099,0.2000,0.0000,0.4799
8.4600,0.056070,-0.488203,-0.092357,2.367739,-2.495467,0.224121,1.230000,-1.060000,-3.610000,0.050000,-1.270000,0.360000,0.015027,-0.000282,-0.029840,0.000083,0.003265,0.011027,4.579413,0.2000,0.0000,0.4799
8.4800,0.056788,-0.493269,-0.085903,2.367794,-2.495430,0.228360,1.230000,-1.060000,-3.610000,0.050000,-1.270000,0.360000,0.014659,-0.000293,-0.029353,0.000045,0.003295,0.010498,4.583453,0.2000,0.0000,0.4799
8.5000,0.057625,-0.499261,-0.079592,2.367846,-2.495373,0.232826,1.230000,-1.060000,-3.610000,0.050000,-1.270000,0.360000,0.014231,-0.000304,-0.028783,0.000009,0.003333,0.009898,4.587242,0.2000,0.0000,0.4799
8.5200,0.058552,-0.506217,-0.073425,2.367897,-2.495311,0.237517,1.230000,-1.060000,-3.610000,0.050000,-1.270000,0.360000,0.013746,-0.000313,-0.028138,-0.000025,0.003379,0.009236,4.590791,0.2000,0.0000,0.4799
8.5400,0.059544,-0.514182,-0.067402,2.367950,-2.495247,0.242432,1.230000,-1.060000,-3.610000,0.050000,-1.270000,0.360000,0.013210,-0.000322,-0.027425,-0.000055,0.003433,0.008519,4.594108,0.2000,0.0000,0.4799
8.5600,0.060582,-0.523215,-0.061518,2.367998,-2.495178,0.247570,1.230000,-1.060000,-3.610000,0.050000,-1.270000,0.360000,0.012629,-0.000330,-0.026653,-0.000082,0.003495,0.007759,4.597197,0.2000,0.0000,0.4799
8.5800,0.061651,-0.533384,-0.055771,2.368038,-2.495104,0.252925,1.230000,-1.060000,-3.610000,0.050000,-1.270000,0.360000,0.012008,-0.000337,-0.025831,-0.000105,0.003564,0.006968,4.600060,0.2000,0.0000,0.4799
8.6000,0.062743,-0.544768,-0.050159,2.368073,-2.495022,0.258492,1.230000,-1.060000,-3.610000,0.050000,-1.270000,0.360000,0.011354,-0.000343,-0.024968,-0.000124,0.003640,0.006157,4.602702,0.2000,0.0000,0.4799
8.6200,0.063851,-0.557456,-0.044681,2.368105,-2.494934,0.264262,1.230000,-1.060000,-3.610000,0.050000,-1.270000,0.360000,0.010674,-0.000348,-0.024074,-0.000139,0.003723,0.005337,4.605127,0.2000,0.0000,0.4799
8.6400,0.064967,-0.571552,-0.039331,2.368132,-2.494841,0.270231,1.230000,-1.060000,-3.610000,0.050000,-1.270000,0.360000,0.009975,-0.000352,-0.023160,-0.000149,0.003812,0.004520,4.607341,0.2000,0.0000,0.4799
8.6600,0.066089,-0.587170,-0.034109,2.368155,-2.494741,0.276390,1.230000,-1.060000,-3.610000,0.050000,-1.270000,0.360000,0.009263,-0.000355,-0.022235,-0.000155,0.003906,0.003718,4.609346,0.2000,0.0000,0.4799
8.6800,0.067214,-0.604438,-0.029012,2.368176,-2.494632,0.282731,1.230000,-1.060000,-3.610000,0.050000,-1.270000,0.360000,0.008547,-0.000357,-0.021312,-0.000157,0.004004,0.002944,4.611151,0.2000,0.0000,0.4799
8.7000,0.068341,-0.623497,-0.024037,2.368187,-2.494516,0.289244,1.230000,-1.060000,-3.610000,0.050000,-1.270000,0.360000,0.007834,-0.000358,-0.020400,-0.000155,0.004105,0.002208,4.612760,0.2000,0.0000,0.4799
8.7200,0.069470,-0.644504,-0.019183,2.368188,-2.494392,0.295917,1.230000,-1.060000,-3.610000,0.050000,-1.270000,0.360000,0.007131,-0.000358,-0.019510,-0.000150,0.004207,0.001520,4.614181,0.2000,0.0000,0.4799
8.7400,0.070601,-0.667633,-0.014454,2.368183,-2.494259,0.302735,1.230000,-1.060000,-3.610000,0.050000,-1.270000,0.360000,0.006444,-0.000357,-0.018650,-0.000143,0.004309,0.000889,4.615427,0.2000,0.0000,0.4799
8.7600,0.071734,-0.693073,-0.009852,2.368171,-2.494114,0.309676,1.230000,-1.060000,-3.610000,0.050000,-1.270000,0.360000,0.005780,-0.000356,-0.017831,-0.000132,0.004410,0.000322,4.616513,0.2000,0.0000,0.4799
8.7800,0.072869,-0.721030,-0.005382,2.368152,-2.493955,0.316718,1.230000,-1.060000,-3.610000,0.050000,-1.270000,0.360000,0.005144,-0.000353,-0.017058,-0.000121,0.004508,-0.000174,4.617455,0.2000,0.0000,0.4799
8.8000,0.074007,-0.751731,-0.001049,2.368120,-2.493786,0.323829,1.230000,-1.060000,-3.610000,0.050000,-1.270000,0.360000,0.004540,-0.000349,-0.016339,-0.000108,0.004602,-0.000597,4.618281,0.2000,0.0000,0.4799
8.8200,0.075148,-0.785420,0.003138,2.368074,-2.493604,0.330970,1.230000,-1.060000,-3.610000,0.050000,-1.270000,0.360000,0.003972,-0.000344,-0.015678,-0.000095,0.004691,-0.000942,4.619022,0.2000,0.0000,0.4799
8.8400,0.076289,-0.822363,0.007165,2.368015,-2.493405,0.338096,1.230000,-1.060000,-3.610000,0.050000,-1.270000,0.360000,0.003442,-0.000338,-0.015079,-0.000082,0.004772,-0.001210,4.619719,0.2000,0.0000,0.4799
8.8600,0.077430,-0.862844,0.011017,2.367937,-2.493185,0.345148,1.230000,-1.060000,-3.610000,0.050000,-1.270000,0.360000,0.002952,-0.000331,-0.014544,-0.000070,0.004845,-0.001400,4.620421,0.2000,0.0000,0.4799
8.8800,0.078567,-0.907169,0.014672,2.367835,-2.492943,0.352056,1.230000,-1.060000,-3.610000,0.050000,-1.270000,0.360000,0.002503,-0.000323,-0.014074,-0.000060,0.004909,-0.001513,4.621192,0.2000,0.0000,0.4799
8.9000,0.079697,-0.955662,0.018103,2.367706,-2.492679,0.358730,1.230000,-1.060000,-3.610000,0.050000,-1.270000,0.360000,0.002092,-0.000314,-0.013669,-0.000052,0.004962,-0.001553,4.622112,0.2000,0.0000,0.4799
8.9200,0.080815,-1.008666,0.021279,2.367544,-2.492388,0.365068,1.230000,-1.060000,-3.610000,0.050000,-1.270000,0.360000,0.001721,-0.000303,-0.013329,-0.000046,0.005004,-0.001521,4.623280,0.2000,0.0000,0.4799
8.9400,0.081914,-1.066539,0.024161,2.367340,-2.492067,0.370949,1.230000,-1.060000,-3.610000,0.050000,-1.270000,0.360000,0.001385,-0.000291,-0.013053,-0.000044,0.005033,-0.001420,4.624814,0.2000,0.0000,0.4799
8.9600,0.082986,-1.129650,0.026700,2.367083,-2.491710,0.376230,1.230000,-1.060000,-3.610000,0.050000,-1.270000,0.360000,0.001084,-0.000278,-0.012837,-0.000045,0.005048,-0.001252,4.626856,0.2000,0.0000,0.4799
8.9800,0.084023,-1.198375,0.028841,2.366756,-2.491305,0.380748,1.230000,-1.060000,-3.610000,0.050000,-1.270000,0.360000,0.000812,-0.000263,-0.012683,-0.000050,0.005049,-0.001018,4.629573,0.2000,0.0000,0.4799
9.0000,0.085013,-1.273087,0.030517,2.366335,-2.490846,0.384324,1.230000,-1.060000,-3.610000,0.050000,-1.270000,0.360000,0.000568,-0.000245,-0.012587,-0.000061,0.005033,-0.000717,4.633166,0.2000,0.0000,0.4799
9.0200,0.085945,-1.354146,0.031649,2.365793,-2.490323,0.386755,1.230000,-1.060000,-3.610000,0.050000,-1.270000,0.360000,0.000345,-0.000226,-0.012550,-0.000076,0.005000,-0.000346,4.637865,0.2000,0.0000,0.4799
9.0400,0.086805,-1.441888,0.032147,2.365090,-2.489720,0.387831,1.230000,-1.060000,-3.610000,0.050000,-1.270000,0.360000,0.000140,-0.000205,-0.012574,-0.000097,0.004949,0.000102,4.643932,0.2000,0.0000,0.4799
9.0600,0.087575,-1.536610,0.031913,2.364178,-2.489020,0.387349,1.230000,-1.060000,-3.610000,0.050000,-1.270000,0.360000,-0.000054,-0.000182,-0.012661,-0.000123,0.004882,0.000649,4.651666,0.2000,0.0000,0.4799
9.0800,0.088229,-1.638603,0.030897,2.362827,-2.487560,0.385299,1.230000,-1.060000,-3.610000,0.050000,-1.270000,0.360000,-0.000247,-0.000158,-0.012828,-0.000157,0.004795,0.001363,4.661202,0.2000,0.0000,0.4799
9.1000,0.088725,-1.747865,0.029234,2.359312,-2.484413,0.382237,1.230000,-1.060000,-3.610000,0.050000,-1.270000,0.360000,-0.000442,-0.000130,-0.013149,-0.000196,0.004678,0.002242,4.672034,0.2000,0.0000,0.4799
9.1200,0.089029,-1.863904,0.027060,2.350929,-2.478958,0.378669,1.230000,-1.060000,-3.610000,0.050000,-1.270000,0.360000,-0.000653,-0.000098,-0.013761,-0.000238,0.004529,0.003424,4.683213,0.2000,0.0000,0.4799
9.1400,0.089126,-1.985758,0.024438,2.335008,-2.469795,0.374925,1.230000,-1.060000,-3.610000,0.050000,-1.270000,0.360000,-0.000896,-0.000063,-0.014848,-0.000284,0.004329,0.005145,4.693480,0.2000,0.0000,0.4799
9.1600,0.089012,-2.111880,0.021410,2.309024,-2.454816,0.371416,1.230000,-1.060000,-3.610000,0.050000,-1.270000,0.360000,-0.001182,-0.000030,-0.016681,-0.000327,0.004124,0.007691,4.701335,0.2000,0.0000,0.4799
9.1800,0.088688,-2.240099,0.017927,2.270929,-2.427813,0.368489,1.230000,-1.060000,-3.610000,0.050000,-1.270000,0.360000,-0.001522,0.000018,-0.019719,-0.000407,0.003689,0.011753,4.704276,0.2000,0.0000,0.4799
9.2000,0.088914,-2.337174,0.012248,2.201134,-2.450688,0.348893,1.230000,-1.060000,-3.610000,0.050000,-1.270000,0.360000,-0.001349,0.000259,-0.024534,-0.000622,0.001720,0.013659,4.698452,0.2000,0.0000,0.4799
9.2200,0.091521,-2.339858,0.001116,2.074735,-2.553659,0.285342,1.230000,-1.060000,-3.610000,0.050000,-1.270000,0.360000,-0.001098,0.000041,-0.042922,-0.000411,0.002247,0.036268,4.661248,0.2000,0.0000,0.4799
9.2400,0.094327,-2.325917,-0.009177,1.954395,-2.548057,0.243434,1.230000,-1.060000,-3.610000,0.050000,-1.270000,0.360000,0.001909,0.000137,-0.071222,-0.000785,-0.000299,0.061937,4.596952,0.2000,0.0000,0.4799
9.2600,0.097298,-2.314730,-0.019060,1.841179,-2.518495,0.231148,1.230000,-1.060000,-3.610000,0.050000,-1.270000,0.360000,0.008342,0.000141,-0.106482,-0.001299,-0.002793,0.094762,4.531653,0.2000,0.0000,0.4799
9.2800,0.101200,-2.308124,-0.031395,1.732831,-2.481071,0.234487,1.230000,-1.060000,-3.610000,0.050000,-1.270000,0.360000,0.016811,0.000075,-0.133083,-0.002138,-0.004884,0.123189,4.466854,0.2000,0.0000,0.4799
9.3000,0.106010,-2.304702,-0.046407,1.626866,-2.440596,0.246483,1.230000,-1.060000,-3.610000,0.050000,-1.270000,0.360000,0.021076,0.000017,-0.121754,-0.002802,-0.004420,0.115086,4.402445,0.2000,0.0000,0.4799
9.3200,0.110574,-2.303082,-0.060952,1.521101,-2.397648,0.262483,1.230000,-1.060000,-3.610000,0.050000,-1.270000,0.360000,0.018559,0.000054,-0.083788,-0.002707,-0.001716,0.075911,4.340432,0.2000,0.0000,0.4799
9.3400,0.113635,-2.299942,-0.070525,1.411766,-2.344696,0.274013,1.230000,-1.060000,-3.610000,0.050000,-1.270000,0.360000,0.018529,0.000100,-0.070318,-0.003112,-0.001154,0.068743,4.281166,0.2000,0.0000,0.4799
9.3600,0.115262,-2.291787,-0.074615,1.294330,-2.292233,0.279119,1.230000,-1.060000,-3.610000,0.050000,-1.270000,0.360000,0.015923,0.000198,-0.051580,-0.002906,0.000194,0.050761,4.225961,0.2000,0.0000,0.4799
9.3800,0.115824,-2.284340,-0.075571,1.176515,-2.231524,0.283197,1.230000,-1.060000,-3.610000,0.050000,-1.270000,0.360000,0.014522,0.000282,-0.041735,-0.002915,0.000791,0.044919,4.175171,0.2000,0.0000,0.4799
9.4000,0.115594,-2.279610,-0.074933,1.060765,-2.160707,0.287256,1.230000,-1.060000,-3.610000,0.050000,-1.270000,0.360000,0.012903,0.000387,-0.033418,-0.002872,0.001230,0.038352,4.128722,0.2000,0.0000,0.4799
9.4200,0.114695,-2.276429,-0.073322,0.945323,-2.081223,0.290983,1.230000,-1.060000,-3.610000,0.050000,-1.270000,0.360000,0.011396,0.000514,-0.026889,-0.002867,0.001406,0.032050,4.086092,0.2000,0.0000,0.4799
9.4400,0.113106,-2.274418,-0.070858,0.829553,-1.993223,0.293881,1.230000,-1.060000,-3.610000,0.050000,-1.270000,0.360000,0.010243,0.000619,-0.022290,-0.002877,0.001556,0.027855,4.047582,0.2000,0.0000,0.4799
9.4600,0.110791,-2.273053,-0.067627,0.712449,-1.897052,0.295609,1.230000,-1.060000,-3.610000,0.050000,-1.270000,0.360000,0.009410,0.000682,-0.019120,-0.002860,0.001799,0.025816,4.013566,0.2000,0.0000,0.4799
9.4800,0.110290,-2.272149,-0.067990,0.654900,-1.813345,0.255433,1.230000,-1.060000,-3.610000,0.050000,-1.270000,0.360000,0.009764,0.000735,-0.019696,-0.003098,0.001795,0.033336,3.992612,0.2000,0.0000,0.4799
9.5000,0.116219,-2.272974,-0.079797,0.667502,-1.763841,0.215093,1.230000,-1.060000,-3.610000,0.050000,-1.270000,0.360000,0.009735,0.000747,-0.019706,-0.003176,0.002130,0.033729,3.977478,0.2000,0.0000,0.4799
